; HEADER_BLOCK_START
; generated by OrcaSlicer 2.2.0 on 2024-12-18 at 14:40:30
; total layer number: 100
; filament_density: 1.27,1.24,1.24,1.24,1.24
; filament_diameter: 1.75,1.75,1.75,1.75,1.75
; max_z_height: 20.00
; HEADER_BLOCK_END

; THUMBNAIL_BLOCK_START

;
; THUMBNAIL_BLOCK_END

; THUMBNAIL_BLOCK_START

;
; THUMBNAIL_BLOCK_END

; external perimeters extrusion width = 0.40mm
; perimeters extrusion width = 0.44mm
; infill extrusion width = 0.44mm
; solid infill extrusion width = 0.48mm
; top infill extrusion width = 0.38mm
; first layer extrusion width = 0.48mm

; EXECUTABLE_BLOCK_START
EXCLUDE_OBJECT_DEFINE NAME=Calibration_Cube.stl_id_0_copy_0 CENTER=256.08,172.077 POLYGON=[[246.08,164.077],[248.08,162.077],[264.08,162.077],[266.08,164.077],[266.08,180.077],[264.08,182.077],[248.08,182.077],[246.08,180.077],[246.08,164.077]]
M73 P0 R15
;TYPE:Custom
;START
M140 S35         ; set bed final temp
M190 S35         ; wait for bed final temp






G90
G21
M83 ; use relative distances for extrusion
; TESTING
T1



OFFSET_T1
M117 SET FILAMENT SENSOR OFF 
SET_FILAMENT_SENSOR SENSOR=encoder_t1 ENABLE=0
;_FORCE_RESUME_FAN_SPEED
; filament start gcode
M109 S220 T1 ; set nozzle temperature and wait for it to be reached
M106 S0
;LAYER_CHANGE
;Z:0.2
;HEIGHT:0.2
;BEFORE_LAYER_CHANGE
;0.2
G92 E0

OFFSET_T1
M117 SET FILAMENT SENSOR OFF 
SET_FILAMENT_SENSOR SENSOR=encoder_t1 ENABLE=0

M117 LAYER 0.2
G1 E-.4 F1800
;AFTER_LAYER_CHANGE
;0.2

OFFSET_T1
M117 SET FILAMENT SENSOR OFF 
SET_FILAMENT_SENSOR SENSOR=encoder_t1 ENABLE=0


;_SET_FAN_SPEED_CHANGING_LAYER
SET_VELOCITY_LIMIT ACCEL=500 ACCEL_TO_DECEL=250
G1 Z.6 F21000
G1 X245.643 Y161.64
G1 Z.6
G1 Z.2
G1 E.4 F1800
;Change extrusion role G-code

OFFSET_T1
M117 SET FILAMENT SENSOR OFF 
SET_FILAMENT_SENSOR SENSOR=encoder_t1 ENABLE=0


;TYPE:Skirt
;WIDTH:0.48
G1 F3000
G1 X245.893 Y161.39 E.01285
G1 X247.239 Y160.6 E.0567
G1 X248.08 Y160.484 E.03086
G1 X264.08 Y160.484 E.58149
G1 X265.59 Y160.877 E.0567
G1 X266.267 Y161.39 E.03086
G1 X266.767 Y161.89 E.0257
G1 X267.556 Y163.235 E.0567
G1 X267.673 Y164.077 E.03086
G1 X267.673 Y180.077 E.58149
G1 X267.279 Y181.586 E.0567
G1 X266.767 Y182.263 E.03086
G1 X266.267 Y182.763 E.0257
G1 X264.921 Y183.553 E.0567
G1 X264.08 Y183.669 E.03086
G1 X248.08 Y183.669 E.58149
G1 X246.57 Y183.276 E.0567
G1 X245.893 Y182.763 E.03086
G1 X245.393 Y182.263 E.0257
G1 X244.604 Y180.918 E.0567
G1 X244.487 Y180.077 E.03086
G1 X244.487 Y164.077 E.58149
G1 X244.881 Y162.567 E.0567
G1 X245.393 Y161.89 E.03086
G1 X245.615 Y161.668 E.0114
G1 X245.924 Y161.977 F21000
G1 F3000
G1 X246.202 Y161.699 E.0143
G1 X248.08 Y160.921 E.07387
G1 X264.08 Y160.921 E.58149
G1 X265.958 Y161.699 E.07387
G1 X266.458 Y162.199 E.0257
G1 X267.236 Y164.077 E.07387
G1 X267.236 Y180.077 E.58149
G1 X266.458 Y181.954 E.07387
G1 X265.958 Y182.454 E.0257
G1 X264.08 Y183.232 E.07387
G1 X248.08 Y183.232 E.58149
G1 X246.202 Y182.454 E.07387
G1 X245.702 Y181.954 E.0257
G1 X244.924 Y180.077 E.07387
G1 X244.924 Y164.077 E.58149
G1 X245.702 Y162.199 E.07387
G1 X245.896 Y162.005 E.00994
G1 X246.205 Y162.314 F21000
G1 F3000
G1 X246.511 Y162.008 E.01576
G1 X248.08 Y161.358 E.06171
G1 X264.08 Y161.358 E.58149
G1 X265.649 Y162.008 E.06171
G1 X266.149 Y162.508 E.0257
G1 X266.799 Y164.077 E.06171
G1 X266.799 Y180.077 E.58149
G1 X266.149 Y181.645 E.06171
G1 X265.649 Y182.145 E.0257
G1 X264.08 Y182.795 E.06171
G1 X248.08 Y182.795 E.58149
G1 X246.511 Y182.145 E.06171
G1 X246.011 Y181.645 E.0257
G1 X245.362 Y180.077 E.06171
G1 X245.362 Y164.077 E.58149
G1 X246.011 Y162.508 E.06171
G1 X246.177 Y162.343 E.00849
; printing object Calibration Cube.stl id:0 copy 0
G1 E-.28 F1800
;WIPE_START
G1 F3000
G1 X246.511 Y162.008 E-.05683
G1 X246.998 Y161.806 E-.06317
;WIPE_END
EXCLUDE_OBJECT_START NAME=Calibration_Cube.stl_id_0_copy_0
G1 Z.6 F21000
G1 X263.066 Y165.091 Z.6
G1 Z.2
G1 E.4 F1800
;Change extrusion role G-code

OFFSET_T1
M117 SET FILAMENT SENSOR OFF 
SET_FILAMENT_SENSOR SENSOR=encoder_t1 ENABLE=0


;TYPE:Inner wall
;WIDTH:0.479999
G1 F3000
G1 X263.066 Y179.062 E.50778
G1 X249.094 Y179.062 E.50778
G1 X249.094 Y165.091 E.50778
M73 P1 R15
G1 X263.026 Y165.091 E.50632
M73 P1 R15
G1 X263.503 Y164.654 F21000
G1 F3000
G1 X263.503 Y179.499 E.53955
G1 X248.657 Y179.499 E.53955
G1 X248.657 Y164.654 E.53955
G1 X263.463 Y164.654 E.53809
G1 X263.94 Y164.217 F21000
;Change extrusion role G-code

OFFSET_T1
M117 SET FILAMENT SENSOR OFF 
SET_FILAMENT_SENSOR SENSOR=encoder_t1 ENABLE=0


;TYPE:Outer wall
G1 F3000
G1 X263.94 Y179.937 E.57132
G1 X248.22 Y179.937 E.57132
G1 X248.22 Y164.217 E.57132
G1 X263.9 Y164.217 E.56986
G1 E-.28 F1800
;WIPE_START
G1 F3000
G1 X263.903 Y165.217 E-.12
;WIPE_END
G1 Z.6 F21000
G1 X262.041 Y165.222 Z.6
G1 Z.2
G1 E.4 F1800
;Change extrusion role G-code

OFFSET_T1
M117 SET FILAMENT SENSOR OFF 
SET_FILAMENT_SENSOR SENSOR=encoder_t1 ENABLE=0


;TYPE:Bottom surface
;WIDTH:0.484962
G1 F6300
G1 X262.738 Y165.919 E.03625
G1 X262.738 Y166.544 E.02298
G1 X261.612 Y165.418 E.05852
G1 X260.987 Y165.418 E.02298
G1 X262.738 Y167.169 E.09102
G1 X262.738 Y167.795 E.02298
G1 X260.362 Y165.418 E.12351
G1 X259.737 Y165.418 E.02298
G1 X262.738 Y168.42 E.15601
G1 X262.738 Y169.045 E.02298
G1 X259.112 Y165.418 E.1885
G1 X258.487 Y165.418 E.02298
G1 X262.738 Y169.67 E.221
G1 X262.738 Y170.295 E.02298
G1 X257.861 Y165.418 E.25349
G1 X257.236 Y165.418 E.02298
G1 X262.738 Y170.92 E.28599
G1 X262.738 Y171.545 E.02298
G1 X256.611 Y165.418 E.31849
G1 X255.986 Y165.418 E.02298
G1 X262.738 Y172.171 E.35098
G1 X262.738 Y172.796 E.02298
G1 X255.361 Y165.418 E.38348
G1 X254.736 Y165.418 E.02298
G1 X262.738 Y173.421 E.41597
G1 X262.738 Y174.046 E.02298
G1 X254.111 Y165.418 E.44847
G1 X253.485 Y165.418 E.02298
G1 X262.738 Y174.671 E.48096
G1 X262.738 Y175.296 E.02298
G1 X252.86 Y165.418 E.51346
G1 X252.235 Y165.418 E.02298
G1 X262.738 Y175.921 E.54595
G1 X262.738 Y176.547 E.02298
G1 X251.61 Y165.418 E.57845
G1 X250.985 Y165.418 E.02298
G1 X262.738 Y177.172 E.61094
G1 X262.738 Y177.797 E.02298
G1 X250.36 Y165.418 E.64344
G1 X249.735 Y165.418 E.02298
G1 X262.738 Y178.422 E.67593
M73 P2 R15
G1 X262.738 Y178.735 E.01149
M73 P2 R15
G1 X262.426 Y178.735 E.01149
G1 X249.422 Y165.731 E.67593
G1 X249.422 Y166.356 E.02298
G1 X261.8 Y178.735 E.64343
G1 X261.175 Y178.735 E.02298
G1 X249.422 Y166.981 E.61094
G1 X249.422 Y167.607 E.02298
G1 X260.55 Y178.735 E.57844
G1 X259.925 Y178.735 E.02298
G1 X249.422 Y168.232 E.54595
G1 X249.422 Y168.857 E.02298
G1 X259.3 Y178.735 E.51345
G1 X258.675 Y178.735 E.02298
G1 X249.422 Y169.482 E.48096
G1 X249.422 Y170.107 E.02298
G1 X258.05 Y178.735 E.44846
G1 X257.424 Y178.735 E.02298
G1 X249.422 Y170.732 E.41597
G1 X249.422 Y171.357 E.02298
G1 X256.799 Y178.735 E.38347
G1 X256.174 Y178.735 E.02298
G1 X249.422 Y171.983 E.35098
G1 X249.422 Y172.608 E.02298
G1 X255.549 Y178.735 E.31848
G1 X254.924 Y178.735 E.02298
G1 X249.422 Y173.233 E.28599
G1 X249.422 Y173.858 E.02298
G1 X254.299 Y178.735 E.25349
G1 X253.674 Y178.735 E.02298
G1 X249.422 Y174.483 E.22099
G1 X249.422 Y175.108 E.02298
G1 X253.048 Y178.735 E.1885
G1 X252.423 Y178.735 E.02298
G1 X249.422 Y175.733 E.156
G1 X249.422 Y176.359 E.02298
G1 X251.798 Y178.735 E.12351
G1 X251.173 Y178.735 E.02298
G1 X249.422 Y176.984 E.09101
G1 X249.422 Y177.609 E.02298
G1 X250.548 Y178.735 E.05852
G1 X249.923 Y178.735 E.02298
G1 X249.225 Y178.037 E.03625
; stop printing object Calibration Cube.stl id:0 copy 0
M106 S255
;LAYER_CHANGE
;Z:0.4
;HEIGHT:0.2
;BEFORE_LAYER_CHANGE
;0.4
G92 E0

OFFSET_T1
M117 SET FILAMENT SENSOR OFF 
SET_FILAMENT_SENSOR SENSOR=encoder_t1 ENABLE=0

M117 LAYER 0.4
G1 E-.28 F1800
;WIPE_START
G1 F6300
G1 X249.923 Y178.735 E-.11834
G1 X249.937 Y178.735 E-.00166
;WIPE_END
EXCLUDE_OBJECT_END NAME=Calibration_Cube.stl_id_0_copy_0
;AFTER_LAYER_CHANGE
;0.4

OFFSET_T1
M117 SET FILAMENT SENSOR OFF 
SET_FILAMENT_SENSOR SENSOR=encoder_t1 ENABLE=0


;_SET_FAN_SPEED_CHANGING_LAYER
SET_VELOCITY_LIMIT ACCEL=5000 ACCEL_TO_DECEL=2500
M140 S35 ; set bed temperature
SET_VELOCITY_LIMIT ACCEL=7000 ACCEL_TO_DECEL=3500
G1 Z.8 F21000
G1 X249.937 Y182.795 Z.8
G1 Z.4
G1 E.4 F1800
SET_VELOCITY_LIMIT ACCEL=5000 ACCEL_TO_DECEL=2500
;Change extrusion role G-code

OFFSET_T1
M117 SET FILAMENT SENSOR OFF 
SET_FILAMENT_SENSOR SENSOR=encoder_t1 ENABLE=0


;TYPE:Skirt
;WIDTH:0.48
G1 F3000
G1 X264.08 Y182.795 E.51402
G1 X265.649 Y182.145 E.06171
G1 X266.149 Y181.645 E.0257
G1 X266.799 Y180.077 E.06171
G1 X266.799 Y164.077 E.58149
G1 X266.149 Y162.508 E.06171
G1 X265.649 Y162.008 E.0257
G1 X264.08 Y161.358 E.06171
G1 X248.08 Y161.358 E.58149
G1 X246.511 Y162.008 E.06171
G1 X246.011 Y162.508 E.0257
G1 X245.362 Y164.077 E.06171
G1 X245.362 Y180.077 E.58149
G1 X246.011 Y181.645 E.06171
G1 X246.511 Y182.145 E.0257
G1 X248.08 Y182.795 E.06171
G1 X249.897 Y182.795 E.06602
; printing object Calibration Cube.stl id:0 copy 0
SET_VELOCITY_LIMIT ACCEL=7000 ACCEL_TO_DECEL=3500
G1 E-.28 F1800
;WIPE_START
G1 F3000
G1 X250.897 Y182.795 E-.12
;WIPE_END
EXCLUDE_OBJECT_START NAME=Calibration_Cube.stl_id_0_copy_0
G1 Z.8 F21000
G1 X263.406 Y164.751 Z.8
G1 Z.4
G1 E.4 F1800
SET_VELOCITY_LIMIT ACCEL=5000 ACCEL_TO_DECEL=2500
;Change extrusion role G-code

OFFSET_T1
M117 SET FILAMENT SENSOR OFF 
SET_FILAMENT_SENSOR SENSOR=encoder_t1 ENABLE=0


;TYPE:Inner wall
;WIDTH:0.439999
G1 F7482
G1 X263.406 Y179.402 E.48376
G1 X248.754 Y179.402 E.48376
G1 X248.754 Y164.751 E.48376
G1 X263.366 Y164.751 E.48244
SET_VELOCITY_LIMIT ACCEL=7000 ACCEL_TO_DECEL=3500
G1 X263.803 Y164.354 F21000
SET_VELOCITY_LIMIT ACCEL=5000 ACCEL_TO_DECEL=2500
G1 F7482
G1 X263.803 Y179.799 E.50998
G1 X248.357 Y179.799 E.50998
G1 X248.357 Y164.354 E.50998
G1 X263.763 Y164.354 E.50866
SET_VELOCITY_LIMIT ACCEL=7000 ACCEL_TO_DECEL=3500
G1 X263.997 Y163.977 F21000
SET_VELOCITY_LIMIT ACCEL=3000 ACCEL_TO_DECEL=1500
;Change extrusion role G-code

OFFSET_T1
M117 SET FILAMENT SENSOR OFF 
SET_FILAMENT_SENSOR SENSOR=encoder_t1 ENABLE=0


;TYPE:Outer wall
;WIDTH:0.399999
G1 F3000
G1 X264.18 Y164.159 E.00766
G1 X264.18 Y179.994 E.47016
G1 X263.997 Y180.177 E.00768
G1 X248.163 Y180.177 E.47013
M73 P3 R15
G1 X247.98 Y179.994 E.00768
M73 P3 R15
G1 X247.98 Y164.159 E.47016
G1 X248.163 Y163.977 E.00766
G1 X263.957 Y163.977 E.46894
SET_VELOCITY_LIMIT ACCEL=7000 ACCEL_TO_DECEL=3500
G1 E-.28 F1800
;WIPE_START
G1 F3000
G1 X264.18 Y164.159 E-.03459
G1 X264.18 Y164.871 E-.08541
;WIPE_END
G1 Z.8 F21000
G1 X263.285 Y178.295 Z.8
G1 Z.4
G1 E.4 F1800
SET_VELOCITY_LIMIT ACCEL=5000 ACCEL_TO_DECEL=2500
;Change extrusion role G-code

OFFSET_T1
M117 SET FILAMENT SENSOR OFF 
SET_FILAMENT_SENSOR SENSOR=encoder_t1 ENABLE=0


;TYPE:Internal solid infill
;WIDTH:0.481986
G1 F7482
G1 X262.495 Y179.085 E.04079
G1 X261.874 Y179.085 E.02267
G1 X263.088 Y177.87 E.06269
G1 X263.088 Y177.249 E.02267
G1 X261.253 Y179.085 E.09475
G1 X260.632 Y179.085 E.02267
G1 X263.088 Y176.628 E.12681
G1 X263.088 Y176.007 E.02267
G1 X260.011 Y179.085 E.15887
G1 X259.39 Y179.085 E.02267
G1 X263.088 Y175.387 E.19093
G1 X263.088 Y174.766 E.02267
G1 X258.769 Y179.085 E.22299
G1 X258.148 Y179.085 E.02267
G1 X263.088 Y174.145 E.25505
G1 X263.088 Y173.524 E.02267
G1 X257.527 Y179.085 E.28711
G1 X256.906 Y179.085 E.02267
G1 X263.088 Y172.903 E.31917
G1 X263.088 Y172.282 E.02267
G1 X256.285 Y179.085 E.35123
G1 X255.665 Y179.085 E.02267
G1 X263.088 Y171.661 E.38329
G1 X263.088 Y171.04 E.02267
G1 X255.044 Y179.085 E.41535
G1 X254.423 Y179.085 E.02267
G1 X263.088 Y170.419 E.4474
G1 X263.088 Y169.798 E.02267
G1 X253.802 Y179.085 E.47946
G1 X253.181 Y179.085 E.02267
G1 X263.088 Y169.177 E.51152
G1 X263.088 Y168.556 E.02267
G1 X252.56 Y179.085 E.54358
G1 X251.939 Y179.085 E.02267
G1 X263.088 Y167.935 E.57564
G1 X263.088 Y167.314 E.02267
G1 X251.318 Y179.085 E.6077
G1 X250.697 Y179.085 E.02267
G1 X263.088 Y166.693 E.63976
G1 X263.088 Y166.073 E.02267
G1 X250.076 Y179.085 E.67182
G1 X249.455 Y179.085 E.02267
G1 X263.088 Y165.452 E.70388
G1 X263.088 Y165.068 E.01399
G1 X262.85 Y165.068 E.00868
G1 X249.072 Y178.847 E.71138
G1 X249.072 Y178.226 E.02267
G1 X262.229 Y165.068 E.67932
G1 X261.608 Y165.068 E.02267
G1 X249.072 Y177.605 E.64727
G1 X249.072 Y176.984 E.02267
G1 X260.988 Y165.068 E.61521
G1 X260.367 Y165.068 E.02267
G1 X249.072 Y176.363 E.58315
G1 X249.072 Y175.742 E.02267
G1 X259.746 Y165.068 E.55109
G1 X259.125 Y165.068 E.02267
G1 X249.072 Y175.121 E.51903
G1 X249.072 Y174.5 E.02267
G1 X258.504 Y165.068 E.48697
G1 X257.883 Y165.068 E.02267
G1 X249.072 Y173.879 E.45491
G1 X249.072 Y173.258 E.02267
G1 X257.262 Y165.068 E.42285
G1 X256.641 Y165.068 E.02267
G1 X249.072 Y172.637 E.39079
G1 X249.072 Y172.017 E.02267
G1 X256.02 Y165.068 E.35873
G1 X255.399 Y165.068 E.02267
G1 X249.072 Y171.396 E.32667
G1 X249.072 Y170.775 E.02267
G1 X254.778 Y165.068 E.29461
G1 X254.157 Y165.068 E.02267
G1 X249.072 Y170.154 E.26255
G1 X249.072 Y169.533 E.02267
G1 X253.536 Y165.068 E.23049
G1 X252.915 Y165.068 E.02267
G1 X249.072 Y168.912 E.19844
G1 X249.072 Y168.291 E.02267
G1 X252.294 Y165.068 E.16638
G1 X251.674 Y165.068 E.02267
G1 X249.072 Y167.67 E.13432
G1 X249.072 Y167.049 E.02267
G1 X251.053 Y165.068 E.10226
G1 X250.432 Y165.068 E.02267
G1 X249.072 Y166.428 E.0702
G1 X249.072 Y165.807 E.02267
G1 X250.007 Y164.872 E.04829
SET_VELOCITY_LIMIT ACCEL=7000 ACCEL_TO_DECEL=3500
G1 X249.193 Y165.116 F21000
SET_VELOCITY_LIMIT ACCEL=5000 ACCEL_TO_DECEL=2500
;WIDTH:0.469754
G1 F7482
G1 X249.14 Y165.116 E.00189
G1 X249.113 Y165.163 E.00189
G1 X249.14 Y165.209 E.00189
G1 X249.2 Y165.197 E.00217
SET_VELOCITY_LIMIT ACCEL=7000 ACCEL_TO_DECEL=3500
G1 X263.058 Y178.996 F21000
SET_VELOCITY_LIMIT ACCEL=5000 ACCEL_TO_DECEL=2500
;WIDTH:0.384528
G1 F7482
G1 X262.994 Y179.033 E.0021
G1 X263.059 Y179.068 E.0021
; stop printing object Calibration Cube.stl id:0 copy 0
;LAYER_CHANGE
;Z:0.6
;HEIGHT:0.2
;BEFORE_LAYER_CHANGE
;0.6
G92 E0

OFFSET_T1
M117 SET FILAMENT SENSOR OFF 
SET_FILAMENT_SENSOR SENSOR=encoder_t1 ENABLE=0

M117 LAYER 0.6
G1 E-.37473 F1800
;WIPE_START
G1 F10538.395
G1 X262.994 Y179.033 E-.01264
G1 X263.058 Y178.996 E-.01263
;WIPE_END
EXCLUDE_OBJECT_END NAME=Calibration_Cube.stl_id_0_copy_0
;AFTER_LAYER_CHANGE
;0.6

OFFSET_T1
M117 SET FILAMENT SENSOR OFF 
SET_FILAMENT_SENSOR SENSOR=encoder_t1 ENABLE=0


;_SET_FAN_SPEED_CHANGING_LAYER
SET_VELOCITY_LIMIT ACCEL=7000 ACCEL_TO_DECEL=3500
G1 Z1 F21000
G1 X266.799 Y178.996 Z1
G1 Z.6
G1 E.4 F1800
SET_VELOCITY_LIMIT ACCEL=5000 ACCEL_TO_DECEL=2500
;Change extrusion role G-code

OFFSET_T1
M117 SET FILAMENT SENSOR OFF 
SET_FILAMENT_SENSOR SENSOR=encoder_t1 ENABLE=0


;TYPE:Skirt
;WIDTH:0.48
G1 F3000
G1 X266.799 Y180.077 E.03927
G1 X266.149 Y181.645 E.06171
G1 X265.649 Y182.145 E.0257
G1 X264.08 Y182.795 E.06171
G1 X248.08 Y182.795 E.58149
G1 X246.511 Y182.145 E.06171
G1 X246.011 Y181.645 E.0257
G1 X245.362 Y180.077 E.06171
G1 X245.362 Y164.077 E.58149
G1 X246.011 Y162.508 E.06171
G1 X246.511 Y162.008 E.0257
G1 X248.08 Y161.358 E.06171
G1 X264.08 Y161.358 E.58149
G1 X265.649 Y162.008 E.06171
G1 X266.149 Y162.508 E.0257
G1 X266.799 Y164.077 E.06171
G1 X266.799 Y178.956 E.54077
; printing object Calibration Cube.stl id:0 copy 0
SET_VELOCITY_LIMIT ACCEL=7000 ACCEL_TO_DECEL=3500
G1 E-.28 F1800
;WIPE_START
G1 F3000
G1 X266.799 Y179.956 E-.12
;WIPE_END
EXCLUDE_OBJECT_START NAME=Calibration_Cube.stl_id_0_copy_0
G1 Z1 F21000
G1 X263.606 Y164.551 Z1
G1 Z.6
G1 E.4 F1800
SET_VELOCITY_LIMIT ACCEL=5000 ACCEL_TO_DECEL=2500
;Change extrusion role G-code

OFFSET_T1
M117 SET FILAMENT SENSOR OFF 
SET_FILAMENT_SENSOR SENSOR=encoder_t1 ENABLE=0


;TYPE:Inner wall
;WIDTH:0.439999
G1 F7706
G1 X263.606 Y179.602 E.49697
G1 X248.554 Y179.602 E.49697
G1 X248.554 Y164.551 E.49697
G1 X263.566 Y164.551 E.49564
SET_VELOCITY_LIMIT ACCEL=7000 ACCEL_TO_DECEL=3500
G1 X263.841 Y164.154 F21000
SET_VELOCITY_LIMIT ACCEL=5000 ACCEL_TO_DECEL=2500
G1 F7706
G1 X264.003 Y164.316 E.00756
G1 X264.003 Y179.837 E.51249
M73 P4 R15
G1 X263.841 Y179.999 E.00756
M73 P4 R15
G1 X248.319 Y179.999 E.51249
G1 X248.157 Y179.837 E.00756
G1 X248.157 Y164.316 E.51249
G1 X248.319 Y164.154 E.00756
G1 X263.801 Y164.154 E.51117
