; HEADER_BLOCK_START
; generated by OrcaSlicer 2.2.0 on 2024-12-14 at 08:08:47
; total layer number: 100
; filament_density: 1.27,1.24,1.24,1.24,1.24
; filament_diameter: 1.75,1.75,1.75,1.75,1.75
; max_z_height: 20.00
; HEADER_BLOCK_END

; THUMBNAIL_BLOCK_START

;
; THUMBNAIL_BLOCK_END

; THUMBNAIL_BLOCK_START

;
; THUMBNAIL_BLOCK_END

; external perimeters extrusion width = 0.40mm
; perimeters extrusion width = 0.44mm
; infill extrusion width = 0.44mm
; solid infill extrusion width = 0.48mm
; top infill extrusion width = 0.38mm
; first layer extrusion width = 0.48mm

; EXECUTABLE_BLOCK_START
EXCLUDE_OBJECT_DEFINE NAME=Calibration_Cube.stl_id_0_copy_0 CENTER=222.206,148.866 POLYGON=[[212.206,140.866],[214.206,138.866],[230.206,138.866],[232.206,140.866],[232.206,156.866],[230.206,158.866],[214.206,158.866],[212.206,156.866],[212.206,140.866]]
M73 P0 R15
;TYPE:Custom
;START
M140 S60         ; set bed final temp
M190 S60         ; wait for bed final temp






G90
G21
M83 ; use relative distances for extrusion
; TESTING
T2



OFFSET_T2
M117 SET FILAMENT SENSOR ON 
SET_FILAMENT_SENSOR SENSOR=encoder_t2 ENABLE=1
;_FORCE_RESUME_FAN_SPEED
; filament start gcode
M109 S200 T2 ; set nozzle temperature and wait for it to be reached
M106 S0
;LAYER_CHANGE
;Z:0.2
;HEIGHT:0.2
;BEFORE_LAYER_CHANGE
;0.2
G92 E0

OFFSET_T2

M117 LAYER 0.2
G1 E-.8 F1800
;AFTER_LAYER_CHANGE
;0.2
;AFTER_LAYER_CHANGE
;0.2

OFFSET_T2

;_SET_FAN_SPEED_CHANGING_LAYER
SET_VELOCITY_LIMIT ACCEL=500 ACCEL_TO_DECEL=250
G1 Z.6 F21000
G1 X211.769 Y138.429
G1 Z.6
G1 Z.2
G1 E.8 F1800
;Change extrusion role G-code

OFFSET_T2


;TYPE:Skirt
;WIDTH:0.48
G1 F3000
G1 X212.019 Y138.179 E.01259
G1 X213.365 Y137.39 E.05557
G1 X214.206 Y137.274 E.03024
G1 X230.206 Y137.274 E.56986
G1 X231.715 Y137.667 E.05557
G1 X232.393 Y138.179 E.03024
G1 X232.893 Y138.679 E.02518
G1 X233.682 Y140.025 E.05557
G1 X233.798 Y140.866 E.03024
G1 X233.798 Y156.866 E.56986
G1 X233.405 Y158.376 E.05557
G1 X232.893 Y159.053 E.03024
G1 X232.393 Y159.553 E.02518
G1 X231.047 Y160.342 E.05557
G1 X230.206 Y160.459 E.03024
G1 X214.206 Y160.459 E.56986
G1 X212.696 Y160.065 E.05557
G1 X212.019 Y159.553 E.03024
G1 X211.519 Y159.053 E.02518
G1 X210.73 Y157.707 E.05557
G1 X210.613 Y156.866 E.03024
G1 X210.613 Y140.866 E.56986
G1 X211.007 Y139.357 E.05557
G1 X211.519 Y138.679 E.03024
G1 X211.741 Y138.458 E.01117
G1 X212.05 Y138.767 F21000
G1 F3000
G1 X212.328 Y138.488 E.01402
G1 X214.206 Y137.711 E.07239
G1 X230.206 Y137.711 E.56986
G1 X232.083 Y138.488 E.07239
G1 X232.583 Y138.988 E.02518
G1 X233.361 Y140.866 E.07239
G1 X233.361 Y156.866 E.56986
G1 X232.583 Y158.744 E.07239
G1 X232.083 Y159.244 E.02518
G1 X230.206 Y160.022 E.07239
G1 X214.206 Y160.022 E.56986
G1 X212.328 Y159.244 E.07239
G1 X211.828 Y158.744 E.02518
G1 X211.05 Y156.866 E.07239
G1 X211.05 Y140.866 E.56986
G1 X211.828 Y138.988 E.07239
G1 X212.021 Y138.795 E.00974
G1 X212.33 Y139.104 F21000
G1 F3000
G1 X212.637 Y138.798 E.01544
G1 X214.206 Y138.148 E.06048
G1 X230.206 Y138.148 E.56986
G1 X231.774 Y138.798 E.06048
G1 X232.274 Y139.298 E.02518
G1 X232.924 Y140.866 E.06048
G1 X232.924 Y156.866 E.56986
G1 X232.274 Y158.435 E.06048
G1 X231.774 Y158.935 E.02518
G1 X230.206 Y159.585 E.06048
G1 X214.206 Y159.585 E.56986
G1 X212.637 Y158.935 E.06048
G1 X212.137 Y158.435 E.02518
G1 X211.487 Y156.866 E.06048
G1 X211.487 Y140.866 E.56986
G1 X212.137 Y139.298 E.06048
G1 X212.302 Y139.132 E.00832
; printing object Calibration Cube.stl id:0 copy 0
G1 E-.56 F1800
;WIPE_START
G1 F3000
G1 X212.637 Y138.798 E-.11365
G1 X213.123 Y138.596 E-.12635
;WIPE_END
EXCLUDE_OBJECT_START NAME=Calibration_Cube.stl_id_0_copy_0
G1 Z.6 F21000
G1 X229.192 Y141.88 Z.6
G1 Z.2
G1 E.8 F1800
;Change extrusion role G-code

OFFSET_T2


;TYPE:Inner wall
;WIDTH:0.479999
G1 F3000
G1 X229.192 Y155.852 E.49762
G1 X215.22 Y155.852 E.49762
G1 X215.22 Y141.88 E.49762
G1 X229.152 Y141.88 E.4962
M73 P1 R15
G1 X229.629 Y141.443 F21000
M73 P1 R15
G1 F3000
G1 X229.629 Y156.289 E.52876
G1 X214.783 Y156.289 E.52876
G1 X214.783 Y141.443 E.52876
G1 X229.589 Y141.443 E.52733
G1 X230.066 Y141.006 F21000
;Change extrusion role G-code

OFFSET_T2


;TYPE:Outer wall
G1 F3000
G1 X230.066 Y156.726 E.55989
G1 X214.346 Y156.726 E.55989
G1 X214.346 Y141.006 E.55989
G1 X230.026 Y141.006 E.55847
G1 E-.56 F1800
;WIPE_START
G1 F3000
G1 X230.028 Y142.006 E-.24
;WIPE_END
G1 Z.6 F21000
G1 X228.166 Y142.012 Z.6
G1 Z.2
G1 E.8 F1800
;Change extrusion role G-code

OFFSET_T2


;TYPE:Bottom surface
;WIDTH:0.484962
G1 F6300
G1 X228.864 Y142.709 E.03553
G1 X228.864 Y143.334 E.02252
G1 X227.738 Y142.208 E.05735
G1 X227.113 Y142.208 E.02252
G1 X228.864 Y143.959 E.0892
G1 X228.864 Y144.584 E.02252
G1 X226.488 Y142.208 E.12104
G1 X225.862 Y142.208 E.02252
G1 X228.864 Y145.209 E.15289
G1 X228.864 Y145.835 E.02252
G1 X225.237 Y142.208 E.18473
G1 X224.612 Y142.208 E.02252
G1 X228.864 Y146.46 E.21658
G1 X228.864 Y147.085 E.02252
G1 X223.987 Y142.208 E.24842
G1 X223.362 Y142.208 E.02252
G1 X228.864 Y147.71 E.28027
G1 X228.864 Y148.335 E.02252
G1 X222.737 Y142.208 E.31212
G1 X222.112 Y142.208 E.02252
G1 X228.864 Y148.96 E.34396
G1 X228.864 Y149.585 E.02252
G1 X221.486 Y142.208 E.37581
G1 X220.861 Y142.208 E.02252
G1 X228.864 Y150.211 E.40765
G1 X228.864 Y150.836 E.02252
G1 X220.236 Y142.208 E.4395
G1 X219.611 Y142.208 E.02252
G1 X228.864 Y151.461 E.47134
G1 X228.864 Y152.086 E.02252
G1 X218.986 Y142.208 E.50319
G1 X218.361 Y142.208 E.02252
G1 X228.864 Y152.711 E.53503
G1 X228.864 Y153.336 E.02252
G1 X217.736 Y142.208 E.56688
G1 X217.11 Y142.208 E.02252
G1 X228.864 Y153.961 E.59872
G1 X228.864 Y154.587 E.02252
G1 X216.485 Y142.208 E.63057
G1 X215.86 Y142.208 E.02252
G1 X228.864 Y155.212 E.66242
G1 X228.864 Y155.524 E.01126
G1 X228.551 Y155.524 E.01126
G1 X215.548 Y142.521 E.66241
M73 P2 R15
G1 X215.548 Y143.146 E.02252
M73 P2 R15
G1 X227.926 Y155.524 E.63057
G1 X227.301 Y155.524 E.02252
G1 X215.548 Y143.771 E.59872
G1 X215.548 Y144.396 E.02252
G1 X226.676 Y155.524 E.56687
G1 X226.051 Y155.524 E.02252
G1 X215.548 Y145.021 E.53503
G1 X215.548 Y145.647 E.02252
G1 X225.425 Y155.524 E.50318
G1 X224.8 Y155.524 E.02252
G1 X215.548 Y146.272 E.47134
G1 X215.548 Y146.897 E.02252
G1 X224.175 Y155.524 E.43949
G1 X223.55 Y155.524 E.02252
G1 X215.548 Y147.522 E.40765
G1 X215.548 Y148.147 E.02252
G1 X222.925 Y155.524 E.3758
G1 X222.3 Y155.524 E.02252
G1 X215.548 Y148.772 E.34396
G1 X215.548 Y149.397 E.02252
G1 X221.675 Y155.524 E.31211
G1 X221.049 Y155.524 E.02252
G1 X215.548 Y150.023 E.28027
G1 X215.548 Y150.648 E.02252
G1 X220.424 Y155.524 E.24842
G1 X219.799 Y155.524 E.02252
G1 X215.548 Y151.273 E.21657
G1 X215.548 Y151.898 E.02252
G1 X219.174 Y155.524 E.18473
G1 X218.549 Y155.524 E.02252
G1 X215.548 Y152.523 E.15288
G1 X215.548 Y153.148 E.02252
G1 X217.924 Y155.524 E.12104
G1 X217.299 Y155.524 E.02252
G1 X215.548 Y153.773 E.08919
G1 X215.548 Y154.399 E.02252
G1 X216.673 Y155.524 E.05735
G1 X216.048 Y155.524 E.02252
G1 X215.351 Y154.827 E.03552
; stop printing object Calibration Cube.stl id:0 copy 0
M106 S255
;LAYER_CHANGE
;Z:0.4
;HEIGHT:0.2
;BEFORE_LAYER_CHANGE
;0.4
G92 E0

OFFSET_T2

M117 LAYER 0.4
G1 E-.56 F1800
;WIPE_START
G1 F6300
G1 X216.048 Y155.524 E-.23667
G1 X216.062 Y155.524 E-.00333
;WIPE_END
EXCLUDE_OBJECT_END NAME=Calibration_Cube.stl_id_0_copy_0
;AFTER_LAYER_CHANGE
;0.4
;AFTER_LAYER_CHANGE
;0.4

OFFSET_T2

;_SET_FAN_SPEED_CHANGING_LAYER
SET_VELOCITY_LIMIT ACCEL=5000 ACCEL_TO_DECEL=2500
M104 S195 T2 ; set nozzle temperature
M140 S60 ; set bed temperature
SET_VELOCITY_LIMIT ACCEL=7000 ACCEL_TO_DECEL=3500
G1 Z.8 F21000
G1 X216.062 Y159.585 Z.8
G1 Z.4
G1 E.8 F1800
SET_VELOCITY_LIMIT ACCEL=5000 ACCEL_TO_DECEL=2500
;Change extrusion role G-code

OFFSET_T2


;TYPE:Skirt
;WIDTH:0.48
G1 F3000
G1 X230.206 Y159.585 E.50374
G1 X231.774 Y158.935 E.06048
G1 X232.274 Y158.435 E.02518
G1 X232.924 Y156.866 E.06048
G1 X232.924 Y140.866 E.56986
G1 X232.274 Y139.298 E.06048
G1 X231.774 Y138.798 E.02518
G1 X230.206 Y138.148 E.06048
G1 X214.206 Y138.148 E.56986
G1 X212.637 Y138.798 E.06048
G1 X212.137 Y139.298 E.02518
G1 X211.487 Y140.866 E.06048
G1 X211.487 Y156.866 E.56986
G1 X212.137 Y158.435 E.06048
G1 X212.637 Y158.935 E.02518
G1 X214.206 Y159.585 E.06048
G1 X216.022 Y159.585 E.0647
; printing object Calibration Cube.stl id:0 copy 0
SET_VELOCITY_LIMIT ACCEL=7000 ACCEL_TO_DECEL=3500
G1 E-.56 F1800
;WIPE_START
G1 F3000
G1 X217.022 Y159.585 E-.24
;WIPE_END
EXCLUDE_OBJECT_START NAME=Calibration_Cube.stl_id_0_copy_0
G1 Z.8 F21000
G1 X229.532 Y141.54 Z.8
G1 Z.4
G1 E.8 F1800
SET_VELOCITY_LIMIT ACCEL=5000 ACCEL_TO_DECEL=2500
;Change extrusion role G-code

OFFSET_T2


;TYPE:Inner wall
;WIDTH:0.439999
G1 F7555.171
G1 X229.532 Y156.192 E.47408
G1 X214.88 Y156.192 E.47408
G1 X214.88 Y141.54 E.47408
G1 X229.492 Y141.54 E.47279
SET_VELOCITY_LIMIT ACCEL=7000 ACCEL_TO_DECEL=3500
G1 X229.929 Y141.143 F21000
SET_VELOCITY_LIMIT ACCEL=5000 ACCEL_TO_DECEL=2500
G1 F7555.171
G1 X229.929 Y156.589 E.49978
G1 X214.483 Y156.589 E.49978
G1 X214.483 Y141.143 E.49978
G1 X229.889 Y141.143 E.49849
SET_VELOCITY_LIMIT ACCEL=7000 ACCEL_TO_DECEL=3500
G1 X230.123 Y140.766 F21000
SET_VELOCITY_LIMIT ACCEL=3000 ACCEL_TO_DECEL=1500
;Change extrusion role G-code

OFFSET_T2


;TYPE:Outer wall
;WIDTH:0.399999
G1 F3000
G1 X230.306 Y140.949 E.00753
G1 X230.306 Y156.783 E.46073
G1 X230.123 Y156.966 E.00753
G1 X214.289 Y156.966 E.46073
M73 P3 R15
G1 X214.106 Y156.783 E.00753
M73 P3 R15
G1 X214.106 Y140.949 E.46073
G1 X214.289 Y140.766 E.00753
G1 X230.083 Y140.766 E.45956
SET_VELOCITY_LIMIT ACCEL=7000 ACCEL_TO_DECEL=3500
G1 E-.56 F1800
;WIPE_START
G1 F3000
G1 X230.306 Y140.949 E-.06918
G1 X230.306 Y141.661 E-.17082
;WIPE_END
G1 Z.8 F21000
G1 X229.41 Y155.084 Z.8
G1 Z.4
G1 E.8 F1800
SET_VELOCITY_LIMIT ACCEL=5000 ACCEL_TO_DECEL=2500
;Change extrusion role G-code

OFFSET_T2


;TYPE:Internal solid infill
;WIDTH:0.481986
G1 F6832.685
M106 S255
G1 X228.62 Y155.874 E.03997
G1 X227.999 Y155.874 E.02222
G1 X229.214 Y154.66 E.06144
G1 X229.214 Y154.039 E.02222
G1 X227.379 Y155.874 E.09286
G1 X226.758 Y155.874 E.02222
G1 X229.214 Y153.418 E.12428
G1 X229.214 Y152.797 E.02222
G1 X226.137 Y155.874 E.15569
G1 X225.516 Y155.874 E.02222
G1 X229.214 Y152.176 E.18711
G1 X229.214 Y151.555 E.02222
G1 X224.895 Y155.874 E.21853
G1 X224.274 Y155.874 E.02222
G1 X229.214 Y150.934 E.24995
G1 X229.214 Y150.313 E.02222
G1 X223.653 Y155.874 E.28137
G1 X223.032 Y155.874 E.02222
G1 X229.214 Y149.693 E.31278
G1 X229.214 Y149.072 E.02222
G1 X222.411 Y155.874 E.3442
G1 X221.79 Y155.874 E.02222
G1 X229.214 Y148.451 E.37562
G1 X229.214 Y147.83 E.02222
G1 X221.169 Y155.874 E.40704
G1 X220.548 Y155.874 E.02222
G1 X229.214 Y147.209 E.43846
G1 X229.214 Y146.588 E.02222
G1 X219.927 Y155.874 E.46987
G1 X219.306 Y155.874 E.02222
G1 X229.214 Y145.967 E.50129
G1 X229.214 Y145.346 E.02222
G1 X218.685 Y155.874 E.53271
G1 X218.065 Y155.874 E.02222
G1 X229.214 Y144.725 E.56413
G1 X229.214 Y144.104 E.02222
G1 X217.444 Y155.874 E.59555
G1 X216.823 Y155.874 E.02222
G1 X229.214 Y143.483 E.62697
G1 X229.214 Y142.862 E.02222
G1 X216.202 Y155.874 E.65838
G1 X215.581 Y155.874 E.02222
G1 X229.214 Y142.241 E.6898
G1 X229.214 Y141.858 E.01371
G1 X228.976 Y141.858 E.00851
G1 X215.198 Y155.636 E.69716
G1 X215.198 Y155.016 E.02222
G1 X228.355 Y141.858 E.66574
G1 X227.734 Y141.858 E.02222
G1 X215.198 Y154.395 E.63432
G1 X215.198 Y153.774 E.02222
G1 X227.113 Y141.858 E.6029
G1 X226.492 Y141.858 E.02222
G1 X215.198 Y153.153 E.57148
G1 X215.198 Y152.532 E.02222
G1 X225.871 Y141.858 E.54007
G1 X225.25 Y141.858 E.02222
G1 X215.198 Y151.911 E.50865
G1 X215.198 Y151.29 E.02222
G1 X224.629 Y141.858 E.47723
G1 X224.008 Y141.858 E.02222
G1 X215.198 Y150.669 E.44581
G1 X215.198 Y150.048 E.02222
G1 X223.388 Y141.858 E.41439
G1 X222.767 Y141.858 E.02222
G1 X215.198 Y149.427 E.38298
G1 X215.198 Y148.806 E.02222
G1 X222.146 Y141.858 E.35156
G1 X221.525 Y141.858 E.02222
G1 X215.198 Y148.185 E.32014
G1 X215.198 Y147.564 E.02222
G1 X220.904 Y141.858 E.28872
G1 X220.283 Y141.858 E.02222
G1 X215.198 Y146.943 E.2573
G1 X215.198 Y146.322 E.02222
G1 X219.662 Y141.858 E.22588
G1 X219.041 Y141.858 E.02222
G1 X215.198 Y145.702 E.19447
G1 X215.198 Y145.081 E.02222
G1 X218.42 Y141.858 E.16305
G1 X217.799 Y141.858 E.02222
G1 X215.198 Y144.46 E.13163
G1 X215.198 Y143.839 E.02222
G1 X217.178 Y141.858 E.10021
G1 X216.557 Y141.858 E.02222
G1 X215.198 Y143.218 E.06879
G1 X215.198 Y142.597 E.02222
G1 X216.133 Y141.662 E.04733
SET_VELOCITY_LIMIT ACCEL=7000 ACCEL_TO_DECEL=3500
G1 X215.318 Y141.906 F21000
SET_VELOCITY_LIMIT ACCEL=5000 ACCEL_TO_DECEL=2500
;WIDTH:0.469754
G1 F7028.493
G1 X215.265 Y141.906 E.00186
G1 X215.238 Y141.952 E.00186
G1 X215.265 Y141.999 E.00186
G1 X215.325 Y141.987 E.00213
SET_VELOCITY_LIMIT ACCEL=7000 ACCEL_TO_DECEL=3500
G1 X229.184 Y155.786 F21000
SET_VELOCITY_LIMIT ACCEL=5000 ACCEL_TO_DECEL=2500
;WIDTH:0.384528
G1 F8781.996
G1 X229.119 Y155.823 E.00206
G1 X229.185 Y155.857 E.00206
; stop printing object Calibration Cube.stl id:0 copy 0
;LAYER_CHANGE
;Z:0.6
;HEIGHT:0.2
;BEFORE_LAYER_CHANGE
;0.6
G92 E0

OFFSET_T2

M117 LAYER 0.6
G1 E-.76967 F1800
;WIPE_START
G1 F8781.996
G1 X229.119 Y155.823 E-.01517
G1 X229.184 Y155.786 E-.01516
;WIPE_END
EXCLUDE_OBJECT_END NAME=Calibration_Cube.stl_id_0_copy_0
;AFTER_LAYER_CHANGE
;0.6
;AFTER_LAYER_CHANGE
;0.6

OFFSET_T2

;_SET_FAN_SPEED_CHANGING_LAYER
SET_VELOCITY_LIMIT ACCEL=7000 ACCEL_TO_DECEL=3500
G1 Z1 F21000
G1 X232.924 Y155.786 Z1
G1 Z.6
G1 E.8 F1800
SET_VELOCITY_LIMIT ACCEL=5000 ACCEL_TO_DECEL=2500
;Change extrusion role G-code

OFFSET_T2


;TYPE:Skirt
;WIDTH:0.48
G1 F3000
G1 X232.924 Y156.866 E.03848
G1 X232.274 Y158.435 E.06048
G1 X231.774 Y158.935 E.02518
G1 X230.206 Y159.585 E.06048
G1 X214.206 Y159.585 E.56986
G1 X212.637 Y158.935 E.06048
G1 X212.137 Y158.435 E.02518
G1 X211.487 Y156.866 E.06048
G1 X211.487 Y140.866 E.56986
G1 X212.137 Y139.298 E.06048
G1 X212.637 Y138.798 E.02518
G1 X214.206 Y138.148 E.06048
G1 X230.206 Y138.148 E.56986
G1 X231.774 Y138.798 E.06048
G1 X232.274 Y139.298 E.02518
G1 X232.924 Y140.866 E.06048
G1 X232.924 Y155.746 E.52996
; printing object Calibration Cube.stl id:0 copy 0
SET_VELOCITY_LIMIT ACCEL=7000 ACCEL_TO_DECEL=3500
G1 E-.56 F1800
;WIPE_START
G1 F3000
G1 X232.924 Y156.746 E-.24
;WIPE_END
EXCLUDE_OBJECT_START NAME=Calibration_Cube.stl_id_0_copy_0
G1 Z1 F21000
G1 X229.732 Y141.34 Z1
G1 Z.6
G1 E.8 F1800
SET_VELOCITY_LIMIT ACCEL=5000 ACCEL_TO_DECEL=2500
;Change extrusion role G-code

OFFSET_T2


;TYPE:Inner wall
;WIDTH:0.439999
G1 F7555.171
G1 X229.732 Y156.392 E.48703
G1 X214.68 Y156.392 E.48703
G1 X214.68 Y141.34 E.48703
M73 P4 R15
G1 X229.692 Y141.34 E.48573
M73 P4 R15
SET_VELOCITY_LIMIT ACCEL=7000 ACCEL_TO_DECEL=3500
G1 X229.967 Y140.943 F21000
SET_VELOCITY_LIMIT ACCEL=5000 ACCEL_TO_DECEL=2500
G1 F7555.171
G1 X230.129 Y141.105 E.00741
G1 X230.129 Y156.627 E.50224
G1 X229.967 Y156.789 E.00741
G1 X214.445 Y156.789 E.50224
G1 X214.283 Y156.627 E.00741
G1 X214.283 Y141.105 E.50224
G1 X214.445 Y140.943 E.00741
G1 X229.927 Y140.943 E.50095
SET_VELOCITY_LIMIT ACCEL=7000 ACCEL_TO_DECEL=3500
G1 X230.119 Y140.566 F21000
SET_VELOCITY_LIMIT ACCEL=3000 ACCEL_TO_DECEL=1500
;Change extrusion role G-code

OFFSET_T2


;TYPE:Outer wall
;WIDTH:0.399999
G1 F3000
G1 X230.123 Y140.566 E.00012
G1 X230.506 Y140.949 E.01576
G1 X230.506 Y156.783 E.46073
G1 X230.123 Y157.166 E.01576
G1 X214.289 Y157.166 E.46073
G1 X213.906 Y156.783 E.01576
G1 X213.906 Y140.949 E.46073
G1 X214.289 Y140.566 E.01576
G1 X230.079 Y140.566 E.45945
SET_VELOCITY_LIMIT ACCEL=7000 ACCEL_TO_DECEL=3500
G1 E-.56 F1800
;WIPE_START
G1 F3000
G1 X230.123 Y140.566 E-.0105
G1 X230.506 Y140.949 E-.12994
G1 X230.506 Y141.364 E-.09956
;WIPE_END
G1 Z1 F21000
G1 X229.337 Y141.715 Z1
G1 Z.6
G1 E.8 F1800
SET_VELOCITY_LIMIT ACCEL=5000 ACCEL_TO_DECEL=2500
;Change extrusion role G-code

OFFSET_T2


;TYPE:Internal solid infill
;WIDTH:0.491068
G1 F6694.217
M106 S255
G1 X229.281 Y141.715 E.00205
G1 X229.253 Y141.763 E.00205
G1 X229.281 Y141.812 E.00205
G1 X229.345 Y141.798 E.00239
SET_VELOCITY_LIMIT ACCEL=7000 ACCEL_TO_DECEL=3500
