; HEADER_BLOCK_START
; generated by OrcaSlicer 2.2.0 on 2024-12-13 at 09:08:44
; total layer number: 100
; filament_density: 1.27,1.24,1.24,1.24,1.24
; filament_diameter: 1.75,1.75,1.75,1.75,1.75
; max_z_height: 20.00
; HEADER_BLOCK_END

; THUMBNAIL_BLOCK_START

;
; THUMBNAIL_BLOCK_END

; THUMBNAIL_BLOCK_START

;
; THUMBNAIL_BLOCK_END

; external perimeters extrusion width = 0.40mm
; perimeters extrusion width = 0.44mm
; infill extrusion width = 0.44mm
; solid infill extrusion width = 0.48mm
; top infill extrusion width = 0.38mm
; first layer extrusion width = 0.48mm

; EXECUTABLE_BLOCK_START
EXCLUDE_OBJECT_DEFINE NAME=Calibration_Cube.stl_id_0_copy_0 CENTER=177.976,172.619 POLYGON=[[167.976,164.619],[169.976,162.619],[185.976,162.619],[187.976,164.619],[187.976,180.619],[185.976,182.619],[169.976,182.619],[167.976,180.619],[167.976,164.619]]
M73 P0 R16
;TYPE:Custom
;START
M140 S60         ; set bed final temp
M190 S60         ; wait for bed final temp






G90
G21
M83 ; use relative distances for extrusion
; TESTING
T2



OFFSET_T2
M117 SET FILAMENT SENSOR ON 
SET_FILAMENT_SENSOR SENSOR=encoder_t2 ENABLE=1
;_FORCE_RESUME_FAN_SPEED
; filament start gcode
M109 S220 T2 ; set nozzle temperature and wait for it to be reached
M106 S0
;LAYER_CHANGE
;Z:0.2
;HEIGHT:0.2
;BEFORE_LAYER_CHANGE
;0.2
G92 E0

OFFSET_T2

M117 LAYER 0.2
G1 E-.8 F1800
;AFTER_LAYER_CHANGE
;0.2
;AFTER_LAYER_CHANGE
;0.2

OFFSET_T2

;_SET_FAN_SPEED_CHANGING_LAYER
SET_VELOCITY_LIMIT ACCEL=500 ACCEL_TO_DECEL=250
G1 Z.6 F21000
G1 X167.539 Y162.182
G1 Z.6
G1 Z.2
G1 E.8 F1800
;Change extrusion role G-code

OFFSET_T2


;TYPE:Skirt
;WIDTH:0.48
G1 F3000
G1 X167.789 Y161.932 E.01259
G1 X169.135 Y161.143 E.05557
G1 X169.976 Y161.026 E.03024
G1 X185.976 Y161.026 E.56986
G1 X187.486 Y161.42 E.05557
G1 X188.163 Y161.932 E.03024
G1 X188.663 Y162.432 E.02518
G1 X189.452 Y163.778 E.05557
G1 X189.569 Y164.619 E.03024
G1 X189.569 Y180.619 E.56986
G1 X189.175 Y182.129 E.05557
G1 X188.663 Y182.806 E.03024
G1 X188.163 Y183.306 E.02518
G1 X186.817 Y184.095 E.05557
G1 X185.976 Y184.212 E.03024
G1 X169.976 Y184.212 E.56986
G1 X168.466 Y183.818 E.05557
G1 X167.789 Y183.306 E.03024
G1 X167.289 Y182.806 E.02518
G1 X166.5 Y181.46 E.05557
G1 X166.383 Y180.619 E.03024
G1 X166.383 Y164.619 E.56986
G1 X166.777 Y163.109 E.05557
G1 X167.289 Y162.432 E.03024
G1 X167.511 Y162.211 E.01117
G1 X167.82 Y162.52 F21000
G1 F3000
G1 X168.098 Y162.241 E.01402
G1 X169.976 Y161.464 E.07239
G1 X185.976 Y161.464 E.56986
G1 X187.854 Y162.241 E.07239
G1 X188.354 Y162.741 E.02518
G1 X189.132 Y164.619 E.07239
G1 X189.132 Y180.619 E.56986
G1 X188.354 Y182.497 E.07239
G1 X187.854 Y182.997 E.02518
G1 X185.976 Y183.775 E.07239
G1 X169.976 Y183.775 E.56986
G1 X168.098 Y182.997 E.07239
G1 X167.598 Y182.497 E.02518
G1 X166.82 Y180.619 E.07239
G1 X166.82 Y164.619 E.56986
G1 X167.598 Y162.741 E.07239
G1 X167.792 Y162.548 E.00974
G1 X168.101 Y162.857 F21000
G1 F3000
G1 X168.407 Y162.55 E.01544
G1 X169.976 Y161.901 E.06048
G1 X185.976 Y161.901 E.56986
G1 X187.545 Y162.55 E.06048
G1 X188.045 Y163.05 E.02518
G1 X188.695 Y164.619 E.06048
G1 X188.695 Y180.619 E.56986
G1 X188.045 Y182.188 E.06048
G1 X187.545 Y182.688 E.02518
G1 X185.976 Y183.338 E.06048
G1 X169.976 Y183.338 E.56986
G1 X168.407 Y182.688 E.06048
G1 X167.907 Y182.188 E.02518
G1 X167.257 Y180.619 E.06048
G1 X167.257 Y164.619 E.56986
G1 X167.907 Y163.05 E.06048
G1 X168.072 Y162.885 E.00832
; printing object Calibration Cube.stl id:0 copy 0
G1 E-.56 F1800
;WIPE_START
G1 F3000
G1 X168.407 Y162.55 E-.11365
G1 X168.894 Y162.349 E-.12635
;WIPE_END
EXCLUDE_OBJECT_START NAME=Calibration_Cube.stl_id_0_copy_0
G1 Z.6 F21000
G1 X184.962 Y165.633 Z.6
G1 Z.2
G1 E.8 F1800
;Change extrusion role G-code

OFFSET_T2


;TYPE:Inner wall
;WIDTH:0.479999
G1 F3000
G1 X184.962 Y179.605 E.49762
G1 X170.99 Y179.605 E.49762
G1 X170.99 Y165.633 E.49762
G1 X184.922 Y165.633 E.4962
M73 P1 R16
G1 X185.399 Y165.196 F21000
M73 P1 R16
G1 F3000
G1 X185.399 Y180.042 E.52876
G1 X170.553 Y180.042 E.52876
G1 X170.553 Y165.196 E.52876
G1 X185.359 Y165.196 E.52733
G1 X185.836 Y164.759 F21000
;Change extrusion role G-code

OFFSET_T2


;TYPE:Outer wall
G1 F3000
G1 X185.836 Y180.479 E.55989
G1 X170.116 Y180.479 E.55989
G1 X170.116 Y164.759 E.55989
G1 X185.796 Y164.759 E.55847
G1 E-.56 F1800
;WIPE_START
G1 F3000
G1 X185.799 Y165.759 E-.24
;WIPE_END
G1 Z.6 F21000
G1 X183.937 Y165.764 Z.6
G1 Z.2
G1 E.8 F1800
;Change extrusion role G-code

OFFSET_T2


;TYPE:Bottom surface
;WIDTH:0.484962
G1 F6300
G1 X184.634 Y166.462 E.03553
G1 X184.634 Y167.087 E.02252
G1 X183.508 Y165.961 E.05735
G1 X182.883 Y165.961 E.02252
G1 X184.634 Y167.712 E.0892
G1 X184.634 Y168.337 E.02252
G1 X182.258 Y165.961 E.12104
G1 X181.633 Y165.961 E.02252
G1 X184.634 Y168.962 E.15289
G1 X184.634 Y169.588 E.02252
G1 X181.008 Y165.961 E.18473
G1 X180.382 Y165.961 E.02252
G1 X184.634 Y170.213 E.21658
G1 X184.634 Y170.838 E.02252
G1 X179.757 Y165.961 E.24842
G1 X179.132 Y165.961 E.02252
G1 X184.634 Y171.463 E.28027
G1 X184.634 Y172.088 E.02252
G1 X178.507 Y165.961 E.31212
G1 X177.882 Y165.961 E.02252
G1 X184.634 Y172.713 E.34396
G1 X184.634 Y173.338 E.02252
G1 X177.257 Y165.961 E.37581
G1 X176.632 Y165.961 E.02252
G1 X184.634 Y173.964 E.40765
G1 X184.634 Y174.589 E.02252
G1 X176.007 Y165.961 E.4395
G1 X175.381 Y165.961 E.02252
G1 X184.634 Y175.214 E.47134
G1 X184.634 Y175.839 E.02252
G1 X174.756 Y165.961 E.50319
G1 X174.131 Y165.961 E.02252
G1 X184.634 Y176.464 E.53503
G1 X184.634 Y177.089 E.02252
G1 X173.506 Y165.961 E.56688
G1 X172.881 Y165.961 E.02252
G1 X184.634 Y177.714 E.59872
G1 X184.634 Y178.34 E.02252
G1 X172.256 Y165.961 E.63057
G1 X171.631 Y165.961 E.02252
G1 X184.634 Y178.965 E.66242
G1 X184.634 Y179.277 E.01126
G1 X184.321 Y179.277 E.01126
G1 X171.318 Y166.274 E.66241
G1 X171.318 Y166.899 E.02252
G1 X183.696 Y179.277 E.63057
M73 P2 R16
G1 X183.071 Y179.277 E.02252
M73 P2 R16
G1 X171.318 Y167.524 E.59872
G1 X171.318 Y168.149 E.02252
G1 X182.446 Y179.277 E.56687
G1 X181.821 Y179.277 E.02252
G1 X171.318 Y168.774 E.53503
G1 X171.318 Y169.399 E.02252
G1 X181.196 Y179.277 E.50318
G1 X180.571 Y179.277 E.02252
G1 X171.318 Y170.025 E.47134
M73 P2 R15
G1 X171.318 Y170.65 E.02252
M73 P2 R15
G1 X179.945 Y179.277 E.43949
G1 X179.32 Y179.277 E.02252
G1 X171.318 Y171.275 E.40765
G1 X171.318 Y171.9 E.02252
G1 X178.695 Y179.277 E.3758
G1 X178.07 Y179.277 E.02252
G1 X171.318 Y172.525 E.34396
G1 X171.318 Y173.15 E.02252
G1 X177.445 Y179.277 E.31211
G1 X176.82 Y179.277 E.02252
G1 X171.318 Y173.775 E.28027
G1 X171.318 Y174.401 E.02252
G1 X176.195 Y179.277 E.24842
G1 X175.569 Y179.277 E.02252
G1 X171.318 Y175.026 E.21657
G1 X171.318 Y175.651 E.02252
G1 X174.944 Y179.277 E.18473
G1 X174.319 Y179.277 E.02252
G1 X171.318 Y176.276 E.15288
G1 X171.318 Y176.901 E.02252
G1 X173.694 Y179.277 E.12104
G1 X173.069 Y179.277 E.02252
G1 X171.318 Y177.526 E.08919
G1 X171.318 Y178.151 E.02252
G1 X172.444 Y179.277 E.05735
G1 X171.819 Y179.277 E.02252
G1 X171.121 Y178.58 E.03552
; stop printing object Calibration Cube.stl id:0 copy 0
M106 S255
;LAYER_CHANGE
;Z:0.4
;HEIGHT:0.2
;BEFORE_LAYER_CHANGE
;0.4
G92 E0

OFFSET_T2

M117 LAYER 0.4
G1 E-.56 F1800
;WIPE_START
G1 F6300
G1 X171.819 Y179.277 E-.23667
G1 X171.832 Y179.277 E-.00333
;WIPE_END
EXCLUDE_OBJECT_END NAME=Calibration_Cube.stl_id_0_copy_0
;AFTER_LAYER_CHANGE
;0.4
;AFTER_LAYER_CHANGE
;0.4

OFFSET_T2

;_SET_FAN_SPEED_CHANGING_LAYER
SET_VELOCITY_LIMIT ACCEL=5000 ACCEL_TO_DECEL=2500
M140 S60 ; set bed temperature
SET_VELOCITY_LIMIT ACCEL=7000 ACCEL_TO_DECEL=3500
G1 Z.8 F21000
G1 X171.832 Y183.338 Z.8
G1 Z.4
G1 E.8 F1800
SET_VELOCITY_LIMIT ACCEL=5000 ACCEL_TO_DECEL=2500
;Change extrusion role G-code

OFFSET_T2


;TYPE:Skirt
;WIDTH:0.48
G1 F3000
G1 X185.976 Y183.338 E.50374
G1 X187.545 Y182.688 E.06048
G1 X188.045 Y182.188 E.02518
G1 X188.695 Y180.619 E.06048
G1 X188.695 Y164.619 E.56986
G1 X188.045 Y163.05 E.06048
G1 X187.545 Y162.55 E.02518
G1 X185.976 Y161.901 E.06048
G1 X169.976 Y161.901 E.56986
G1 X168.407 Y162.55 E.06048
G1 X167.907 Y163.05 E.02518
G1 X167.257 Y164.619 E.06048
G1 X167.257 Y180.619 E.56986
G1 X167.907 Y182.188 E.06048
G1 X168.407 Y182.688 E.02518
G1 X169.976 Y183.338 E.06048
G1 X171.792 Y183.338 E.0647
; printing object Calibration Cube.stl id:0 copy 0
SET_VELOCITY_LIMIT ACCEL=7000 ACCEL_TO_DECEL=3500
G1 E-.56 F1800
;WIPE_START
G1 F3000
G1 X172.792 Y183.338 E-.24
;WIPE_END
EXCLUDE_OBJECT_START NAME=Calibration_Cube.stl_id_0_copy_0
G1 Z.8 F21000
G1 X185.302 Y165.293 Z.8
G1 Z.4
G1 E.8 F1800
SET_VELOCITY_LIMIT ACCEL=5000 ACCEL_TO_DECEL=2500
;Change extrusion role G-code

OFFSET_T2


;TYPE:Inner wall
;WIDTH:0.439999
G1 F7555.171
G1 X185.302 Y179.945 E.47408
G1 X170.65 Y179.945 E.47408
G1 X170.65 Y165.293 E.47408
G1 X185.262 Y165.293 E.47279
SET_VELOCITY_LIMIT ACCEL=7000 ACCEL_TO_DECEL=3500
G1 X185.699 Y164.896 F21000
SET_VELOCITY_LIMIT ACCEL=5000 ACCEL_TO_DECEL=2500
G1 F7555.171
G1 X185.699 Y180.342 E.49978
G1 X170.253 Y180.342 E.49978
G1 X170.253 Y164.896 E.49978
G1 X185.659 Y164.896 E.49849
SET_VELOCITY_LIMIT ACCEL=7000 ACCEL_TO_DECEL=3500
G1 X185.893 Y164.519 F21000
SET_VELOCITY_LIMIT ACCEL=3000 ACCEL_TO_DECEL=1500
;Change extrusion role G-code

OFFSET_T2


;TYPE:Outer wall
;WIDTH:0.399999
G1 F3000
G1 X186.076 Y164.702 E.00753
G1 X186.076 Y180.536 E.46073
G1 X185.893 Y180.719 E.00753
G1 X170.059 Y180.719 E.46073
G1 X169.876 Y180.536 E.00753
G1 X169.876 Y164.702 E.46073
G1 X170.059 Y164.519 E.00753
G1 X185.853 Y164.519 E.45956
SET_VELOCITY_LIMIT ACCEL=7000 ACCEL_TO_DECEL=3500
M73 P3 R15
G1 E-.56 F1800
M73 P3 R15
;WIPE_START
G1 F3000
G1 X186.076 Y164.702 E-.06918
G1 X186.076 Y165.414 E-.17082
;WIPE_END
G1 Z.8 F21000
G1 X185.181 Y178.837 Z.8
G1 Z.4
G1 E.8 F1800
SET_VELOCITY_LIMIT ACCEL=5000 ACCEL_TO_DECEL=2500
;Change extrusion role G-code

OFFSET_T2


;TYPE:Internal solid infill
;WIDTH:0.481986
G1 F6832.685
M106 S255
G1 X184.391 Y179.627 E.03997
G1 X183.77 Y179.627 E.02222
G1 X184.984 Y178.413 E.06144
G1 X184.984 Y177.792 E.02222
G1 X183.149 Y179.627 E.09286
G1 X182.528 Y179.627 E.02222
G1 X184.984 Y177.171 E.12428
G1 X184.984 Y176.55 E.02222
G1 X181.907 Y179.627 E.15569
G1 X181.286 Y179.627 E.02222
G1 X184.984 Y175.929 E.18711
G1 X184.984 Y175.308 E.02222
G1 X180.665 Y179.627 E.21853
G1 X180.044 Y179.627 E.02222
G1 X184.984 Y174.687 E.24995
G1 X184.984 Y174.066 E.02222
G1 X179.423 Y179.627 E.28137
G1 X178.802 Y179.627 E.02222
G1 X184.984 Y173.446 E.31278
G1 X184.984 Y172.825 E.02222
G1 X178.181 Y179.627 E.3442
G1 X177.56 Y179.627 E.02222
G1 X184.984 Y172.204 E.37562
G1 X184.984 Y171.583 E.02222
G1 X176.94 Y179.627 E.40704
G1 X176.319 Y179.627 E.02222
G1 X184.984 Y170.962 E.43846
G1 X184.984 Y170.341 E.02222
G1 X175.698 Y179.627 E.46987
G1 X175.077 Y179.627 E.02222
G1 X184.984 Y169.72 E.50129
G1 X184.984 Y169.099 E.02222
G1 X174.456 Y179.627 E.53271
G1 X173.835 Y179.627 E.02222
G1 X184.984 Y168.478 E.56413
G1 X184.984 Y167.857 E.02222
G1 X173.214 Y179.627 E.59555
G1 X172.593 Y179.627 E.02222
G1 X184.984 Y167.236 E.62697
G1 X184.984 Y166.615 E.02222
G1 X171.972 Y179.627 E.65838
G1 X171.351 Y179.627 E.02222
G1 X184.984 Y165.994 E.6898
G1 X184.984 Y165.611 E.01371
G1 X184.746 Y165.611 E.00851
G1 X170.968 Y179.389 E.69716
G1 X170.968 Y178.769 E.02222
G1 X184.125 Y165.611 E.66574
G1 X183.504 Y165.611 E.02222
G1 X170.968 Y178.148 E.63432
G1 X170.968 Y177.527 E.02222
G1 X182.883 Y165.611 E.6029
G1 X182.263 Y165.611 E.02222
G1 X170.968 Y176.906 E.57148
G1 X170.968 Y176.285 E.02222
G1 X181.642 Y165.611 E.54007
G1 X181.021 Y165.611 E.02222
G1 X170.968 Y175.664 E.50865
G1 X170.968 Y175.043 E.02222
G1 X180.4 Y165.611 E.47723
G1 X179.779 Y165.611 E.02222
G1 X170.968 Y174.422 E.44581
G1 X170.968 Y173.801 E.02222
G1 X179.158 Y165.611 E.41439
G1 X178.537 Y165.611 E.02222
G1 X170.968 Y173.18 E.38298
G1 X170.968 Y172.559 E.02222
G1 X177.916 Y165.611 E.35156
G1 X177.295 Y165.611 E.02222
G1 X170.968 Y171.938 E.32014
G1 X170.968 Y171.317 E.02222
G1 X176.674 Y165.611 E.28872
G1 X176.053 Y165.611 E.02222
G1 X170.968 Y170.696 E.2573
G1 X170.968 Y170.075 E.02222
G1 X175.432 Y165.611 E.22588
G1 X174.811 Y165.611 E.02222
G1 X170.968 Y169.455 E.19447
G1 X170.968 Y168.834 E.02222
G1 X174.19 Y165.611 E.16305
G1 X173.569 Y165.611 E.02222
G1 X170.968 Y168.213 E.13163
G1 X170.968 Y167.592 E.02222
G1 X172.949 Y165.611 E.10021
G1 X172.328 Y165.611 E.02222
G1 X170.968 Y166.971 E.06879
G1 X170.968 Y166.35 E.02222
G1 X171.903 Y165.414 E.04733
SET_VELOCITY_LIMIT ACCEL=7000 ACCEL_TO_DECEL=3500
G1 X171.089 Y165.659 F21000
SET_VELOCITY_LIMIT ACCEL=5000 ACCEL_TO_DECEL=2500
;WIDTH:0.469754
G1 F7028.493
G1 X171.035 Y165.659 E.00186
G1 X171.009 Y165.705 E.00186
G1 X171.035 Y165.752 E.00186
G1 X171.095 Y165.74 E.00213
SET_VELOCITY_LIMIT ACCEL=7000 ACCEL_TO_DECEL=3500
G1 X184.954 Y179.539 F21000
SET_VELOCITY_LIMIT ACCEL=5000 ACCEL_TO_DECEL=2500
;WIDTH:0.384528
G1 F8781.996
G1 X184.89 Y179.576 E.00206
G1 X184.955 Y179.61 E.00206
; stop printing object Calibration Cube.stl id:0 copy 0
;LAYER_CHANGE
;Z:0.6
;HEIGHT:0.2
;BEFORE_LAYER_CHANGE
;0.6
G92 E0

OFFSET_T2

M117 LAYER 0.6
G1 E-.76967 F1800
;WIPE_START
G1 F8781.996
G1 X184.89 Y179.576 E-.01517
G1 X184.954 Y179.539 E-.01516
;WIPE_END
EXCLUDE_OBJECT_END NAME=Calibration_Cube.stl_id_0_copy_0
;AFTER_LAYER_CHANGE
;0.6
;AFTER_LAYER_CHANGE
;0.6

OFFSET_T2

;_SET_FAN_SPEED_CHANGING_LAYER
SET_VELOCITY_LIMIT ACCEL=7000 ACCEL_TO_DECEL=3500
G1 Z1 F21000
G1 X188.695 Y179.539 Z1
G1 Z.6
G1 E.8 F1800
SET_VELOCITY_LIMIT ACCEL=5000 ACCEL_TO_DECEL=2500
;Change extrusion role G-code

OFFSET_T2


;TYPE:Skirt
;WIDTH:0.48
G1 F3000
G1 X188.695 Y180.619 E.03848
G1 X188.045 Y182.188 E.06048
G1 X187.545 Y182.688 E.02518
G1 X185.976 Y183.338 E.06048
G1 X169.976 Y183.338 E.56986
G1 X168.407 Y182.688 E.06048
G1 X167.907 Y182.188 E.02518
G1 X167.257 Y180.619 E.06048
G1 X167.257 Y164.619 E.56986
G1 X167.907 Y163.05 E.06048
G1 X168.407 Y162.55 E.02518
G1 X169.976 Y161.901 E.06048
G1 X185.976 Y161.901 E.56986
G1 X187.545 Y162.55 E.06048
G1 X188.045 Y163.05 E.02518
G1 X188.695 Y164.619 E.06048
G1 X188.695 Y179.499 E.52996
; printing object Calibration Cube.stl id:0 copy 0
SET_VELOCITY_LIMIT ACCEL=7000 ACCEL_TO_DECEL=3500
G1 E-.56 F1800
;WIPE_START
G1 F3000
G1 X188.695 Y180.499 E-.24
;WIPE_END
EXCLUDE_OBJECT_START NAME=Calibration_Cube.stl_id_0_copy_0
G1 Z1 F21000
G1 X185.502 Y165.093 Z1
G1 Z.6
G1 E.8 F1800
SET_VELOCITY_LIMIT ACCEL=5000 ACCEL_TO_DECEL=2500
;Change extrusion role G-code

OFFSET_T2


;TYPE:Inner wall
;WIDTH:0.439999
G1 F7555.171
G1 X185.502 Y180.145 E.48703
G1 X170.45 Y180.145 E.48703
G1 X170.45 Y165.093 E.48703
G1 X185.462 Y165.093 E.48573
SET_VELOCITY_LIMIT ACCEL=7000 ACCEL_TO_DECEL=3500
G1 X185.737 Y164.696 F21000
SET_VELOCITY_LIMIT ACCEL=5000 ACCEL_TO_DECEL=2500
G1 F7555.171
G1 X185.899 Y164.858 E.00741
G1 X185.899 Y180.38 E.50224
G1 X185.737 Y180.542 E.00741
G1 X170.215 Y180.542 E.50224
G1 X170.053 Y180.38 E.00741
G1 X170.053 Y164.858 E.50224
G1 X170.215 Y164.696 E.00741
G1 X185.697 Y164.696 E.50095
SET_VELOCITY_LIMIT ACCEL=7000 ACCEL_TO_DECEL=3500
G1 X185.889 Y164.319 F21000
SET_VELOCITY_LIMIT ACCEL=3000 ACCEL_TO_DECEL=1500
;Change extrusion role G-code

OFFSET_T2


;TYPE:Outer wall
;WIDTH:0.399999
G1 F3000
G1 X185.893 Y164.319 E.00012
G1 X186.276 Y164.702 E.01576
G1 X186.276 Y180.536 E.46073
M73 P4 R15
G1 X185.893 Y180.919 E.01576
M73 P4 R15
G1 X170.059 Y180.919 E.46073
G1 X169.676 Y180.536 E.01576
G1 X169.676 Y164.702 E.46073
G1 X170.059 Y164.319 E.01576
G1 X185.849 Y164.319 E.45945
SET_VELOCITY_LIMIT ACCEL=7000 ACCEL_TO_DECEL=3500
G1 E-.56 F1800
;WIPE_START
G1 F3000
G1 X185.893 Y164.319 E-.0105
G1 X186.276 Y164.702 E-.12994
G1 X186.276 Y165.117 E-.09956
;WIPE_END
G1 Z1 F21000
G1 X185.107 Y165.467 Z1
G1 Z.6
G1 E.8 F1800
SET_VELOCITY_LIMIT ACCEL=5000 ACCEL_TO_DECEL=2500
;Change extrusion role G-code

OFFSET_T2


;TYPE:Internal solid infill
;WIDTH:0.491068
G1 F6694.217
M106 S255
G1 X185.051 Y165.467 E.00205
G1 X185.023 Y165.516 E.00205
G1 X185.051 Y165.564 E.00205
G1 X185.115 Y165.551 E.00239
SET_VELOCITY_LIMIT ACCEL=7000 ACCEL_TO_DECEL=3500
G1 X184.212 Y165.214 F21000
