; HEADER_BLOCK_START
; generated by OrcaSlicer 2.2.0 on 2024-12-14 at 09:07:27
; total layer number: 100
; filament_density: 1.27,1.24,1.24,1.24,1.24
; filament_diameter: 1.75,1.75,1.75,1.75,1.75
; max_z_height: 20.00
; HEADER_BLOCK_END

; THUMBNAIL_BLOCK_START

;
; THUMBNAIL_BLOCK_END

; THUMBNAIL_BLOCK_START

;
; THUMBNAIL_BLOCK_END

; external perimeters extrusion width = 0.40mm
; perimeters extrusion width = 0.44mm
; infill extrusion width = 0.44mm
; solid infill extrusion width = 0.48mm
; top infill extrusion width = 0.38mm
; first layer extrusion width = 0.48mm

; EXECUTABLE_BLOCK_START
EXCLUDE_OBJECT_DEFINE NAME=Calibration_Cube.stl_id_0_copy_0 CENTER=119.077,203.55 POLYGON=[[109.077,195.55],[111.077,193.55],[127.077,193.55],[129.077,195.55],[129.077,211.55],[127.077,213.55],[111.077,213.55],[109.077,211.55],[109.077,195.55]]
M73 P0 R15
;TYPE:Custom
;START
M140 S35         ; set bed final temp
M190 S35         ; wait for bed final temp






G90
G21
M83 ; use relative distances for extrusion
; TESTING
T1



OFFSET_T1
M117 SET FILAMENT SENSOR OFF 
SET_FILAMENT_SENSOR SENSOR=encoder_t1 ENABLE=0
;_FORCE_RESUME_FAN_SPEED
; filament start gcode
M109 S240 T1 ; set nozzle temperature and wait for it to be reached
M106 S0
;LAYER_CHANGE
;Z:0.2
;HEIGHT:0.2
;BEFORE_LAYER_CHANGE
;0.2
G92 E0

OFFSET_T1
M117 SET FILAMENT SENSOR OFF 
SET_FILAMENT_SENSOR SENSOR=encoder_t1 ENABLE=0

M117 LAYER 0.2
G1 E-.4 F1800
;AFTER_LAYER_CHANGE
;0.2
;AFTER_LAYER_CHANGE
;0.2

OFFSET_T1
M117 SET FILAMENT SENSOR OFF 
SET_FILAMENT_SENSOR SENSOR=encoder_t1 ENABLE=0

;_SET_FAN_SPEED_CHANGING_LAYER
SET_VELOCITY_LIMIT ACCEL=500 ACCEL_TO_DECEL=250
G1 Z.6 F21000
G1 X108.64 Y193.113
G1 Z.6
G1 Z.2
G1 E.4 F1800
;Change extrusion role G-code

OFFSET_T1
M117 SET FILAMENT SENSOR OFF 
SET_FILAMENT_SENSOR SENSOR=encoder_t1 ENABLE=0


;TYPE:Skirt
;WIDTH:0.48
G1 F3000
G1 X108.89 Y192.863 E.01285
G1 X110.235 Y192.074 E.0567
G1 X111.077 Y191.957 E.03086
G1 X127.077 Y191.957 E.58149
G1 X128.586 Y192.351 E.0567
G1 X129.263 Y192.863 E.03086
G1 X129.763 Y193.363 E.0257
G1 X130.553 Y194.709 E.0567
G1 X130.669 Y195.55 E.03086
G1 X130.669 Y211.55 E.58149
G1 X130.276 Y213.06 E.0567
G1 X129.763 Y213.737 E.03086
G1 X129.263 Y214.237 E.0257
G1 X127.918 Y215.026 E.0567
G1 X127.077 Y215.143 E.03086
G1 X111.077 Y215.143 E.58149
G1 X109.567 Y214.749 E.0567
G1 X108.89 Y214.237 E.03086
G1 X108.39 Y213.737 E.0257
G1 X107.6 Y212.391 E.0567
G1 X107.484 Y211.55 E.03086
G1 X107.484 Y195.55 E.58149
G1 X107.877 Y194.04 E.0567
G1 X108.39 Y193.363 E.03086
G1 X108.611 Y193.141 E.0114
G1 X108.92 Y193.45 F21000
G1 F3000
G1 X109.199 Y193.172 E.0143
G1 X111.077 Y192.394 E.07387
G1 X127.077 Y192.394 E.58149
G1 X128.954 Y193.172 E.07387
G1 X129.454 Y193.672 E.0257
G1 X130.232 Y195.55 E.07387
G1 X130.232 Y211.55 E.58149
G1 X129.454 Y213.428 E.07387
G1 X128.954 Y213.928 E.0257
G1 X127.077 Y214.706 E.07387
G1 X111.077 Y214.706 E.58149
G1 X109.199 Y213.928 E.07387
G1 X108.699 Y213.428 E.0257
G1 X107.921 Y211.55 E.07387
G1 X107.921 Y195.55 E.58149
G1 X108.699 Y193.672 E.07387
G1 X108.892 Y193.479 E.00994
G1 X109.201 Y193.788 F21000
G1 F3000
G1 X109.508 Y193.481 E.01576
G1 X111.077 Y192.831 E.06171
G1 X127.077 Y192.831 E.58149
G1 X128.645 Y193.481 E.06171
G1 X129.145 Y193.981 E.0257
G1 X129.795 Y195.55 E.06171
G1 X129.795 Y211.55 E.58149
G1 X129.145 Y213.119 E.06171
G1 X128.645 Y213.619 E.0257
G1 X127.077 Y214.269 E.06171
G1 X111.077 Y214.269 E.58149
G1 X109.508 Y213.619 E.06171
G1 X109.008 Y213.119 E.0257
G1 X108.358 Y211.55 E.06171
G1 X108.358 Y195.55 E.58149
G1 X109.008 Y193.981 E.06171
G1 X109.173 Y193.816 E.00849
; printing object Calibration Cube.stl id:0 copy 0
G1 E-.28 F1800
;WIPE_START
G1 F3000
G1 X109.508 Y193.481 E-.05683
G1 X109.994 Y193.28 E-.06317
;WIPE_END
EXCLUDE_OBJECT_START NAME=Calibration_Cube.stl_id_0_copy_0
G1 Z.6 F21000
G1 X126.062 Y196.564 Z.6
G1 Z.2
G1 E.4 F1800
;Change extrusion role G-code

OFFSET_T1
M117 SET FILAMENT SENSOR OFF 
SET_FILAMENT_SENSOR SENSOR=encoder_t1 ENABLE=0


;TYPE:Inner wall
;WIDTH:0.479999
G1 F3000
G1 X126.062 Y210.536 E.50778
G1 X112.091 Y210.536 E.50778
G1 X112.091 Y196.564 E.50778
G1 X126.022 Y196.564 E.50632
M73 P1 R15
G1 X126.499 Y196.127 F21000
M73 P1 R15
G1 F3000
G1 X126.499 Y210.973 E.53955
G1 X111.654 Y210.973 E.53955
G1 X111.654 Y196.127 E.53955
G1 X126.459 Y196.127 E.53809
G1 X126.937 Y195.69 F21000
;Change extrusion role G-code

OFFSET_T1
M117 SET FILAMENT SENSOR OFF 
SET_FILAMENT_SENSOR SENSOR=encoder_t1 ENABLE=0


;TYPE:Outer wall
G1 F3000
G1 X126.937 Y211.41 E.57132
G1 X111.217 Y211.41 E.57132
G1 X111.217 Y195.69 E.57132
G1 X126.897 Y195.69 E.56986
G1 E-.28 F1800
;WIPE_START
G1 F3000
G1 X126.899 Y196.69 E-.12
;WIPE_END
G1 Z.6 F21000
G1 X125.037 Y196.695 Z.6
G1 Z.2
G1 E.4 F1800
;Change extrusion role G-code

OFFSET_T1
M117 SET FILAMENT SENSOR OFF 
SET_FILAMENT_SENSOR SENSOR=encoder_t1 ENABLE=0


;TYPE:Bottom surface
;WIDTH:0.484962
G1 F6300
G1 X125.735 Y197.393 E.03625
G1 X125.735 Y198.018 E.02298
G1 X124.609 Y196.892 E.05852
G1 X123.984 Y196.892 E.02298
G1 X125.735 Y198.643 E.09102
G1 X125.735 Y199.268 E.02298
G1 X123.358 Y196.892 E.12351
G1 X122.733 Y196.892 E.02298
G1 X125.735 Y199.893 E.15601
G1 X125.735 Y200.518 E.02298
G1 X122.108 Y196.892 E.1885
G1 X121.483 Y196.892 E.02298
G1 X125.735 Y201.143 E.221
G1 X125.735 Y201.769 E.02298
G1 X120.858 Y196.892 E.25349
G1 X120.233 Y196.892 E.02298
G1 X125.735 Y202.394 E.28599
G1 X125.735 Y203.019 E.02298
G1 X119.608 Y196.892 E.31849
G1 X118.982 Y196.892 E.02298
G1 X125.735 Y203.644 E.35098
G1 X125.735 Y204.269 E.02298
G1 X118.357 Y196.892 E.38348
G1 X117.732 Y196.892 E.02298
G1 X125.735 Y204.894 E.41597
G1 X125.735 Y205.519 E.02298
G1 X117.107 Y196.892 E.44847
G1 X116.482 Y196.892 E.02298
G1 X125.735 Y206.145 E.48096
G1 X125.735 Y206.77 E.02298
G1 X115.857 Y196.892 E.51346
G1 X115.232 Y196.892 E.02298
G1 X125.735 Y207.395 E.54595
G1 X125.735 Y208.02 E.02298
G1 X114.606 Y196.892 E.57845
G1 X113.981 Y196.892 E.02298
G1 X125.735 Y208.645 E.61094
G1 X125.735 Y209.27 E.02298
G1 X113.356 Y196.892 E.64344
G1 X112.731 Y196.892 E.02298
G1 X125.735 Y209.895 E.67593
G1 X125.735 Y210.208 E.01149
G1 X125.422 Y210.208 E.01149
G1 X112.419 Y197.205 E.67593
M73 P2 R15
G1 X112.419 Y197.83 E.02298
M73 P2 R15
G1 X124.797 Y210.208 E.64343
G1 X124.172 Y210.208 E.02298
G1 X112.419 Y198.455 E.61094
G1 X112.419 Y199.08 E.02298
G1 X123.547 Y210.208 E.57844
G1 X122.921 Y210.208 E.02298
G1 X112.419 Y199.705 E.54595
G1 X112.419 Y200.33 E.02298
G1 X122.296 Y210.208 E.51345
G1 X121.671 Y210.208 E.02298
G1 X112.419 Y200.955 E.48096
G1 X112.419 Y201.581 E.02298
G1 X121.046 Y210.208 E.44846
G1 X120.421 Y210.208 E.02298
G1 X112.419 Y202.206 E.41597
G1 X112.419 Y202.831 E.02298
G1 X119.796 Y210.208 E.38347
G1 X119.171 Y210.208 E.02298
G1 X112.419 Y203.456 E.35098
G1 X112.419 Y204.081 E.02298
G1 X118.545 Y210.208 E.31848
G1 X117.92 Y210.208 E.02298
G1 X112.419 Y204.706 E.28599
G1 X112.419 Y205.331 E.02298
G1 X117.295 Y210.208 E.25349
G1 X116.67 Y210.208 E.02298
G1 X112.419 Y205.957 E.22099
G1 X112.419 Y206.582 E.02298
G1 X116.045 Y210.208 E.1885
G1 X115.42 Y210.208 E.02298
G1 X112.419 Y207.207 E.156
G1 X112.419 Y207.832 E.02298
G1 X114.795 Y210.208 E.12351
G1 X114.169 Y210.208 E.02298
G1 X112.419 Y208.457 E.09101
G1 X112.419 Y209.082 E.02298
G1 X113.544 Y210.208 E.05852
G1 X112.919 Y210.208 E.02298
G1 X112.222 Y209.511 E.03625
; stop printing object Calibration Cube.stl id:0 copy 0
M106 S255
;LAYER_CHANGE
;Z:0.4
;HEIGHT:0.2
;BEFORE_LAYER_CHANGE
;0.4
G92 E0

OFFSET_T1
M117 SET FILAMENT SENSOR OFF 
SET_FILAMENT_SENSOR SENSOR=encoder_t1 ENABLE=0

M117 LAYER 0.4
G1 E-.28 F1800
;WIPE_START
G1 F6300
G1 X112.919 Y210.208 E-.11834
G1 X112.933 Y210.208 E-.00166
;WIPE_END
EXCLUDE_OBJECT_END NAME=Calibration_Cube.stl_id_0_copy_0
;AFTER_LAYER_CHANGE
;0.4
;AFTER_LAYER_CHANGE
;0.4

OFFSET_T1
M117 SET FILAMENT SENSOR OFF 
SET_FILAMENT_SENSOR SENSOR=encoder_t1 ENABLE=0

;_SET_FAN_SPEED_CHANGING_LAYER
SET_VELOCITY_LIMIT ACCEL=5000 ACCEL_TO_DECEL=2500
M140 S35 ; set bed temperature
SET_VELOCITY_LIMIT ACCEL=7000 ACCEL_TO_DECEL=3500
G1 Z.8 F21000
G1 X112.933 Y214.269 Z.8
G1 Z.4
G1 E.4 F1800
SET_VELOCITY_LIMIT ACCEL=5000 ACCEL_TO_DECEL=2500
;Change extrusion role G-code

OFFSET_T1
M117 SET FILAMENT SENSOR OFF 
SET_FILAMENT_SENSOR SENSOR=encoder_t1 ENABLE=0


;TYPE:Skirt
;WIDTH:0.48
G1 F3000
G1 X127.077 Y214.269 E.51402
G1 X128.645 Y213.619 E.06171
G1 X129.145 Y213.119 E.0257
G1 X129.795 Y211.55 E.06171
G1 X129.795 Y195.55 E.58149
G1 X129.145 Y193.981 E.06171
G1 X128.645 Y193.481 E.0257
G1 X127.077 Y192.831 E.06171
G1 X111.077 Y192.831 E.58149
G1 X109.508 Y193.481 E.06171
G1 X109.008 Y193.981 E.0257
G1 X108.358 Y195.55 E.06171
G1 X108.358 Y211.55 E.58149
G1 X109.008 Y213.119 E.06171
G1 X109.508 Y213.619 E.0257
G1 X111.077 Y214.269 E.06171
G1 X112.893 Y214.269 E.06602
; printing object Calibration Cube.stl id:0 copy 0
SET_VELOCITY_LIMIT ACCEL=7000 ACCEL_TO_DECEL=3500
G1 E-.28 F1800
;WIPE_START
G1 F3000
G1 X113.893 Y214.269 E-.12
;WIPE_END
EXCLUDE_OBJECT_START NAME=Calibration_Cube.stl_id_0_copy_0
G1 Z.8 F21000
G1 X126.402 Y196.224 Z.8
G1 Z.4
G1 E.4 F1800
SET_VELOCITY_LIMIT ACCEL=5000 ACCEL_TO_DECEL=2500
;Change extrusion role G-code

OFFSET_T1
M117 SET FILAMENT SENSOR OFF 
SET_FILAMENT_SENSOR SENSOR=encoder_t1 ENABLE=0


;TYPE:Inner wall
;WIDTH:0.439999
G1 F7482
G1 X126.402 Y210.876 E.48376
G1 X111.751 Y210.876 E.48376
G1 X111.751 Y196.224 E.48376
G1 X126.362 Y196.224 E.48244
SET_VELOCITY_LIMIT ACCEL=7000 ACCEL_TO_DECEL=3500
G1 X126.799 Y195.827 F21000
SET_VELOCITY_LIMIT ACCEL=5000 ACCEL_TO_DECEL=2500
G1 F7482
G1 X126.799 Y211.273 E.50998
G1 X111.354 Y211.273 E.50998
G1 X111.354 Y195.827 E.50998
G1 X126.759 Y195.827 E.50866
SET_VELOCITY_LIMIT ACCEL=7000 ACCEL_TO_DECEL=3500
G1 X126.994 Y195.45 F21000
SET_VELOCITY_LIMIT ACCEL=3000 ACCEL_TO_DECEL=1500
;Change extrusion role G-code

OFFSET_T1
M117 SET FILAMENT SENSOR OFF 
SET_FILAMENT_SENSOR SENSOR=encoder_t1 ENABLE=0


;TYPE:Outer wall
;WIDTH:0.399999
G1 F3000
G1 X127.177 Y195.633 E.00768
G1 X127.177 Y211.467 E.47013
G1 X126.994 Y211.65 E.00768
G1 X111.159 Y211.65 E.47016
M73 P3 R15
G1 X110.977 Y211.467 E.00766
M73 P3 R15
G1 X110.977 Y195.633 E.47013
G1 X111.159 Y195.45 E.00766
G1 X126.954 Y195.45 E.46897
SET_VELOCITY_LIMIT ACCEL=7000 ACCEL_TO_DECEL=3500
G1 E-.28 F1800
;WIPE_START
G1 F3000
G1 X127.177 Y195.633 E-.03459
G1 X127.177 Y196.345 E-.08541
;WIPE_END
G1 Z.8 F21000
G1 X126.281 Y209.768 Z.8
G1 Z.4
G1 E.4 F1800
SET_VELOCITY_LIMIT ACCEL=5000 ACCEL_TO_DECEL=2500
;Change extrusion role G-code

OFFSET_T1
M117 SET FILAMENT SENSOR OFF 
SET_FILAMENT_SENSOR SENSOR=encoder_t1 ENABLE=0


;TYPE:Internal solid infill
;WIDTH:0.481986
G1 F7482
G1 X125.491 Y210.558 E.04079
G1 X124.87 Y210.558 E.02267
G1 X126.085 Y209.344 E.06269
G1 X126.085 Y208.723 E.02267
G1 X124.249 Y210.558 E.09475
G1 X123.628 Y210.558 E.02267
G1 X126.085 Y208.102 E.12681
G1 X126.085 Y207.481 E.02267
G1 X123.008 Y210.558 E.15887
G1 X122.387 Y210.558 E.02267
G1 X126.085 Y206.86 E.19093
G1 X126.085 Y206.239 E.02267
G1 X121.766 Y210.558 E.22299
G1 X121.145 Y210.558 E.02267
G1 X126.085 Y205.618 E.25505
G1 X126.085 Y204.997 E.02267
G1 X120.524 Y210.558 E.28711
G1 X119.903 Y210.558 E.02267
G1 X126.085 Y204.376 E.31917
G1 X126.085 Y203.755 E.02267
G1 X119.282 Y210.558 E.35123
G1 X118.661 Y210.558 E.02267
G1 X126.085 Y203.134 E.38329
G1 X126.085 Y202.513 E.02267
G1 X118.04 Y210.558 E.41535
G1 X117.419 Y210.558 E.02267
G1 X126.085 Y201.893 E.4474
G1 X126.085 Y201.272 E.02267
G1 X116.798 Y210.558 E.47946
G1 X116.177 Y210.558 E.02267
G1 X126.085 Y200.651 E.51152
G1 X126.085 Y200.03 E.02267
G1 X115.556 Y210.558 E.54358
G1 X114.935 Y210.558 E.02267
G1 X126.085 Y199.409 E.57564
G1 X126.085 Y198.788 E.02267
G1 X114.314 Y210.558 E.6077
G1 X113.694 Y210.558 E.02267
G1 X126.085 Y198.167 E.63976
G1 X126.085 Y197.546 E.02267
G1 X113.073 Y210.558 E.67182
G1 X112.452 Y210.558 E.02267
G1 X126.085 Y196.925 E.70388
G1 X126.085 Y196.542 E.01399
G1 X125.847 Y196.542 E.00868
G1 X112.069 Y210.32 E.71138
G1 X112.069 Y209.699 E.02267
G1 X125.226 Y196.542 E.67932
G1 X124.605 Y196.542 E.02267
G1 X112.069 Y209.078 E.64727
G1 X112.069 Y208.457 E.02267
G1 X123.984 Y196.542 E.61521
G1 X123.363 Y196.542 E.02267
G1 X112.069 Y207.836 E.58315
G1 X112.069 Y207.216 E.02267
G1 X122.742 Y196.542 E.55109
G1 X122.121 Y196.542 E.02267
G1 X112.069 Y206.595 E.51903
G1 X112.069 Y205.974 E.02267
G1 X121.5 Y196.542 E.48697
G1 X120.879 Y196.542 E.02267
G1 X112.069 Y205.353 E.45491
G1 X112.069 Y204.732 E.02267
G1 X120.258 Y196.542 E.42285
G1 X119.637 Y196.542 E.02267
G1 X112.069 Y204.111 E.39079
G1 X112.069 Y203.49 E.02267
G1 X119.017 Y196.542 E.35873
G1 X118.396 Y196.542 E.02267
G1 X112.069 Y202.869 E.32667
G1 X112.069 Y202.248 E.02267
G1 X117.775 Y196.542 E.29461
G1 X117.154 Y196.542 E.02267
G1 X112.069 Y201.627 E.26255
G1 X112.069 Y201.006 E.02267
G1 X116.533 Y196.542 E.23049
G1 X115.912 Y196.542 E.02267
G1 X112.069 Y200.385 E.19844
G1 X112.069 Y199.764 E.02267
G1 X115.291 Y196.542 E.16638
G1 X114.67 Y196.542 E.02267
G1 X112.069 Y199.143 E.13432
G1 X112.069 Y198.522 E.02267
G1 X114.049 Y196.542 E.10226
G1 X113.428 Y196.542 E.02267
G1 X112.069 Y197.902 E.0702
G1 X112.069 Y197.281 E.02267
G1 X113.004 Y196.345 E.04829
SET_VELOCITY_LIMIT ACCEL=7000 ACCEL_TO_DECEL=3500
G1 X112.189 Y196.59 F21000
SET_VELOCITY_LIMIT ACCEL=5000 ACCEL_TO_DECEL=2500
;WIDTH:0.469754
G1 F7482
G1 X112.136 Y196.59 E.00189
G1 X112.109 Y196.636 E.00189
G1 X112.136 Y196.682 E.00189
G1 X112.196 Y196.671 E.00217
SET_VELOCITY_LIMIT ACCEL=7000 ACCEL_TO_DECEL=3500
G1 X126.054 Y210.469 F21000
SET_VELOCITY_LIMIT ACCEL=5000 ACCEL_TO_DECEL=2500
;WIDTH:0.384528
G1 F7482
G1 X125.99 Y210.506 E.0021
G1 X126.056 Y210.541 E.0021
; stop printing object Calibration Cube.stl id:0 copy 0
;LAYER_CHANGE
;Z:0.6
;HEIGHT:0.2
;BEFORE_LAYER_CHANGE
;0.6
G92 E0

OFFSET_T1
M117 SET FILAMENT SENSOR OFF 
SET_FILAMENT_SENSOR SENSOR=encoder_t1 ENABLE=0

M117 LAYER 0.6
G1 E-.37473 F1800
;WIPE_START
G1 F10538.395
G1 X125.99 Y210.506 E-.01264
G1 X126.054 Y210.469 E-.01263
;WIPE_END
EXCLUDE_OBJECT_END NAME=Calibration_Cube.stl_id_0_copy_0
;AFTER_LAYER_CHANGE
;0.6
;AFTER_LAYER_CHANGE
;0.6

OFFSET_T1
M117 SET FILAMENT SENSOR OFF 
SET_FILAMENT_SENSOR SENSOR=encoder_t1 ENABLE=0

;_SET_FAN_SPEED_CHANGING_LAYER
SET_VELOCITY_LIMIT ACCEL=7000 ACCEL_TO_DECEL=3500
G1 Z1 F21000
G1 X129.795 Y210.469 Z1
G1 Z.6
G1 E.4 F1800
SET_VELOCITY_LIMIT ACCEL=5000 ACCEL_TO_DECEL=2500
;Change extrusion role G-code

OFFSET_T1
M117 SET FILAMENT SENSOR OFF 
SET_FILAMENT_SENSOR SENSOR=encoder_t1 ENABLE=0


;TYPE:Skirt
;WIDTH:0.48
G1 F3000
G1 X129.795 Y211.55 E.03927
G1 X129.145 Y213.119 E.06171
G1 X128.645 Y213.619 E.0257
G1 X127.077 Y214.269 E.06171
G1 X111.077 Y214.269 E.58149
G1 X109.508 Y213.619 E.06171
G1 X109.008 Y213.119 E.0257
G1 X108.358 Y211.55 E.06171
G1 X108.358 Y195.55 E.58149
G1 X109.008 Y193.981 E.06171
G1 X109.508 Y193.481 E.0257
G1 X111.077 Y192.831 E.06171
G1 X127.077 Y192.831 E.58149
G1 X128.645 Y193.481 E.06171
G1 X129.145 Y193.981 E.0257
G1 X129.795 Y195.55 E.06171
G1 X129.795 Y210.429 E.54077
; printing object Calibration Cube.stl id:0 copy 0
SET_VELOCITY_LIMIT ACCEL=7000 ACCEL_TO_DECEL=3500
G1 E-.28 F1800
;WIPE_START
G1 F3000
G1 X129.795 Y211.429 E-.12
;WIPE_END
EXCLUDE_OBJECT_START NAME=Calibration_Cube.stl_id_0_copy_0
G1 Z1 F21000
G1 X126.602 Y196.024 Z1
G1 Z.6
G1 E.4 F1800
SET_VELOCITY_LIMIT ACCEL=5000 ACCEL_TO_DECEL=2500
;Change extrusion role G-code

OFFSET_T1
M117 SET FILAMENT SENSOR OFF 
SET_FILAMENT_SENSOR SENSOR=encoder_t1 ENABLE=0


;TYPE:Inner wall
;WIDTH:0.439999
G1 F7706
G1 X126.602 Y211.076 E.49697
G1 X111.551 Y211.076 E.49697
G1 X111.551 Y196.024 E.49697
G1 X126.562 Y196.024 E.49564
SET_VELOCITY_LIMIT ACCEL=7000 ACCEL_TO_DECEL=3500
G1 X126.838 Y195.627 F21000
SET_VELOCITY_LIMIT ACCEL=5000 ACCEL_TO_DECEL=2500
G1 F7706
G1 X126.999 Y195.789 E.00756
G1 X126.999 Y211.311 E.51249
G1 X126.838 Y211.473 E.00756
G1 X111.316 Y211.473 E.51249
M73 P4 R15
G1 X111.154 Y211.311 E.00756
M73 P4 R15
G1 X111.154 Y195.789 E.51249
