; HEADER_BLOCK_START
; generated by OrcaSlicer 2.2.0 on 2024-12-18 at 11:33:01
; total layer number: 100
; filament_density: 1.27,1.24,1.24,1.24,1.24
; filament_diameter: 1.75,1.75,1.75,1.75,1.75
; max_z_height: 20.00
; HEADER_BLOCK_END

; THUMBNAIL_BLOCK_START

;
; THUMBNAIL_BLOCK_END

; THUMBNAIL_BLOCK_START

;
; THUMBNAIL_BLOCK_END

; external perimeters extrusion width = 0.40mm
; perimeters extrusion width = 0.44mm
; infill extrusion width = 0.44mm
; solid infill extrusion width = 0.48mm
; top infill extrusion width = 0.38mm
; first layer extrusion width = 0.48mm

; EXECUTABLE_BLOCK_START
EXCLUDE_OBJECT_DEFINE NAME=Calibration_Cube.stl_id_0_copy_0 CENTER=276.859,152.301 POLYGON=[[266.859,144.301],[268.859,142.301],[284.859,142.301],[286.859,144.301],[286.859,160.301],[284.859,162.301],[268.859,162.301],[266.859,160.301],[266.859,144.301]]
M73 P0 R15
;TYPE:Custom
;START
M140 S60         ; set bed final temp
M190 S60         ; wait for bed final temp






G90
G21
M83 ; use relative distances for extrusion
; TESTING
T2



OFFSET_T2
M117 SET FILAMENT SENSOR ON 
SET_FILAMENT_SENSOR SENSOR=encoder_t2 ENABLE=1
;_FORCE_RESUME_FAN_SPEED
; filament start gcode
M109 S200 T2 ; set nozzle temperature and wait for it to be reached
M106 S0
;LAYER_CHANGE
;Z:0.2
;HEIGHT:0.2
;BEFORE_LAYER_CHANGE
;0.2
G92 E0

OFFSET_T2

M117 LAYER 0.2
G1 E-.8 F1800
;AFTER_LAYER_CHANGE
;0.2

OFFSET_T2


;_SET_FAN_SPEED_CHANGING_LAYER
SET_VELOCITY_LIMIT ACCEL=500 ACCEL_TO_DECEL=250
G1 Z.6 F21000
G1 X266.422 Y141.864
G1 Z.6
G1 Z.2
G1 E.8 F1800
;Change extrusion role G-code

OFFSET_T2


;TYPE:Skirt
;WIDTH:0.48
G1 F3000
G1 X266.672 Y141.614 E.01259
G1 X268.018 Y140.824 E.05557
G1 X268.859 Y140.708 E.03024
G1 X284.859 Y140.708 E.56986
G1 X286.369 Y141.101 E.05557
G1 X287.046 Y141.614 E.03024
G1 X287.546 Y142.114 E.02518
G1 X288.335 Y143.46 E.05557
G1 X288.452 Y144.301 E.03024
G1 X288.452 Y160.301 E.56986
G1 X288.058 Y161.81 E.05557
G1 X287.546 Y162.487 E.03024
G1 X287.046 Y162.987 E.02518
G1 X285.7 Y163.777 E.05557
G1 X284.859 Y163.893 E.03024
G1 X268.859 Y163.893 E.56986
G1 X267.349 Y163.5 E.05557
G1 X266.672 Y162.987 E.03024
G1 X266.172 Y162.487 E.02518
G1 X265.383 Y161.142 E.05557
G1 X265.266 Y160.301 E.03024
G1 X265.266 Y144.301 E.56986
G1 X265.66 Y142.791 E.05557
G1 X266.172 Y142.114 E.03024
G1 X266.394 Y141.892 E.01117
G1 X266.703 Y142.201 F21000
G1 F3000
G1 X266.981 Y141.923 E.01402
G1 X268.859 Y141.145 E.07239
G1 X284.859 Y141.145 E.56986
G1 X286.737 Y141.923 E.07239
G1 X287.237 Y142.423 E.02518
G1 X288.015 Y144.301 E.07239
G1 X288.015 Y160.301 E.56986
G1 X287.237 Y162.178 E.07239
G1 X286.737 Y162.678 E.02518
G1 X284.859 Y163.456 E.07239
G1 X268.859 Y163.456 E.56986
G1 X266.981 Y162.678 E.07239
G1 X266.481 Y162.178 E.02518
G1 X265.703 Y160.301 E.07239
G1 X265.703 Y144.301 E.56986
G1 X266.481 Y142.423 E.07239
G1 X266.675 Y142.229 E.00974
G1 X266.984 Y142.538 F21000
G1 F3000
G1 X267.29 Y142.232 E.01544
G1 X268.859 Y141.582 E.06048
G1 X284.859 Y141.582 E.56986
G1 X286.428 Y142.232 E.06048
G1 X286.928 Y142.732 E.02518
G1 X287.578 Y144.301 E.06048
G1 X287.578 Y160.301 E.56986
G1 X286.928 Y161.869 E.06048
G1 X286.428 Y162.369 E.02518
G1 X284.859 Y163.019 E.06048
G1 X268.859 Y163.019 E.56986
G1 X267.29 Y162.369 E.06048
G1 X266.79 Y161.869 E.02518
G1 X266.141 Y160.301 E.06048
G1 X266.141 Y144.301 E.56986
G1 X266.79 Y142.732 E.06048
G1 X266.955 Y142.567 E.00832
; printing object Calibration Cube.stl id:0 copy 0
G1 E-.56 F1800
;WIPE_START
G1 F3000
G1 X267.29 Y142.232 E-.11365
G1 X267.777 Y142.03 E-.12635
;WIPE_END
EXCLUDE_OBJECT_START NAME=Calibration_Cube.stl_id_0_copy_0
G1 Z.6 F21000
G1 X283.845 Y145.315 Z.6
G1 Z.2
G1 E.8 F1800
;Change extrusion role G-code

OFFSET_T2


;TYPE:Inner wall
;WIDTH:0.479999
G1 F3000
G1 X283.845 Y159.286 E.49762
G1 X269.873 Y159.286 E.49762
G1 X269.873 Y145.315 E.49762
M73 P1 R15
G1 X283.805 Y145.315 E.4962
M73 P1 R15
G1 X284.282 Y144.878 F21000
G1 F3000
G1 X284.282 Y159.724 E.52876
G1 X269.436 Y159.724 E.52876
G1 X269.436 Y144.878 E.52876
G1 X284.242 Y144.878 E.52733
G1 X284.719 Y144.441 F21000
;Change extrusion role G-code

OFFSET_T2


;TYPE:Outer wall
G1 F3000
G1 X284.719 Y160.161 E.55989
G1 X268.999 Y160.161 E.55989
G1 X268.999 Y144.441 E.55989
G1 X284.679 Y144.441 E.55847
G1 E-.56 F1800
;WIPE_START
G1 F3000
G1 X284.682 Y145.441 E-.24
;WIPE_END
G1 Z.6 F21000
G1 X282.82 Y145.446 Z.6
G1 Z.2
G1 E.8 F1800
;Change extrusion role G-code

OFFSET_T2


;TYPE:Bottom surface
;WIDTH:0.484962
G1 F6300
G1 X283.517 Y146.143 E.03553
G1 X283.517 Y146.768 E.02252
G1 X282.391 Y145.643 E.05735
G1 X281.766 Y145.643 E.02252
G1 X283.517 Y147.394 E.0892
G1 X283.517 Y148.019 E.02252
G1 X281.141 Y145.643 E.12104
G1 X280.516 Y145.643 E.02252
G1 X283.517 Y148.644 E.15289
G1 X283.517 Y149.269 E.02252
G1 X279.891 Y145.643 E.18473
G1 X279.266 Y145.643 E.02252
G1 X283.517 Y149.894 E.21658
G1 X283.517 Y150.519 E.02252
G1 X278.64 Y145.643 E.24842
G1 X278.015 Y145.643 E.02252
G1 X283.517 Y151.144 E.28027
G1 X283.517 Y151.77 E.02252
G1 X277.39 Y145.643 E.31212
G1 X276.765 Y145.643 E.02252
G1 X283.517 Y152.395 E.34396
G1 X283.517 Y153.02 E.02252
G1 X276.14 Y145.643 E.37581
G1 X275.515 Y145.643 E.02252
G1 X283.517 Y153.645 E.40765
G1 X283.517 Y154.27 E.02252
G1 X274.89 Y145.643 E.4395
G1 X274.264 Y145.643 E.02252
G1 X283.517 Y154.895 E.47134
G1 X283.517 Y155.52 E.02252
G1 X273.639 Y145.643 E.50319
G1 X273.014 Y145.643 E.02252
G1 X283.517 Y156.146 E.53503
G1 X283.517 Y156.771 E.02252
G1 X272.389 Y145.643 E.56688
G1 X271.764 Y145.643 E.02252
G1 X283.517 Y157.396 E.59872
G1 X283.517 Y158.021 E.02252
G1 X271.139 Y145.643 E.63057
G1 X270.514 Y145.643 E.02252
G1 X283.517 Y158.646 E.66242
M73 P2 R15
G1 X283.517 Y158.959 E.01126
M73 P2 R15
G1 X283.204 Y158.959 E.01126
G1 X270.201 Y145.955 E.66241
G1 X270.201 Y146.58 E.02252
G1 X282.579 Y158.959 E.63057
G1 X281.954 Y158.959 E.02252
G1 X270.201 Y147.205 E.59872
G1 X270.201 Y147.831 E.02252
G1 X281.329 Y158.959 E.56687
G1 X280.704 Y158.959 E.02252
G1 X270.201 Y148.456 E.53503
G1 X270.201 Y149.081 E.02252
G1 X280.079 Y158.959 E.50318
G1 X279.454 Y158.959 E.02252
G1 X270.201 Y149.706 E.47134
G1 X270.201 Y150.331 E.02252
G1 X278.828 Y158.959 E.43949
G1 X278.203 Y158.959 E.02252
G1 X270.201 Y150.956 E.40765
G1 X270.201 Y151.581 E.02252
G1 X277.578 Y158.959 E.3758
G1 X276.953 Y158.959 E.02252
G1 X270.201 Y152.207 E.34396
G1 X270.201 Y152.832 E.02252
G1 X276.328 Y158.959 E.31211
G1 X275.703 Y158.959 E.02252
G1 X270.201 Y153.457 E.28027
G1 X270.201 Y154.082 E.02252
G1 X275.078 Y158.959 E.24842
G1 X274.453 Y158.959 E.02252
G1 X270.201 Y154.707 E.21657
G1 X270.201 Y155.332 E.02252
G1 X273.827 Y158.959 E.18473
G1 X273.202 Y158.959 E.02252
G1 X270.201 Y155.957 E.15288
G1 X270.201 Y156.583 E.02252
G1 X272.577 Y158.959 E.12104
G1 X271.952 Y158.959 E.02252
G1 X270.201 Y157.208 E.08919
G1 X270.201 Y157.833 E.02252
G1 X271.327 Y158.959 E.05735
G1 X270.702 Y158.959 E.02252
G1 X270.004 Y158.261 E.03552
; stop printing object Calibration Cube.stl id:0 copy 0
M106 S255
;LAYER_CHANGE
;Z:0.4
;HEIGHT:0.2
;BEFORE_LAYER_CHANGE
;0.4
G92 E0

OFFSET_T2

M117 LAYER 0.4
G1 E-.56 F1800
;WIPE_START
G1 F6300
G1 X270.702 Y158.959 E-.23667
G1 X270.716 Y158.959 E-.00333
;WIPE_END
EXCLUDE_OBJECT_END NAME=Calibration_Cube.stl_id_0_copy_0
;AFTER_LAYER_CHANGE
;0.4

OFFSET_T2


;_SET_FAN_SPEED_CHANGING_LAYER
SET_VELOCITY_LIMIT ACCEL=5000 ACCEL_TO_DECEL=2500
M104 S190 T2 ; set nozzle temperature
M140 S60 ; set bed temperature
SET_VELOCITY_LIMIT ACCEL=7000 ACCEL_TO_DECEL=3500
G1 Z.8 F21000
G1 X270.716 Y163.019 Z.8
G1 Z.4
G1 E.8 F1800
SET_VELOCITY_LIMIT ACCEL=5000 ACCEL_TO_DECEL=2500
;Change extrusion role G-code

OFFSET_T2


;TYPE:Skirt
;WIDTH:0.48
G1 F3000
G1 X284.859 Y163.019 E.50374
G1 X286.428 Y162.369 E.06048
G1 X286.928 Y161.869 E.02518
G1 X287.578 Y160.301 E.06048
G1 X287.578 Y144.301 E.56986
G1 X286.928 Y142.732 E.06048
G1 X286.428 Y142.232 E.02518
G1 X284.859 Y141.582 E.06048
G1 X268.859 Y141.582 E.56986
G1 X267.29 Y142.232 E.06048
G1 X266.79 Y142.732 E.02518
G1 X266.141 Y144.301 E.06048
G1 X266.141 Y160.301 E.56986
G1 X266.79 Y161.869 E.06048
G1 X267.29 Y162.369 E.02518
G1 X268.859 Y163.019 E.06048
G1 X270.676 Y163.019 E.0647
; printing object Calibration Cube.stl id:0 copy 0
SET_VELOCITY_LIMIT ACCEL=7000 ACCEL_TO_DECEL=3500
G1 E-.56 F1800
;WIPE_START
G1 F3000
G1 X271.676 Y163.019 E-.24
;WIPE_END
EXCLUDE_OBJECT_START NAME=Calibration_Cube.stl_id_0_copy_0
G1 Z.8 F21000
G1 X284.185 Y144.975 Z.8
G1 Z.4
G1 E.8 F1800
SET_VELOCITY_LIMIT ACCEL=5000 ACCEL_TO_DECEL=2500
;Change extrusion role G-code

OFFSET_T2


;TYPE:Inner wall
;WIDTH:0.439999
G1 F7555.171
G1 X284.185 Y159.626 E.47408
G1 X269.533 Y159.626 E.47408
G1 X269.533 Y144.975 E.47408
G1 X284.145 Y144.975 E.47279
SET_VELOCITY_LIMIT ACCEL=7000 ACCEL_TO_DECEL=3500
G1 X284.582 Y144.578 F21000
SET_VELOCITY_LIMIT ACCEL=5000 ACCEL_TO_DECEL=2500
G1 F7555.171
G1 X284.582 Y160.024 E.49978
G1 X269.136 Y160.024 E.49978
G1 X269.136 Y144.578 E.49978
G1 X284.542 Y144.578 E.49849
SET_VELOCITY_LIMIT ACCEL=7000 ACCEL_TO_DECEL=3500
G1 X284.776 Y144.201 F21000
SET_VELOCITY_LIMIT ACCEL=3000 ACCEL_TO_DECEL=1500
;Change extrusion role G-code

OFFSET_T2


;TYPE:Outer wall
;WIDTH:0.399999
G1 F3000
G1 X284.959 Y144.383 E.00751
G1 X284.959 Y160.218 E.46076
M73 P3 R15
G1 X284.776 Y160.401 E.00753
M73 P3 R15
G1 X268.942 Y160.401 E.46073
G1 X268.759 Y160.218 E.00753
G1 X268.759 Y144.383 E.46076
G1 X268.942 Y144.201 E.00751
G1 X284.736 Y144.201 E.45956
SET_VELOCITY_LIMIT ACCEL=7000 ACCEL_TO_DECEL=3500
G1 E-.56 F1800
;WIPE_START
G1 F3000
G1 X284.959 Y144.383 E-.06918
G1 X284.959 Y145.095 E-.17082
;WIPE_END
G1 Z.8 F21000
G1 X284.064 Y158.519 Z.8
G1 Z.4
G1 E.8 F1800
SET_VELOCITY_LIMIT ACCEL=5000 ACCEL_TO_DECEL=2500
;Change extrusion role G-code

OFFSET_T2


;TYPE:Internal solid infill
;WIDTH:0.481986
G1 F6832.685
M106 S255
G1 X283.274 Y159.309 E.03997
G1 X282.653 Y159.309 E.02222
G1 X283.867 Y158.094 E.06144
G1 X283.867 Y157.473 E.02222
G1 X282.032 Y159.309 E.09286
G1 X281.411 Y159.309 E.02222
G1 X283.867 Y156.853 E.12428
G1 X283.867 Y156.232 E.02222
G1 X280.79 Y159.309 E.15569
G1 X280.169 Y159.309 E.02222
G1 X283.867 Y155.611 E.18711
G1 X283.867 Y154.99 E.02222
G1 X279.548 Y159.309 E.21853
G1 X278.927 Y159.309 E.02222
G1 X283.867 Y154.369 E.24995
G1 X283.867 Y153.748 E.02222
G1 X278.306 Y159.309 E.28137
G1 X277.685 Y159.309 E.02222
G1 X283.867 Y153.127 E.31278
G1 X283.867 Y152.506 E.02222
G1 X277.064 Y159.309 E.3442
G1 X276.444 Y159.309 E.02222
G1 X283.867 Y151.885 E.37562
G1 X283.867 Y151.264 E.02222
G1 X275.823 Y159.309 E.40704
G1 X275.202 Y159.309 E.02222
G1 X283.867 Y150.643 E.43846
G1 X283.867 Y150.022 E.02222
G1 X274.581 Y159.309 E.46987
G1 X273.96 Y159.309 E.02222
G1 X283.867 Y149.401 E.50129
G1 X283.867 Y148.78 E.02222
G1 X273.339 Y159.309 E.53271
G1 X272.718 Y159.309 E.02222
G1 X283.867 Y148.159 E.56413
G1 X283.867 Y147.539 E.02222
G1 X272.097 Y159.309 E.59555
G1 X271.476 Y159.309 E.02222
G1 X283.867 Y146.918 E.62697
G1 X283.867 Y146.297 E.02222
G1 X270.855 Y159.309 E.65838
G1 X270.234 Y159.309 E.02222
G1 X283.867 Y145.676 E.6898
G1 X283.867 Y145.293 E.01371
G1 X283.629 Y145.293 E.00851
G1 X269.851 Y159.071 E.69716
G1 X269.851 Y158.45 E.02222
G1 X283.008 Y145.293 E.66574
G1 X282.387 Y145.293 E.02222
G1 X269.851 Y157.829 E.63432
G1 X269.851 Y157.208 E.02222
G1 X281.767 Y145.293 E.6029
G1 X281.146 Y145.293 E.02222
G1 X269.851 Y156.587 E.57148
G1 X269.851 Y155.966 E.02222
G1 X280.525 Y145.293 E.54007
G1 X279.904 Y145.293 E.02222
G1 X269.851 Y155.345 E.50865
G1 X269.851 Y154.724 E.02222
G1 X279.283 Y145.293 E.47723
G1 X278.662 Y145.293 E.02222
G1 X269.851 Y154.103 E.44581
G1 X269.851 Y153.482 E.02222
G1 X278.041 Y145.293 E.41439
G1 X277.42 Y145.293 E.02222
G1 X269.851 Y152.862 E.38298
G1 X269.851 Y152.241 E.02222
G1 X276.799 Y145.293 E.35156
G1 X276.178 Y145.293 E.02222
G1 X269.851 Y151.62 E.32014
G1 X269.851 Y150.999 E.02222
G1 X275.557 Y145.293 E.28872
G1 X274.936 Y145.293 E.02222
G1 X269.851 Y150.378 E.2573
G1 X269.851 Y149.757 E.02222
G1 X274.315 Y145.293 E.22588
G1 X273.694 Y145.293 E.02222
G1 X269.851 Y149.136 E.19447
G1 X269.851 Y148.515 E.02222
G1 X273.073 Y145.293 E.16305
G1 X272.453 Y145.293 E.02222
G1 X269.851 Y147.894 E.13163
G1 X269.851 Y147.273 E.02222
G1 X271.832 Y145.293 E.10021
G1 X271.211 Y145.293 E.02222
G1 X269.851 Y146.652 E.06879
G1 X269.851 Y146.031 E.02222
G1 X270.786 Y145.096 E.04733
SET_VELOCITY_LIMIT ACCEL=7000 ACCEL_TO_DECEL=3500
G1 X269.972 Y145.341 F21000
SET_VELOCITY_LIMIT ACCEL=5000 ACCEL_TO_DECEL=2500
;WIDTH:0.469754
G1 F7028.493
G1 X269.919 Y145.341 E.00186
G1 X269.892 Y145.387 E.00186
G1 X269.919 Y145.433 E.00186
G1 X269.979 Y145.421 E.00213
SET_VELOCITY_LIMIT ACCEL=7000 ACCEL_TO_DECEL=3500
G1 X283.837 Y159.22 F21000
SET_VELOCITY_LIMIT ACCEL=5000 ACCEL_TO_DECEL=2500
;WIDTH:0.384528
G1 F8781.996
G1 X283.773 Y159.257 E.00206
G1 X283.838 Y159.292 E.00206
; stop printing object Calibration Cube.stl id:0 copy 0
;LAYER_CHANGE
;Z:0.6
;HEIGHT:0.2
;BEFORE_LAYER_CHANGE
;0.6
G92 E0

OFFSET_T2

M117 LAYER 0.6
G1 E-.76967 F1800
;WIPE_START
G1 F8781.996
G1 X283.773 Y159.257 E-.01517
G1 X283.837 Y159.22 E-.01516
;WIPE_END
EXCLUDE_OBJECT_END NAME=Calibration_Cube.stl_id_0_copy_0
;AFTER_LAYER_CHANGE
;0.6

OFFSET_T2


;_SET_FAN_SPEED_CHANGING_LAYER
SET_VELOCITY_LIMIT ACCEL=7000 ACCEL_TO_DECEL=3500
G1 Z1 F21000
G1 X287.578 Y159.22 Z1
G1 Z.6
G1 E.8 F1800
SET_VELOCITY_LIMIT ACCEL=5000 ACCEL_TO_DECEL=2500
;Change extrusion role G-code

OFFSET_T2


;TYPE:Skirt
;WIDTH:0.48
G1 F3000
G1 X287.578 Y160.301 E.03848
G1 X286.928 Y161.869 E.06048
G1 X286.428 Y162.369 E.02518
G1 X284.859 Y163.019 E.06048
G1 X268.859 Y163.019 E.56986
G1 X267.29 Y162.369 E.06048
G1 X266.79 Y161.869 E.02518
G1 X266.141 Y160.301 E.06048
G1 X266.141 Y144.301 E.56986
G1 X266.79 Y142.732 E.06048
G1 X267.29 Y142.232 E.02518
G1 X268.859 Y141.582 E.06048
G1 X284.859 Y141.582 E.56986
G1 X286.428 Y142.232 E.06048
G1 X286.928 Y142.732 E.02518
G1 X287.578 Y144.301 E.06048
G1 X287.578 Y159.18 E.52996
; printing object Calibration Cube.stl id:0 copy 0
SET_VELOCITY_LIMIT ACCEL=7000 ACCEL_TO_DECEL=3500
G1 E-.56 F1800
;WIPE_START
G1 F3000
G1 X287.578 Y160.18 E-.24
;WIPE_END
EXCLUDE_OBJECT_START NAME=Calibration_Cube.stl_id_0_copy_0
G1 Z1 F21000
G1 X284.385 Y144.775 Z1
G1 Z.6
G1 E.8 F1800
SET_VELOCITY_LIMIT ACCEL=5000 ACCEL_TO_DECEL=2500
;Change extrusion role G-code

OFFSET_T2


;TYPE:Inner wall
;WIDTH:0.439999
G1 F7555.171
G1 X284.385 Y159.826 E.48703
G1 X269.333 Y159.826 E.48703
M73 P4 R15
G1 X269.333 Y144.775 E.48703
M73 P4 R15
G1 X284.345 Y144.775 E.48573
SET_VELOCITY_LIMIT ACCEL=7000 ACCEL_TO_DECEL=3500
G1 X284.62 Y144.378 F21000
SET_VELOCITY_LIMIT ACCEL=5000 ACCEL_TO_DECEL=2500
G1 F7555.171
G1 X284.782 Y144.54 E.00741
G1 X284.782 Y160.062 E.50224
G1 X284.62 Y160.224 E.00741
G1 X269.098 Y160.224 E.50224
G1 X268.936 Y160.062 E.00741
G1 X268.936 Y144.54 E.50224
G1 X269.098 Y144.378 E.00741
G1 X284.58 Y144.378 E.50095
SET_VELOCITY_LIMIT ACCEL=7000 ACCEL_TO_DECEL=3500
G1 X284.772 Y144.001 F21000
SET_VELOCITY_LIMIT ACCEL=3000 ACCEL_TO_DECEL=1500
;Change extrusion role G-code

OFFSET_T2


;TYPE:Outer wall
;WIDTH:0.399999
G1 F3000
G1 X284.776 Y144.001 E.00012
G1 X285.159 Y144.383 E.01574
G1 X285.159 Y160.218 E.46076
G1 X284.776 Y160.601 E.01576
G1 X268.942 Y160.601 E.46073
G1 X268.559 Y160.218 E.01576
G1 X268.559 Y144.383 E.46076
G1 X268.942 Y144.001 E.01574
G1 X284.732 Y144.001 E.45945
SET_VELOCITY_LIMIT ACCEL=7000 ACCEL_TO_DECEL=3500
G1 E-.56 F1800
;WIPE_START
G1 F3000
G1 X284.776 Y144.001 E-.0105
G1 X285.159 Y144.383 E-.12994
G1 X285.159 Y144.798 E-.09956
;WIPE_END
G1 Z1 F21000
G1 X283.99 Y145.149 Z1
G1 Z.6
G1 E.8 F1800
SET_VELOCITY_LIMIT ACCEL=5000 ACCEL_TO_DECEL=2500
;Change extrusion role G-code

OFFSET_T2


;TYPE:Internal solid infill
;WIDTH:0.491068
G1 F6694.217
M106 S255
G1 X283.934 Y145.149 E.00205
G1 X283.906 Y145.197 E.00205
G1 X283.934 Y145.246 E.00205
G1 X283.998 Y145.232 E.00239
SET_VELOCITY_LIMIT ACCEL=7000 ACCEL_TO_DECEL=3500
G1 X283.095 Y144.896 F21000
SET_VELOCITY_LIMIT ACCEL=5000 ACCEL_TO_DECEL=2500
;WIDTH:0.481941
