; HEADER_BLOCK_START
; generated by OrcaSlicer 2.2.0 on 2024-12-15 at 16:38:53
; total layer number: 100
; filament_density: 1.24,1.24,1.24,1.24,1.24
; filament_diameter: 1.75,1.75,1.75,1.75,1.75
; max_z_height: 20.00
; HEADER_BLOCK_END

; THUMBNAIL_BLOCK_START

;
; THUMBNAIL_BLOCK_END

; THUMBNAIL_BLOCK_START

;
; THUMBNAIL_BLOCK_END

; external perimeters extrusion width = 0.42mm
; perimeters extrusion width = 0.45mm
; infill extrusion width = 0.45mm
; solid infill extrusion width = 0.42mm
; top infill extrusion width = 0.42mm
; first layer extrusion width = 0.50mm

; EXECUTABLE_BLOCK_START
EXCLUDE_OBJECT_DEFINE NAME=Calibration_Cube.stl_id_0_copy_0 CENTER=228.739,207.336 POLYGON=[[218.739,199.336],[220.739,197.336],[236.739,197.336],[238.739,199.336],[238.739,215.336],[236.739,217.336],[220.739,217.336],[218.739,215.336],[218.739,199.336]]
M73 P0 R15
;TYPE:Custom
;START
M140 S55         ; set bed final temp
M190 S55         ; wait for bed final temp






G90
G21
M83 ; use relative distances for extrusion
; TESTING
T1



OFFSET_T1
M117 SET FILAMENT SENSOR OFF 
SET_FILAMENT_SENSOR SENSOR=encoder_t1 ENABLE=0
;_FORCE_RESUME_FAN_SPEED
; filament start gcode
M109 S200 T1 ; set nozzle temperature and wait for it to be reached
M106 S0
;LAYER_CHANGE
;Z:0.2
;HEIGHT:0.2
;BEFORE_LAYER_CHANGE
;0.2
G92 E0

OFFSET_T1
M117 SET FILAMENT SENSOR OFF 
SET_FILAMENT_SENSOR SENSOR=encoder_t1 ENABLE=0

M117 LAYER 0.2
G1 E-.4 F1800
;AFTER_LAYER_CHANGE
;0.2
;AFTER_LAYER_CHANGE
;0.2

OFFSET_T1
M117 SET FILAMENT SENSOR OFF 
SET_FILAMENT_SENSOR SENSOR=encoder_t1 ENABLE=0

;_SET_FAN_SPEED_CHANGING_LAYER
SET_VELOCITY_LIMIT ACCEL=500 ACCEL_TO_DECEL=250
G1 Z.6 F45000
G1 X218.266 Y196.864
G1 Z.6
G1 Z.2
G1 E.4 F1800
;Change extrusion role G-code

OFFSET_T1
M117 SET FILAMENT SENSOR OFF 
SET_FILAMENT_SENSOR SENSOR=encoder_t1 ENABLE=0


;TYPE:Skirt
;WIDTH:0.5
G1 F3000
G1 X218.516 Y196.614 E.01344
G1 X219.872 Y195.815 E.05978
G1 X220.739 Y195.693 E.03328
G1 X236.739 Y195.693 E.6081
G1 X238.261 Y196.087 E.05978
G1 X238.961 Y196.614 E.03328
G1 X239.461 Y197.114 E.02687
G1 X240.259 Y198.469 E.05978
G1 X240.381 Y199.336 E.03328
G1 X240.381 Y215.336 E.6081
G1 X239.988 Y216.859 E.05978
G1 X239.461 Y217.558 E.03328
G1 X238.961 Y218.058 E.02687
G1 X237.606 Y218.857 E.05978
G1 X236.739 Y218.979 E.03328
G1 X220.739 Y218.979 E.6081
G1 X219.216 Y218.585 E.05978
G1 X218.516 Y218.058 E.03328
G1 X218.016 Y217.558 E.02687
G1 X217.218 Y216.203 E.05978
G1 X217.096 Y215.336 E.03328
G1 X217.096 Y199.336 E.6081
G1 X217.489 Y197.813 E.05978
G1 X218.016 Y197.114 E.03328
G1 X218.238 Y196.892 E.01192
G1 X218.561 Y197.215 F45000
G1 F3000
G1 X218.84 Y196.937 E.01496
G1 X220.739 Y196.15 E.07812
G1 X236.739 Y196.15 E.6081
G1 X238.638 Y196.937 E.07812
G1 X239.138 Y197.437 E.02687
G1 X239.924 Y199.336 E.07812
G1 X239.924 Y215.336 E.6081
G1 X239.138 Y217.235 E.07812
G1 X238.638 Y217.735 E.02687
G1 X236.739 Y218.522 E.07812
G1 X220.739 Y218.522 E.6081
G1 X218.84 Y217.735 E.07812
G1 X218.34 Y217.235 E.02687
G1 X217.553 Y215.336 E.07812
G1 X217.553 Y199.336 E.6081
G1 X218.34 Y197.437 E.07812
G1 X218.533 Y197.244 E.0104
G1 X218.856 Y197.567 F45000
G1 F3000
G1 X219.163 Y197.26 E.01648
G1 X220.739 Y196.607 E.06483
G1 X236.739 Y196.607 E.6081
G1 X238.314 Y197.26 E.06483
G1 X238.814 Y197.76 E.02687
G1 X239.467 Y199.336 E.06483
G1 X239.467 Y215.336 E.6081
G1 X238.814 Y216.912 E.06483
G1 X238.314 Y217.412 E.02687
G1 X236.739 Y218.065 E.06483
G1 X220.739 Y218.065 E.6081
G1 X219.163 Y217.412 E.06483
G1 X218.663 Y216.912 E.02687
G1 X218.01 Y215.336 E.06483
G1 X218.01 Y199.336 E.6081
G1 X218.663 Y197.76 E.06483
G1 X218.828 Y197.595 E.00888
; printing object Calibration Cube.stl id:0 copy 0
G1 E-.28 F1800
;WIPE_START
G1 F3000
G1 X219.163 Y197.26 E-.05683
G1 X219.649 Y197.059 E-.06317
;WIPE_END
EXCLUDE_OBJECT_START NAME=Calibration_Cube.stl_id_0_copy_0
G1 Z.6 F45000
G1 X236.056 Y214.654 Z.6
G1 Z.2
G1 E.4 F1800
;Change extrusion role G-code

OFFSET_T1
M117 SET FILAMENT SENSOR OFF 
SET_FILAMENT_SENSOR SENSOR=encoder_t1 ENABLE=0


;TYPE:Inner wall
G1 F3000
G1 X221.421 Y214.654 E.55625
G1 X221.421 Y200.018 E.55625
M73 P1 R15
G1 X236.056 Y200.018 E.55625
M73 P1 R15
G1 X236.056 Y214.614 E.55473
G1 X236.514 Y215.111 F45000
;Change extrusion role G-code

OFFSET_T1
M117 SET FILAMENT SENSOR OFF 
SET_FILAMENT_SENSOR SENSOR=encoder_t1 ENABLE=0


;TYPE:Outer wall
G1 F3000
G1 X220.964 Y215.111 E.591
G1 X220.964 Y199.561 E.591
G1 X236.514 Y199.561 E.591
G1 X236.514 Y215.071 E.58948
G1 E-.28 F1800
;WIPE_START
G1 F3000
G1 X235.514 Y215.074 E-.12
;WIPE_END
G1 Z.6 F45000
G1 X234.983 Y200.155 Z.6
G1 Z.2
G1 E.4 F1800
;Change extrusion role G-code

OFFSET_T1
M117 SET FILAMENT SENSOR OFF 
SET_FILAMENT_SENSOR SENSOR=encoder_t1 ENABLE=0


;TYPE:Bottom surface
;WIDTH:0.505988
G1 F6300
G1 X235.714 Y200.886 E.0398
G1 X235.714 Y201.541 E.02522
G1 X234.533 Y200.361 E.06426
G1 X233.879 Y200.361 E.02522
G1 X235.714 Y202.196 E.09993
G1 X235.714 Y202.851 E.02522
G1 X233.224 Y200.361 E.13559
G1 X232.569 Y200.361 E.02522
G1 X235.714 Y203.506 E.17125
G1 X235.714 Y204.161 E.02522
G1 X231.914 Y200.361 E.20691
G1 X231.259 Y200.361 E.02522
G1 X235.714 Y204.815 E.24257
G1 X235.714 Y205.47 E.02522
G1 X230.604 Y200.361 E.27823
G1 X229.949 Y200.361 E.02522
G1 X235.714 Y206.125 E.31389
G1 X235.714 Y206.78 E.02522
G1 X229.294 Y200.361 E.34955
G1 X228.64 Y200.361 E.02522
G1 X235.714 Y207.435 E.38521
G1 X235.714 Y208.09 E.02522
G1 X227.985 Y200.361 E.42087
G1 X227.33 Y200.361 E.02522
G1 X235.714 Y208.745 E.45653
G1 X235.714 Y209.4 E.02522
G1 X226.675 Y200.361 E.49219
G1 X226.02 Y200.361 E.02522
G1 X235.714 Y210.054 E.52785
G1 X235.714 Y210.709 E.02522
G1 X225.365 Y200.361 E.56351
G1 X224.71 Y200.361 E.02522
G1 X235.714 Y211.364 E.59917
G1 X235.714 Y212.019 E.02522
G1 X224.055 Y200.361 E.63483
G1 X223.401 Y200.361 E.02522
G1 X235.714 Y212.674 E.67049
G1 X235.714 Y213.329 E.02522
G1 X222.746 Y200.361 E.70615
G1 X222.091 Y200.361 E.02522
G1 X235.714 Y213.984 E.74181
G1 X235.714 Y214.311 E.01261
G1 X235.386 Y214.311 E.01261
G1 X221.763 Y200.688 E.7418
G1 X221.763 Y201.343 E.02522
G1 X234.731 Y214.311 E.70614
M73 P2 R15
G1 X234.076 Y214.311 E.02522
M73 P2 R15
G1 X221.763 Y201.998 E.67048
G1 X221.763 Y202.653 E.02522
G1 X233.422 Y214.311 E.63482
G1 X232.767 Y214.311 E.02522
G1 X221.763 Y203.308 E.59916
G1 X221.763 Y203.963 E.02522
G1 X232.112 Y214.311 E.5635
G1 X231.457 Y214.311 E.02522
G1 X221.763 Y204.618 E.52784
G1 X221.763 Y205.272 E.02522
G1 X230.802 Y214.311 E.49218
G1 X230.147 Y214.311 E.02522
G1 X221.763 Y205.927 E.45652
G1 X221.763 Y206.582 E.02522
G1 X229.492 Y214.311 E.42086
G1 X228.837 Y214.311 E.02522
G1 X221.763 Y207.237 E.3852
G1 X221.763 Y207.892 E.02522
G1 X228.183 Y214.311 E.34954
G1 X227.528 Y214.311 E.02522
G1 X221.763 Y208.547 E.31388
G1 X221.763 Y209.202 E.02522
G1 X226.873 Y214.311 E.27822
G1 X226.218 Y214.311 E.02522
G1 X221.763 Y209.857 E.24256
G1 X221.763 Y210.512 E.02522
G1 X225.563 Y214.311 E.2069
G1 X224.908 Y214.311 E.02522
G1 X221.763 Y211.166 E.17124
G1 X221.763 Y211.821 E.02522
G1 X224.253 Y214.311 E.13558
G1 X223.598 Y214.311 E.02522
G1 X221.763 Y212.476 E.09992
G1 X221.763 Y213.131 E.02522
G1 X222.943 Y214.311 E.06426
G1 X222.289 Y214.311 E.02522
G1 X221.558 Y213.58 E.0398
; stop printing object Calibration Cube.stl id:0 copy 0
M106 S255
;LAYER_CHANGE
;Z:0.4
;HEIGHT:0.2
;BEFORE_LAYER_CHANGE
;0.4
G92 E0

OFFSET_T1
M117 SET FILAMENT SENSOR OFF 
SET_FILAMENT_SENSOR SENSOR=encoder_t1 ENABLE=0

M117 LAYER 0.4
G1 E-.28 F1800
;WIPE_START
G1 F6300
G1 X222.265 Y214.287 E-.12
;WIPE_END
EXCLUDE_OBJECT_END NAME=Calibration_Cube.stl_id_0_copy_0
;AFTER_LAYER_CHANGE
;0.4
;AFTER_LAYER_CHANGE
;0.4

OFFSET_T1
M117 SET FILAMENT SENSOR OFF 
SET_FILAMENT_SENSOR SENSOR=encoder_t1 ENABLE=0

;_SET_FAN_SPEED_CHANGING_LAYER
SET_VELOCITY_LIMIT ACCEL=6000 ACCEL_TO_DECEL=3000
M140 S55 ; set bed temperature
SET_VELOCITY_LIMIT ACCEL=10000 ACCEL_TO_DECEL=5000
G1 Z.8 F45000
G1 X222.265 Y218.065 Z.8
G1 Z.4
G1 E.4 F1800
SET_VELOCITY_LIMIT ACCEL=6000 ACCEL_TO_DECEL=3000
;Change extrusion role G-code

OFFSET_T1
M117 SET FILAMENT SENSOR OFF 
SET_FILAMENT_SENSOR SENSOR=encoder_t1 ENABLE=0


;TYPE:Skirt
;WIDTH:0.5
G1 F3000
G1 X236.739 Y218.065 E.55009
G1 X238.314 Y217.412 E.06483
G1 X238.814 Y216.912 E.02687
G1 X239.467 Y215.336 E.06483
G1 X239.467 Y199.336 E.6081
G1 X238.814 Y197.76 E.06483
G1 X238.314 Y197.26 E.02687
G1 X236.739 Y196.607 E.06483
G1 X220.739 Y196.607 E.6081
G1 X219.163 Y197.26 E.06483
G1 X218.663 Y197.76 E.02687
G1 X218.01 Y199.336 E.06483
G1 X218.01 Y215.336 E.6081
G1 X218.663 Y216.912 E.06483
G1 X219.163 Y217.412 E.02687
G1 X220.739 Y218.065 E.06483
G1 X222.225 Y218.065 E.05649
; printing object Calibration Cube.stl id:0 copy 0
SET_VELOCITY_LIMIT ACCEL=10000 ACCEL_TO_DECEL=5000
G1 E-.28 F1800
;WIPE_START
G1 F3000
G1 X223.225 Y218.065 E-.12
;WIPE_END
EXCLUDE_OBJECT_START NAME=Calibration_Cube.stl_id_0_copy_0
G1 Z.8 F45000
G1 X236.436 Y215.034 Z.8
G1 Z.4
G1 E.4 F1800
;Change extrusion role G-code

OFFSET_T1
M117 SET FILAMENT SENSOR OFF 
SET_FILAMENT_SENSOR SENSOR=encoder_t1 ENABLE=0


;TYPE:Inner wall
;WIDTH:0.45
G1 F7727
G1 X221.041 Y215.034 E.52113
G1 X221.041 Y199.638 E.52113
G1 X236.436 Y199.638 E.52113
G1 X236.436 Y214.994 E.51978
G1 X236.829 Y215.249 F45000
SET_VELOCITY_LIMIT ACCEL=5000 ACCEL_TO_DECEL=2500
;Change extrusion role G-code

OFFSET_T1
M117 SET FILAMENT SENSOR OFF 
SET_FILAMENT_SENSOR SENSOR=encoder_t1 ENABLE=0


;TYPE:Outer wall
;WIDTH:0.42
G1 F3600
G1 X236.652 Y215.426 E.00785
G1 X220.826 Y215.426 E.49621
G1 X220.649 Y215.249 E.00785
G1 X220.649 Y199.423 E.49621
G1 X220.826 Y199.246 E.00785
G1 X236.652 Y199.246 E.49621
G1 X236.829 Y199.423 E.00785
G1 X236.829 Y215.209 E.49496
SET_VELOCITY_LIMIT ACCEL=10000 ACCEL_TO_DECEL=5000
G1 E-.28 F1800
;WIPE_START
G1 F3600
G1 X236.652 Y215.426 E-.0336
G1 X235.932 Y215.426 E-.0864
;WIPE_END
M73 P3 R15
G1 Z.8 F45000
M73 P3 R15
G1 X235.507 Y214.87 Z.8
G1 Z.4
G1 E.4 F1800
SET_VELOCITY_LIMIT ACCEL=6000 ACCEL_TO_DECEL=3000
;Change extrusion role G-code

OFFSET_T1
M117 SET FILAMENT SENSOR OFF 
SET_FILAMENT_SENSOR SENSOR=encoder_t1 ENABLE=0


;TYPE:Internal solid infill
;WIDTH:0.421752
G1 F7727
G1 X236.103 Y214.274 E.02656
G1 X236.103 Y213.738 E.01688
G1 X235.141 Y214.701 E.04287
G1 X234.605 Y214.701 E.01688
G1 X236.103 Y213.203 E.06674
G1 X236.103 Y212.667 E.01688
G1 X234.069 Y214.701 E.0906
G1 X233.534 Y214.701 E.01688
G1 X236.103 Y212.131 E.11447
G1 X236.103 Y211.595 E.01688
G1 X232.998 Y214.701 E.13834
G1 X232.462 Y214.701 E.01688
G1 X236.103 Y211.06 E.1622
G1 X236.103 Y210.524 E.01688
G1 X231.926 Y214.701 E.18607
G1 X231.391 Y214.701 E.01688
G1 X236.103 Y209.988 E.20994
G1 X236.103 Y209.452 E.01688
G1 X230.855 Y214.701 E.2338
G1 X230.319 Y214.701 E.01688
G1 X236.103 Y208.917 E.25767
G1 X236.103 Y208.381 E.01688
G1 X229.783 Y214.701 E.28154
G1 X229.248 Y214.701 E.01688
G1 X236.103 Y207.845 E.3054
G1 X236.103 Y207.309 E.01688
G1 X228.712 Y214.701 E.32927
G1 X228.176 Y214.701 E.01688
G1 X236.103 Y206.774 E.35313
G1 X236.103 Y206.238 E.01688
G1 X227.64 Y214.701 E.377
G1 X227.105 Y214.701 E.01688
G1 X236.103 Y205.702 E.40087
G1 X236.103 Y205.166 E.01688
G1 X226.569 Y214.701 E.42473
G1 X226.033 Y214.701 E.01688
G1 X236.103 Y204.631 E.4486
G1 X236.103 Y204.095 E.01688
G1 X225.497 Y214.701 E.47247
G1 X224.962 Y214.701 E.01688
G1 X236.103 Y203.559 E.49633
G1 X236.103 Y203.023 E.01688
G1 X224.426 Y214.701 E.5202
G1 X223.89 Y214.701 E.01688
G1 X236.103 Y202.488 E.54407
G1 X236.103 Y201.952 E.01688
G1 X223.354 Y214.701 E.56793
G1 X222.819 Y214.701 E.01688
G1 X236.103 Y201.416 E.5918
G1 X236.103 Y200.88 E.01688
G1 X222.283 Y214.701 E.61567
G1 X221.747 Y214.701 E.01688
G1 X236.103 Y200.345 E.63953
M73 P3 R14
G1 X236.103 Y199.971 E.01176
M73 P3 R14
G1 X235.941 Y199.971 E.00512
G1 X221.374 Y214.538 E.64892
G1 X221.374 Y214.002 E.01688
G1 X235.405 Y199.971 E.62505
G1 X234.869 Y199.971 E.01688
G1 X221.374 Y213.467 E.60118
G1 X221.374 Y212.931 E.01688
G1 X234.333 Y199.971 E.57732
G1 X233.798 Y199.971 E.01688
G1 X221.374 Y212.395 E.55345
G1 X221.374 Y211.859 E.01688
G1 X233.262 Y199.971 E.52959
G1 X232.726 Y199.971 E.01688
G1 X221.374 Y211.324 E.50572
G1 X221.374 Y210.788 E.01688
G1 X232.19 Y199.971 E.48185
G1 X231.655 Y199.971 E.01688
G1 X221.374 Y210.252 E.45799
G1 X221.374 Y209.716 E.01688
G1 X231.119 Y199.971 E.43412
G1 X230.583 Y199.971 E.01688
G1 X221.374 Y209.181 E.41025
G1 X221.374 Y208.645 E.01688
G1 X230.047 Y199.971 E.38639
G1 X229.512 Y199.971 E.01688
G1 X221.374 Y208.109 E.36252
G1 X221.374 Y207.573 E.01688
G1 X228.976 Y199.971 E.33865
G1 X228.44 Y199.971 E.01688
G1 X221.374 Y207.038 E.31479
G1 X221.374 Y206.502 E.01688
G1 X227.904 Y199.971 E.29092
G1 X227.369 Y199.971 E.01688
G1 X221.374 Y205.966 E.26705
G1 X221.374 Y205.43 E.01688
G1 X226.833 Y199.971 E.24319
G1 X226.297 Y199.971 E.01688
G1 X221.374 Y204.895 E.21932
G1 X221.374 Y204.359 E.01688
G1 X225.761 Y199.971 E.19546
G1 X225.226 Y199.971 E.01688
G1 X221.374 Y203.823 E.17159
G1 X221.374 Y203.287 E.01688
G1 X224.69 Y199.971 E.14772
G1 X224.154 Y199.971 E.01688
G1 X221.374 Y202.752 E.12386
G1 X221.374 Y202.216 E.01688
G1 X223.618 Y199.971 E.09999
G1 X223.083 Y199.971 E.01688
G1 X221.374 Y201.68 E.07612
G1 X221.374 Y201.144 E.01688
G1 X222.547 Y199.971 E.05226
G1 X222.011 Y199.971 E.01688
G1 X221.204 Y200.778 E.03595
SET_VELOCITY_LIMIT ACCEL=10000 ACCEL_TO_DECEL=5000
G1 X221.469 Y199.998 F45000
SET_VELOCITY_LIMIT ACCEL=6000 ACCEL_TO_DECEL=3000
;WIDTH:0.442592
G1 F7727
G1 X221.394 Y200.041 E.00288
G1 X221.474 Y200.076 E.00289
; stop printing object Calibration Cube.stl id:0 copy 0
;LAYER_CHANGE
;Z:0.6
;HEIGHT:0.2
;BEFORE_LAYER_CHANGE
;0.6
G92 E0

OFFSET_T1
M117 SET FILAMENT SENSOR OFF 
SET_FILAMENT_SENSOR SENSOR=encoder_t1 ENABLE=0

M117 LAYER 0.6
G1 E-.3653 F1800
;WIPE_START
G1 F9007.386
G1 X221.394 Y200.041 E-.01741
G1 X221.469 Y199.998 E-.01729
;WIPE_END
EXCLUDE_OBJECT_END NAME=Calibration_Cube.stl_id_0_copy_0
;AFTER_LAYER_CHANGE
;0.6
;AFTER_LAYER_CHANGE
;0.6

OFFSET_T1
M117 SET FILAMENT SENSOR OFF 
SET_FILAMENT_SENSOR SENSOR=encoder_t1 ENABLE=0

;_SET_FAN_SPEED_CHANGING_LAYER
SET_VELOCITY_LIMIT ACCEL=10000 ACCEL_TO_DECEL=5000
G1 Z1 F45000
G1 X221.469 Y196.607 Z1
G1 Z.6
G1 E.4 F1800
SET_VELOCITY_LIMIT ACCEL=6000 ACCEL_TO_DECEL=3000
;Change extrusion role G-code

OFFSET_T1
M117 SET FILAMENT SENSOR OFF 
SET_FILAMENT_SENSOR SENSOR=encoder_t1 ENABLE=0


;TYPE:Skirt
;WIDTH:0.5
G1 F3000
G1 X236.739 Y196.607 E.58034
G1 X238.314 Y197.26 E.06483
G1 X238.814 Y197.76 E.02687
G1 X239.467 Y199.336 E.06483
G1 X239.467 Y215.336 E.6081
G1 X238.814 Y216.912 E.06483
G1 X238.314 Y217.412 E.02687
G1 X236.739 Y218.065 E.06483
G1 X220.739 Y218.065 E.6081
G1 X219.163 Y217.412 E.06483
G1 X218.663 Y216.912 E.02687
G1 X218.01 Y215.336 E.06483
G1 X218.01 Y199.336 E.6081
G1 X218.663 Y197.76 E.06483
G1 X219.163 Y197.26 E.02687
G1 X220.739 Y196.607 E.06483
G1 X221.429 Y196.607 E.02624
; printing object Calibration Cube.stl id:0 copy 0
SET_VELOCITY_LIMIT ACCEL=10000 ACCEL_TO_DECEL=5000
G1 E-.28 F1800
;WIPE_START
G1 F3000
G1 X222.429 Y196.607 E-.12
;WIPE_END
EXCLUDE_OBJECT_START NAME=Calibration_Cube.stl_id_0_copy_0
G1 Z1 F45000
G1 X236.636 Y215.087 Z1
G1 Z.6
G1 E.4 F1800
;Change extrusion role G-code

OFFSET_T1
M117 SET FILAMENT SENSOR OFF 
SET_FILAMENT_SENSOR SENSOR=encoder_t1 ENABLE=0


;TYPE:Inner wall
;WIDTH:0.45
G1 F8198
G1 X236.489 Y215.234 E.00705
G1 X220.988 Y215.234 E.5247
G1 X220.841 Y215.087 E.00705
G1 X220.841 Y199.585 E.5247
G1 X220.988 Y199.438 E.00705
G1 X236.489 Y199.438 E.5247
G1 X236.636 Y199.585 E.00705
G1 X236.636 Y215.047 E.52334
G1 X237.029 Y215.24 F45000
SET_VELOCITY_LIMIT ACCEL=5000 ACCEL_TO_DECEL=2500
;Change extrusion role G-code

OFFSET_T1
M117 SET FILAMENT SENSOR OFF 
SET_FILAMENT_SENSOR SENSOR=encoder_t1 ENABLE=0


;TYPE:Outer wall
;WIDTH:0.42
G1 F3600
G1 X237.029 Y215.249 E.00028
G1 X236.652 Y215.626 E.01672
G1 X220.826 Y215.626 E.49621
M73 P4 R14
G1 X220.449 Y215.249 E.01672
M73 P4 R14
G1 X220.449 Y199.423 E.49621
G1 X220.826 Y199.046 E.01672
G1 X236.652 Y199.046 E.49621
G1 X237.029 Y199.423 E.01672
