; HEADER_BLOCK_START
; generated by OrcaSlicer 2.2.0 on 2024-12-14 at 08:05:14
; total layer number: 100
; filament_density: 1.24,1.24,1.24,1.24,1.24
; filament_diameter: 1.75,1.75,1.75,1.75,1.75
; max_z_height: 20.00
; HEADER_BLOCK_END

; THUMBNAIL_BLOCK_START

;
; THUMBNAIL_BLOCK_END

; THUMBNAIL_BLOCK_START

;
; THUMBNAIL_BLOCK_END

; external perimeters extrusion width = 0.40mm
; perimeters extrusion width = 0.44mm
; infill extrusion width = 0.44mm
; solid infill extrusion width = 0.48mm
; top infill extrusion width = 0.38mm
; first layer extrusion width = 0.48mm

; EXECUTABLE_BLOCK_START
EXCLUDE_OBJECT_DEFINE NAME=Calibration_Cube.stl_id_0_copy_0 CENTER=185.881,178.632 POLYGON=[[175.881,170.632],[177.881,168.632],[193.881,168.632],[195.881,170.632],[195.881,186.632],[193.881,188.632],[177.881,188.632],[175.881,186.632],[175.881,170.632]]
M73 P0 R15
;TYPE:Custom
;START
M140 S60         ; set bed final temp
M190 S60         ; wait for bed final temp






G90
G21
M83 ; use relative distances for extrusion
; filament start gcode
T0
M106 S0
;LAYER_CHANGE
;Z:0.2
;HEIGHT:0.2
;BEFORE_LAYER_CHANGE
;0.2
G92 E0

OFFSET_T0

M117 LAYER 0.2
G1 E-.8 F1800
;AFTER_LAYER_CHANGE
;0.2
;AFTER_LAYER_CHANGE
;0.2

OFFSET_T0

;_SET_FAN_SPEED_CHANGING_LAYER
SET_VELOCITY_LIMIT ACCEL=500 ACCEL_TO_DECEL=250
G1 Z.6 F21000
G1 X175.444 Y168.195
G1 Z.6
G1 Z.2
G1 E.8 F1800
;Change extrusion role G-code

OFFSET_T0


;TYPE:Skirt
;WIDTH:0.48
G1 F3000
G1 X175.694 Y167.945 E.01259
G1 X177.04 Y167.156 E.05557
G1 X177.881 Y167.039 E.03024
G1 X193.881 Y167.039 E.56986
G1 X195.391 Y167.433 E.05557
G1 X196.068 Y167.945 E.03024
G1 X196.568 Y168.445 E.02518
G1 X197.357 Y169.791 E.05557
G1 X197.474 Y170.632 E.03024
G1 X197.474 Y186.632 E.56986
G1 X197.08 Y188.141 E.05557
G1 X196.568 Y188.819 E.03024
G1 X196.068 Y189.319 E.02518
G1 X194.722 Y190.108 E.05557
G1 X193.881 Y190.224 E.03024
G1 X177.881 Y190.224 E.56986
G1 X176.371 Y189.831 E.05557
G1 X175.694 Y189.319 E.03024
G1 X175.194 Y188.819 E.02518
G1 X174.405 Y187.473 E.05557
G1 X174.288 Y186.632 E.03024
G1 X174.288 Y170.632 E.56986
G1 X174.682 Y169.122 E.05557
G1 X175.194 Y168.445 E.03024
G1 X175.416 Y168.223 E.01117
G1 X175.725 Y168.532 F21000
G1 F3000
G1 X176.003 Y168.254 E.01402
G1 X177.881 Y167.476 E.07239
G1 X193.881 Y167.476 E.56986
G1 X195.759 Y168.254 E.07239
G1 X196.259 Y168.754 E.02518
G1 X197.036 Y170.632 E.07239
G1 X197.036 Y186.632 E.56986
G1 X196.259 Y188.509 E.07239
G1 X195.759 Y189.009 E.02518
G1 X193.881 Y189.787 E.07239
G1 X177.881 Y189.787 E.56986
G1 X176.003 Y189.009 E.07239
G1 X175.503 Y188.509 E.02518
G1 X174.725 Y186.632 E.07239
G1 X174.725 Y170.632 E.56986
G1 X175.503 Y168.754 E.07239
G1 X175.696 Y168.56 E.00974
G1 X176.006 Y168.869 F21000
G1 F3000
G1 X176.312 Y168.563 E.01544
G1 X177.881 Y167.913 E.06048
G1 X193.881 Y167.913 E.56986
G1 X195.45 Y168.563 E.06048
G1 X195.95 Y169.063 E.02518
G1 X196.599 Y170.632 E.06048
G1 X196.599 Y186.632 E.56986
G1 X195.95 Y188.2 E.06048
G1 X195.45 Y188.7 E.02518
G1 X193.881 Y189.35 E.06048
G1 X177.881 Y189.35 E.56986
G1 X176.312 Y188.7 E.06048
G1 X175.812 Y188.2 E.02518
G1 X175.162 Y186.632 E.06048
G1 X175.162 Y170.632 E.56986
G1 X175.812 Y169.063 E.06048
G1 X175.977 Y168.898 E.00832
; printing object Calibration Cube.stl id:0 copy 0
G1 E-.56 F1800
;WIPE_START
G1 F3000
G1 X176.312 Y168.563 E-.11365
G1 X176.798 Y168.361 E-.12635
;WIPE_END
EXCLUDE_OBJECT_START NAME=Calibration_Cube.stl_id_0_copy_0
G1 Z.6 F21000
G1 X192.867 Y171.646 Z.6
G1 Z.2
G1 E.8 F1800
;Change extrusion role G-code

OFFSET_T0


;TYPE:Inner wall
;WIDTH:0.479999
G1 F3000
G1 X192.867 Y185.618 E.49762
G1 X178.895 Y185.618 E.49762
G1 X178.895 Y171.646 E.49762
G1 X192.827 Y171.646 E.4962
M73 P1 R15
G1 X193.304 Y171.209 F21000
M73 P1 R15
G1 F3000
G1 X193.304 Y186.055 E.52876
G1 X178.458 Y186.055 E.52876
G1 X178.458 Y171.209 E.52876
G1 X193.264 Y171.209 E.52733
G1 X193.741 Y170.772 F21000
;Change extrusion role G-code

OFFSET_T0


;TYPE:Outer wall
G1 F3000
G1 X193.741 Y186.492 E.55989
G1 X178.021 Y186.492 E.55989
G1 X178.021 Y170.772 E.55989
G1 X193.701 Y170.772 E.55847
G1 E-.56 F1800
;WIPE_START
G1 F3000
G1 X193.703 Y171.772 E-.24
;WIPE_END
G1 Z.6 F21000
G1 X191.841 Y171.777 Z.6
G1 Z.2
G1 E.8 F1800
;Change extrusion role G-code

OFFSET_T0


;TYPE:Bottom surface
;WIDTH:0.484962
G1 F6300
G1 X192.539 Y172.474 E.03553
G1 X192.539 Y173.099 E.02252
G1 X191.413 Y171.974 E.05735
G1 X190.788 Y171.974 E.02252
G1 X192.539 Y173.725 E.0892
G1 X192.539 Y174.35 E.02252
G1 X190.163 Y171.974 E.12104
G1 X189.538 Y171.974 E.02252
G1 X192.539 Y174.975 E.15289
G1 X192.539 Y175.6 E.02252
G1 X188.912 Y171.974 E.18473
G1 X188.287 Y171.974 E.02252
G1 X192.539 Y176.225 E.21658
G1 X192.539 Y176.85 E.02252
G1 X187.662 Y171.974 E.24842
G1 X187.037 Y171.974 E.02252
G1 X192.539 Y177.475 E.28027
G1 X192.539 Y178.101 E.02252
G1 X186.412 Y171.974 E.31212
G1 X185.787 Y171.974 E.02252
G1 X192.539 Y178.726 E.34396
G1 X192.539 Y179.351 E.02252
G1 X185.162 Y171.974 E.37581
G1 X184.536 Y171.974 E.02252
G1 X192.539 Y179.976 E.40765
G1 X192.539 Y180.601 E.02252
G1 X183.911 Y171.974 E.4395
G1 X183.286 Y171.974 E.02252
G1 X192.539 Y181.226 E.47134
G1 X192.539 Y181.851 E.02252
G1 X182.661 Y171.974 E.50319
G1 X182.036 Y171.974 E.02252
G1 X192.539 Y182.477 E.53503
G1 X192.539 Y183.102 E.02252
G1 X181.411 Y171.974 E.56688
G1 X180.786 Y171.974 E.02252
G1 X192.539 Y183.727 E.59872
G1 X192.539 Y184.352 E.02252
G1 X180.16 Y171.974 E.63057
G1 X179.535 Y171.974 E.02252
G1 X192.539 Y184.977 E.66242
G1 X192.539 Y185.29 E.01126
G1 X192.226 Y185.29 E.01126
G1 X179.223 Y172.286 E.66241
M73 P2 R15
G1 X179.223 Y172.911 E.02252
M73 P2 R15
G1 X191.601 Y185.29 E.63057
G1 X190.976 Y185.29 E.02252
G1 X179.223 Y173.537 E.59872
G1 X179.223 Y174.162 E.02252
G1 X190.351 Y185.29 E.56687
G1 X189.726 Y185.29 E.02252
G1 X179.223 Y174.787 E.53503
G1 X179.223 Y175.412 E.02252
G1 X189.101 Y185.29 E.50318
G1 X188.475 Y185.29 E.02252
G1 X179.223 Y176.037 E.47134
G1 X179.223 Y176.662 E.02252
G1 X187.85 Y185.29 E.43949
G1 X187.225 Y185.29 E.02252
G1 X179.223 Y177.287 E.40765
G1 X179.223 Y177.913 E.02252
G1 X186.6 Y185.29 E.3758
G1 X185.975 Y185.29 E.02252
G1 X179.223 Y178.538 E.34396
G1 X179.223 Y179.163 E.02252
G1 X185.35 Y185.29 E.31211
G1 X184.725 Y185.29 E.02252
G1 X179.223 Y179.788 E.28027
G1 X179.223 Y180.413 E.02252
G1 X184.099 Y185.29 E.24842
G1 X183.474 Y185.29 E.02252
G1 X179.223 Y181.038 E.21657
G1 X179.223 Y181.663 E.02252
G1 X182.849 Y185.29 E.18473
G1 X182.224 Y185.29 E.02252
G1 X179.223 Y182.289 E.15288
G1 X179.223 Y182.914 E.02252
G1 X181.599 Y185.29 E.12104
G1 X180.974 Y185.29 E.02252
G1 X179.223 Y183.539 E.08919
G1 X179.223 Y184.164 E.02252
G1 X180.349 Y185.29 E.05735
G1 X179.723 Y185.29 E.02252
G1 X179.026 Y184.592 E.03552
; stop printing object Calibration Cube.stl id:0 copy 0
M106 S255
;LAYER_CHANGE
;Z:0.4
;HEIGHT:0.2
;BEFORE_LAYER_CHANGE
;0.4
G92 E0

OFFSET_T0

M117 LAYER 0.4
G1 E-.56 F1800
;WIPE_START
G1 F6300
G1 X179.723 Y185.29 E-.23667
G1 X179.737 Y185.29 E-.00333
;WIPE_END
EXCLUDE_OBJECT_END NAME=Calibration_Cube.stl_id_0_copy_0
;AFTER_LAYER_CHANGE
;0.4
;AFTER_LAYER_CHANGE
;0.4

OFFSET_T0

;_SET_FAN_SPEED_CHANGING_LAYER
SET_VELOCITY_LIMIT ACCEL=5000 ACCEL_TO_DECEL=2500
M104 S205 ; set nozzle temperature
M140 S60 ; set bed temperature
SET_VELOCITY_LIMIT ACCEL=7000 ACCEL_TO_DECEL=3500
G1 Z.8 F21000
G1 X179.737 Y189.35 Z.8
G1 Z.4
G1 E.8 F1800
SET_VELOCITY_LIMIT ACCEL=5000 ACCEL_TO_DECEL=2500
;Change extrusion role G-code

OFFSET_T0


;TYPE:Skirt
;WIDTH:0.48
G1 F3000
G1 X193.881 Y189.35 E.50374
G1 X195.45 Y188.7 E.06048
G1 X195.95 Y188.2 E.02518
G1 X196.599 Y186.632 E.06048
G1 X196.599 Y170.632 E.56986
G1 X195.95 Y169.063 E.06048
G1 X195.45 Y168.563 E.02518
G1 X193.881 Y167.913 E.06048
G1 X177.881 Y167.913 E.56986
G1 X176.312 Y168.563 E.06048
G1 X175.812 Y169.063 E.02518
G1 X175.162 Y170.632 E.06048
G1 X175.162 Y186.632 E.56986
G1 X175.812 Y188.2 E.06048
G1 X176.312 Y188.7 E.02518
G1 X177.881 Y189.35 E.06048
G1 X179.697 Y189.35 E.0647
; printing object Calibration Cube.stl id:0 copy 0
SET_VELOCITY_LIMIT ACCEL=7000 ACCEL_TO_DECEL=3500
G1 E-.56 F1800
;WIPE_START
G1 F3000
G1 X180.697 Y189.35 E-.24
;WIPE_END
EXCLUDE_OBJECT_START NAME=Calibration_Cube.stl_id_0_copy_0
G1 Z.8 F21000
G1 X193.207 Y171.306 Z.8
G1 Z.4
G1 E.8 F1800
SET_VELOCITY_LIMIT ACCEL=5000 ACCEL_TO_DECEL=2500
;Change extrusion role G-code

OFFSET_T0


;TYPE:Inner wall
;WIDTH:0.439999
G1 F7555.171
G1 X193.207 Y185.958 E.47408
G1 X178.555 Y185.958 E.47408
G1 X178.555 Y171.306 E.47408
G1 X193.167 Y171.306 E.47279
SET_VELOCITY_LIMIT ACCEL=7000 ACCEL_TO_DECEL=3500
G1 X193.604 Y170.909 F21000
SET_VELOCITY_LIMIT ACCEL=5000 ACCEL_TO_DECEL=2500
G1 F7555.171
G1 X193.604 Y186.355 E.49978
G1 X178.158 Y186.355 E.49978
G1 X178.158 Y170.909 E.49978
G1 X193.564 Y170.909 E.49849
SET_VELOCITY_LIMIT ACCEL=7000 ACCEL_TO_DECEL=3500
G1 X193.798 Y170.532 F21000
SET_VELOCITY_LIMIT ACCEL=3000 ACCEL_TO_DECEL=1500
;Change extrusion role G-code

OFFSET_T0


;TYPE:Outer wall
;WIDTH:0.399999
G1 F3000
G1 X193.981 Y170.715 E.00753
G1 X193.981 Y186.549 E.46073
G1 X193.798 Y186.732 E.00753
G1 X177.964 Y186.732 E.46073
M73 P3 R15
G1 X177.781 Y186.549 E.00753
M73 P3 R15
G1 X177.781 Y170.715 E.46073
G1 X177.964 Y170.532 E.00753
G1 X193.758 Y170.532 E.45956
SET_VELOCITY_LIMIT ACCEL=7000 ACCEL_TO_DECEL=3500
G1 E-.56 F1800
;WIPE_START
G1 F3000
G1 X193.981 Y170.715 E-.06918
G1 X193.981 Y171.426 E-.17082
;WIPE_END
G1 Z.8 F21000
G1 X193.086 Y184.85 Z.8
G1 Z.4
G1 E.8 F1800
SET_VELOCITY_LIMIT ACCEL=5000 ACCEL_TO_DECEL=2500
;Change extrusion role G-code

OFFSET_T0


;TYPE:Internal solid infill
;WIDTH:0.481986
G1 F6832.685
M106 S255
G1 X192.296 Y185.64 E.03997
G1 X191.675 Y185.64 E.02222
G1 X192.889 Y184.425 E.06144
G1 X192.889 Y183.805 E.02222
G1 X191.054 Y185.64 E.09286
G1 X190.433 Y185.64 E.02222
G1 X192.889 Y183.184 E.12428
G1 X192.889 Y182.563 E.02222
G1 X189.812 Y185.64 E.15569
G1 X189.191 Y185.64 E.02222
G1 X192.889 Y181.942 E.18711
G1 X192.889 Y181.321 E.02222
G1 X188.57 Y185.64 E.21853
G1 X187.949 Y185.64 E.02222
G1 X192.889 Y180.7 E.24995
G1 X192.889 Y180.079 E.02222
G1 X187.328 Y185.64 E.28137
G1 X186.707 Y185.64 E.02222
G1 X192.889 Y179.458 E.31278
G1 X192.889 Y178.837 E.02222
G1 X186.086 Y185.64 E.3442
G1 X185.465 Y185.64 E.02222
G1 X192.889 Y178.216 E.37562
G1 X192.889 Y177.595 E.02222
G1 X184.844 Y185.64 E.40704
G1 X184.223 Y185.64 E.02222
G1 X192.889 Y176.974 E.43846
G1 X192.889 Y176.353 E.02222
G1 X183.602 Y185.64 E.46987
G1 X182.982 Y185.64 E.02222
G1 X192.889 Y175.732 E.50129
G1 X192.889 Y175.111 E.02222
G1 X182.361 Y185.64 E.53271
G1 X181.74 Y185.64 E.02222
G1 X192.889 Y174.491 E.56413
G1 X192.889 Y173.87 E.02222
G1 X181.119 Y185.64 E.59555
G1 X180.498 Y185.64 E.02222
G1 X192.889 Y173.249 E.62697
G1 X192.889 Y172.628 E.02222
G1 X179.877 Y185.64 E.65838
G1 X179.256 Y185.64 E.02222
G1 X192.889 Y172.007 E.6898
G1 X192.889 Y171.624 E.01371
G1 X192.651 Y171.624 E.00851
G1 X178.873 Y185.402 E.69716
G1 X178.873 Y184.781 E.02222
G1 X192.03 Y171.624 E.66574
G1 X191.409 Y171.624 E.02222
G1 X178.873 Y184.16 E.63432
G1 X178.873 Y183.539 E.02222
G1 X190.788 Y171.624 E.6029
G1 X190.167 Y171.624 E.02222
G1 X178.873 Y182.918 E.57148
G1 X178.873 Y182.297 E.02222
G1 X189.546 Y171.624 E.54007
G1 X188.926 Y171.624 E.02222
G1 X178.873 Y181.676 E.50865
G1 X178.873 Y181.055 E.02222
G1 X188.305 Y171.624 E.47723
G1 X187.684 Y171.624 E.02222
G1 X178.873 Y180.434 E.44581
G1 X178.873 Y179.814 E.02222
G1 X187.063 Y171.624 E.41439
G1 X186.442 Y171.624 E.02222
G1 X178.873 Y179.193 E.38298
G1 X178.873 Y178.572 E.02222
G1 X185.821 Y171.624 E.35156
G1 X185.2 Y171.624 E.02222
G1 X178.873 Y177.951 E.32014
G1 X178.873 Y177.33 E.02222
G1 X184.579 Y171.624 E.28872
G1 X183.958 Y171.624 E.02222
G1 X178.873 Y176.709 E.2573
G1 X178.873 Y176.088 E.02222
G1 X183.337 Y171.624 E.22588
G1 X182.716 Y171.624 E.02222
G1 X178.873 Y175.467 E.19447
G1 X178.873 Y174.846 E.02222
G1 X182.095 Y171.624 E.16305
G1 X181.474 Y171.624 E.02222
G1 X178.873 Y174.225 E.13163
G1 X178.873 Y173.604 E.02222
G1 X180.853 Y171.624 E.10021
G1 X180.232 Y171.624 E.02222
G1 X178.873 Y172.983 E.06879
G1 X178.873 Y172.362 E.02222
G1 X179.808 Y171.427 E.04733
SET_VELOCITY_LIMIT ACCEL=7000 ACCEL_TO_DECEL=3500
G1 X178.994 Y171.672 F21000
SET_VELOCITY_LIMIT ACCEL=5000 ACCEL_TO_DECEL=2500
;WIDTH:0.469754
G1 F7028.493
G1 X178.94 Y171.672 E.00186
G1 X178.914 Y171.718 E.00186
G1 X178.94 Y171.764 E.00186
G1 X179 Y171.752 E.00213
SET_VELOCITY_LIMIT ACCEL=7000 ACCEL_TO_DECEL=3500
G1 X192.859 Y185.551 F21000
SET_VELOCITY_LIMIT ACCEL=5000 ACCEL_TO_DECEL=2500
;WIDTH:0.384528
G1 F8781.996
G1 X192.795 Y185.588 E.00206
G1 X192.86 Y185.623 E.00206
; stop printing object Calibration Cube.stl id:0 copy 0
;LAYER_CHANGE
;Z:0.6
;HEIGHT:0.2
;BEFORE_LAYER_CHANGE
;0.6
G92 E0

OFFSET_T0

M117 LAYER 0.6
G1 E-.76967 F1800
;WIPE_START
G1 F8781.996
G1 X192.795 Y185.588 E-.01517
G1 X192.859 Y185.551 E-.01516
;WIPE_END
EXCLUDE_OBJECT_END NAME=Calibration_Cube.stl_id_0_copy_0
;AFTER_LAYER_CHANGE
;0.6
;AFTER_LAYER_CHANGE
;0.6

OFFSET_T0

;_SET_FAN_SPEED_CHANGING_LAYER
SET_VELOCITY_LIMIT ACCEL=7000 ACCEL_TO_DECEL=3500
G1 Z1 F21000
G1 X196.599 Y185.551 Z1
G1 Z.6
G1 E.8 F1800
SET_VELOCITY_LIMIT ACCEL=5000 ACCEL_TO_DECEL=2500
;Change extrusion role G-code

OFFSET_T0


;TYPE:Skirt
;WIDTH:0.48
G1 F3000
G1 X196.599 Y186.632 E.03848
G1 X195.95 Y188.2 E.06048
G1 X195.45 Y188.7 E.02518
G1 X193.881 Y189.35 E.06048
G1 X177.881 Y189.35 E.56986
G1 X176.312 Y188.7 E.06048
G1 X175.812 Y188.2 E.02518
G1 X175.162 Y186.632 E.06048
G1 X175.162 Y170.632 E.56986
G1 X175.812 Y169.063 E.06048
G1 X176.312 Y168.563 E.02518
G1 X177.881 Y167.913 E.06048
G1 X193.881 Y167.913 E.56986
G1 X195.45 Y168.563 E.06048
G1 X195.95 Y169.063 E.02518
G1 X196.599 Y170.632 E.06048
G1 X196.599 Y185.511 E.52996
; printing object Calibration Cube.stl id:0 copy 0
SET_VELOCITY_LIMIT ACCEL=7000 ACCEL_TO_DECEL=3500
G1 E-.56 F1800
;WIPE_START
G1 F3000
G1 X196.599 Y186.511 E-.24
;WIPE_END
EXCLUDE_OBJECT_START NAME=Calibration_Cube.stl_id_0_copy_0
G1 Z1 F21000
G1 X193.407 Y171.106 Z1
G1 Z.6
G1 E.8 F1800
SET_VELOCITY_LIMIT ACCEL=5000 ACCEL_TO_DECEL=2500
;Change extrusion role G-code

OFFSET_T0


;TYPE:Inner wall
;WIDTH:0.439999
G1 F7555.171
G1 X193.407 Y186.158 E.48703
G1 X178.355 Y186.158 E.48703
G1 X178.355 Y171.106 E.48703
M73 P4 R15
G1 X193.367 Y171.106 E.48573
M73 P4 R15
SET_VELOCITY_LIMIT ACCEL=7000 ACCEL_TO_DECEL=3500
G1 X193.642 Y170.709 F21000
SET_VELOCITY_LIMIT ACCEL=5000 ACCEL_TO_DECEL=2500
G1 F7555.171
G1 X193.804 Y170.871 E.00741
G1 X193.804 Y186.393 E.50224
G1 X193.642 Y186.555 E.00741
G1 X178.12 Y186.555 E.50224
G1 X177.958 Y186.393 E.00741
G1 X177.958 Y170.871 E.50224
G1 X178.12 Y170.709 E.00741
G1 X193.602 Y170.709 E.50095
SET_VELOCITY_LIMIT ACCEL=7000 ACCEL_TO_DECEL=3500
G1 X193.794 Y170.332 F21000
SET_VELOCITY_LIMIT ACCEL=3000 ACCEL_TO_DECEL=1500
;Change extrusion role G-code

OFFSET_T0


;TYPE:Outer wall
;WIDTH:0.399999
G1 F3000
G1 X193.798 Y170.332 E.00012
G1 X194.181 Y170.715 E.01576
G1 X194.181 Y186.549 E.46073
G1 X193.798 Y186.932 E.01576
G1 X177.964 Y186.932 E.46073
G1 X177.581 Y186.549 E.01576
G1 X177.581 Y170.715 E.46073
G1 X177.964 Y170.332 E.01576
G1 X193.754 Y170.332 E.45945
SET_VELOCITY_LIMIT ACCEL=7000 ACCEL_TO_DECEL=3500
G1 E-.56 F1800
;WIPE_START
G1 F3000
G1 X193.798 Y170.332 E-.0105
G1 X194.181 Y170.715 E-.12994
G1 X194.181 Y171.129 E-.09956
;WIPE_END
G1 Z1 F21000
G1 X193.012 Y171.48 Z1
G1 Z.6
G1 E.8 F1800
SET_VELOCITY_LIMIT ACCEL=5000 ACCEL_TO_DECEL=2500
;Change extrusion role G-code

OFFSET_T0


;TYPE:Internal solid infill
;WIDTH:0.491068
G1 F6694.217
M106 S255
G1 X192.956 Y171.48 E.00205
G1 X192.928 Y171.528 E.00205
G1 X192.956 Y171.577 E.00205
G1 X193.02 Y171.563 E.00239
SET_VELOCITY_LIMIT ACCEL=7000 ACCEL_TO_DECEL=3500
G1 X192.117 Y171.227 F21000
SET_VELOCITY_LIMIT ACCEL=5000 ACCEL_TO_DECEL=2500
;WIDTH:0.481941
G1 F6833.386
G1 X193.089 Y172.199 E.04917
G1 X193.089 Y172.82 E.02221
G1 X191.693 Y171.424 E.07063
G1 X191.072 Y171.424 E.02221
G1 X193.089 Y173.441 E.10204
G1 X193.089 Y174.061 E.02221
