; HEADER_BLOCK_START
; generated by OrcaSlicer 2.2.0 on 2024-12-14 at 10:14:47
; total layer number: 100
; filament_density: 1.27,1.24,1.24,1.24,1.24
; filament_diameter: 1.75,1.75,1.75,1.75,1.75
; max_z_height: 20.00
; HEADER_BLOCK_END

; THUMBNAIL_BLOCK_START

;
; THUMBNAIL_BLOCK_END

; THUMBNAIL_BLOCK_START

;
; THUMBNAIL_BLOCK_END

; external perimeters extrusion width = 0.40mm
; perimeters extrusion width = 0.44mm
; infill extrusion width = 0.44mm
; solid infill extrusion width = 0.48mm
; top infill extrusion width = 0.38mm
; first layer extrusion width = 0.48mm

; EXECUTABLE_BLOCK_START
EXCLUDE_OBJECT_DEFINE NAME=Calibration_Cube.stl_id_0_copy_0 CENTER=121.054,153.981 POLYGON=[[111.054,145.981],[113.054,143.981],[129.054,143.981],[131.054,145.981],[131.054,161.981],[129.054,163.981],[113.054,163.981],[111.054,161.981],[111.054,145.981]]
M73 P0 R15
;TYPE:Custom
;START
M140 S35         ; set bed final temp
M190 S35         ; wait for bed final temp






G90
G21
M83 ; use relative distances for extrusion
; TESTING
T1



OFFSET_T1
M117 SET FILAMENT SENSOR OFF 
SET_FILAMENT_SENSOR SENSOR=encoder_t1 ENABLE=0
;_FORCE_RESUME_FAN_SPEED
; filament start gcode
M109 S230 T1 ; set nozzle temperature and wait for it to be reached
M106 S0
;LAYER_CHANGE
;Z:0.2
;HEIGHT:0.2
;BEFORE_LAYER_CHANGE
;0.2
G92 E0

OFFSET_T1
M117 SET FILAMENT SENSOR OFF 
SET_FILAMENT_SENSOR SENSOR=encoder_t1 ENABLE=0

M117 LAYER 0.2
G1 E-.4 F1800
;AFTER_LAYER_CHANGE
;0.2
;AFTER_LAYER_CHANGE
;0.2

OFFSET_T1
M117 SET FILAMENT SENSOR OFF 
SET_FILAMENT_SENSOR SENSOR=encoder_t1 ENABLE=0

;_SET_FAN_SPEED_CHANGING_LAYER
SET_VELOCITY_LIMIT ACCEL=500 ACCEL_TO_DECEL=250
G1 Z.6 F21000
G1 X110.617 Y143.544
G1 Z.6
G1 Z.2
G1 E.4 F1800
;Change extrusion role G-code

OFFSET_T1
M117 SET FILAMENT SENSOR OFF 
SET_FILAMENT_SENSOR SENSOR=encoder_t1 ENABLE=0


;TYPE:Skirt
;WIDTH:0.48
G1 F3000
G1 X110.867 Y143.294 E.01285
G1 X112.213 Y142.505 E.0567
G1 X113.054 Y142.388 E.03086
G1 X129.054 Y142.388 E.58149
G1 X130.564 Y142.782 E.0567
G1 X131.241 Y143.294 E.03086
G1 X131.741 Y143.794 E.0257
G1 X132.53 Y145.14 E.0567
G1 X132.646 Y145.981 E.03086
G1 X132.646 Y161.981 E.58149
G1 X132.253 Y163.491 E.0567
G1 X131.741 Y164.168 E.03086
G1 X131.241 Y164.668 E.0257
G1 X129.895 Y165.457 E.0567
G1 X129.054 Y165.574 E.03086
G1 X113.054 Y165.574 E.58149
G1 X111.544 Y165.18 E.0567
G1 X110.867 Y164.668 E.03086
G1 X110.367 Y164.168 E.0257
G1 X109.578 Y162.822 E.0567
G1 X109.461 Y161.981 E.03086
G1 X109.461 Y145.981 E.58149
G1 X109.855 Y144.471 E.0567
G1 X110.367 Y143.794 E.03086
G1 X110.589 Y143.572 E.0114
G1 X110.898 Y143.881 F21000
G1 F3000
G1 X111.176 Y143.603 E.0143
G1 X113.054 Y142.825 E.07387
G1 X129.054 Y142.825 E.58149
G1 X130.932 Y143.603 E.07387
G1 X131.432 Y144.103 E.0257
G1 X132.209 Y145.981 E.07387
G1 X132.209 Y161.981 E.58149
G1 X131.432 Y163.859 E.07387
G1 X130.932 Y164.359 E.0257
G1 X129.054 Y165.137 E.07387
G1 X113.054 Y165.137 E.58149
G1 X111.176 Y164.359 E.07387
G1 X110.676 Y163.859 E.0257
G1 X109.898 Y161.981 E.07387
G1 X109.898 Y145.981 E.58149
G1 X110.676 Y144.103 E.07387
G1 X110.869 Y143.91 E.00994
G1 X111.178 Y144.219 F21000
G1 F3000
G1 X111.485 Y143.912 E.01576
G1 X113.054 Y143.262 E.06171
G1 X129.054 Y143.262 E.58149
G1 X130.623 Y143.912 E.06171
G1 X131.123 Y144.412 E.0257
G1 X131.772 Y145.981 E.06171
G1 X131.772 Y161.981 E.58149
G1 X131.123 Y163.55 E.06171
G1 X130.623 Y164.05 E.0257
G1 X129.054 Y164.699 E.06171
G1 X113.054 Y164.699 E.58149
G1 X111.485 Y164.05 E.06171
G1 X110.985 Y163.55 E.0257
G1 X110.335 Y161.981 E.06171
G1 X110.335 Y145.981 E.58149
G1 X110.985 Y144.412 E.06171
G1 X111.15 Y144.247 E.00849
; printing object Calibration Cube.stl id:0 copy 0
G1 E-.28 F1800
;WIPE_START
G1 F3000
G1 X111.485 Y143.912 E-.05683
G1 X111.971 Y143.711 E-.06317
;WIPE_END
EXCLUDE_OBJECT_START NAME=Calibration_Cube.stl_id_0_copy_0
G1 Z.6 F21000
G1 X128.04 Y146.995 Z.6
G1 Z.2
G1 E.4 F1800
;Change extrusion role G-code

OFFSET_T1
M117 SET FILAMENT SENSOR OFF 
SET_FILAMENT_SENSOR SENSOR=encoder_t1 ENABLE=0


;TYPE:Inner wall
;WIDTH:0.479999
G1 F3000
G1 X128.04 Y160.967 E.50778
G1 X114.068 Y160.967 E.50778
G1 X114.068 Y146.995 E.50778
G1 X128 Y146.995 E.50632
M73 P1 R15
G1 X128.477 Y146.558 F21000
M73 P1 R15
G1 F3000
G1 X128.477 Y161.404 E.53955
G1 X113.631 Y161.404 E.53955
G1 X113.631 Y146.558 E.53955
G1 X128.437 Y146.558 E.53809
G1 X128.914 Y146.121 F21000
;Change extrusion role G-code

OFFSET_T1
M117 SET FILAMENT SENSOR OFF 
SET_FILAMENT_SENSOR SENSOR=encoder_t1 ENABLE=0


;TYPE:Outer wall
G1 F3000
G1 X128.914 Y161.841 E.57132
G1 X113.194 Y161.841 E.57132
G1 X113.194 Y146.121 E.57132
G1 X128.874 Y146.121 E.56986
G1 E-.28 F1800
;WIPE_START
G1 F3000
G1 X128.876 Y147.121 E-.12
;WIPE_END
G1 Z.6 F21000
G1 X127.014 Y147.126 Z.6
G1 Z.2
G1 E.4 F1800
;Change extrusion role G-code

OFFSET_T1
M117 SET FILAMENT SENSOR OFF 
SET_FILAMENT_SENSOR SENSOR=encoder_t1 ENABLE=0


;TYPE:Bottom surface
;WIDTH:0.484962
G1 F6300
G1 X127.712 Y147.824 E.03625
G1 X127.712 Y148.449 E.02298
G1 X126.586 Y147.323 E.05852
G1 X125.961 Y147.323 E.02298
G1 X127.712 Y149.074 E.09102
G1 X127.712 Y149.699 E.02298
G1 X125.336 Y147.323 E.12351
G1 X124.711 Y147.323 E.02298
G1 X127.712 Y150.324 E.15601
G1 X127.712 Y150.949 E.02298
G1 X124.085 Y147.323 E.1885
G1 X123.46 Y147.323 E.02298
G1 X127.712 Y151.574 E.221
G1 X127.712 Y152.2 E.02298
G1 X122.835 Y147.323 E.25349
G1 X122.21 Y147.323 E.02298
G1 X127.712 Y152.825 E.28599
G1 X127.712 Y153.45 E.02298
G1 X121.585 Y147.323 E.31849
G1 X120.96 Y147.323 E.02298
G1 X127.712 Y154.075 E.35098
G1 X127.712 Y154.7 E.02298
G1 X120.335 Y147.323 E.38348
G1 X119.709 Y147.323 E.02298
G1 X127.712 Y155.325 E.41597
G1 X127.712 Y155.95 E.02298
G1 X119.084 Y147.323 E.44847
G1 X118.459 Y147.323 E.02298
G1 X127.712 Y156.576 E.48096
G1 X127.712 Y157.201 E.02298
G1 X117.834 Y147.323 E.51346
G1 X117.209 Y147.323 E.02298
G1 X127.712 Y157.826 E.54595
G1 X127.712 Y158.451 E.02298
G1 X116.584 Y147.323 E.57845
G1 X115.959 Y147.323 E.02298
G1 X127.712 Y159.076 E.61094
G1 X127.712 Y159.701 E.02298
G1 X115.333 Y147.323 E.64344
G1 X114.708 Y147.323 E.02298
G1 X127.712 Y160.326 E.67593
G1 X127.712 Y160.639 E.01149
G1 X127.399 Y160.639 E.01149
G1 X114.396 Y147.636 E.67593
M73 P2 R15
G1 X114.396 Y148.261 E.02298
M73 P2 R15
G1 X126.774 Y160.639 E.64343
G1 X126.149 Y160.639 E.02298
G1 X114.396 Y148.886 E.61094
G1 X114.396 Y149.511 E.02298
G1 X125.524 Y160.639 E.57844
G1 X124.899 Y160.639 E.02298
G1 X114.396 Y150.136 E.54595
G1 X114.396 Y150.761 E.02298
G1 X124.274 Y160.639 E.51345
G1 X123.648 Y160.639 E.02298
G1 X114.396 Y151.386 E.48096
G1 X114.396 Y152.012 E.02298
G1 X123.023 Y160.639 E.44846
G1 X122.398 Y160.639 E.02298
G1 X114.396 Y152.637 E.41597
G1 X114.396 Y153.262 E.02298
G1 X121.773 Y160.639 E.38347
G1 X121.148 Y160.639 E.02298
G1 X114.396 Y153.887 E.35098
G1 X114.396 Y154.512 E.02298
G1 X120.523 Y160.639 E.31848
G1 X119.898 Y160.639 E.02298
G1 X114.396 Y155.137 E.28599
G1 X114.396 Y155.762 E.02298
G1 X119.272 Y160.639 E.25349
G1 X118.647 Y160.639 E.02298
G1 X114.396 Y156.388 E.22099
G1 X114.396 Y157.013 E.02298
G1 X118.022 Y160.639 E.1885
G1 X117.397 Y160.639 E.02298
G1 X114.396 Y157.638 E.156
G1 X114.396 Y158.263 E.02298
G1 X116.772 Y160.639 E.12351
G1 X116.147 Y160.639 E.02298
G1 X114.396 Y158.888 E.09101
G1 X114.396 Y159.513 E.02298
G1 X115.522 Y160.639 E.05852
G1 X114.896 Y160.639 E.02298
G1 X114.199 Y159.942 E.03625
; stop printing object Calibration Cube.stl id:0 copy 0
M106 S255
;LAYER_CHANGE
;Z:0.4
;HEIGHT:0.2
;BEFORE_LAYER_CHANGE
;0.4
G92 E0

OFFSET_T1
M117 SET FILAMENT SENSOR OFF 
SET_FILAMENT_SENSOR SENSOR=encoder_t1 ENABLE=0

M117 LAYER 0.4
G1 E-.28 F1800
;WIPE_START
G1 F6300
G1 X114.896 Y160.639 E-.11834
G1 X114.91 Y160.639 E-.00166
;WIPE_END
EXCLUDE_OBJECT_END NAME=Calibration_Cube.stl_id_0_copy_0
;AFTER_LAYER_CHANGE
;0.4
;AFTER_LAYER_CHANGE
;0.4

OFFSET_T1
M117 SET FILAMENT SENSOR OFF 
SET_FILAMENT_SENSOR SENSOR=encoder_t1 ENABLE=0

;_SET_FAN_SPEED_CHANGING_LAYER
SET_VELOCITY_LIMIT ACCEL=5000 ACCEL_TO_DECEL=2500
M140 S35 ; set bed temperature
SET_VELOCITY_LIMIT ACCEL=7000 ACCEL_TO_DECEL=3500
G1 Z.8 F21000
G1 X114.91 Y164.699 Z.8
G1 Z.4
G1 E.4 F1800
SET_VELOCITY_LIMIT ACCEL=5000 ACCEL_TO_DECEL=2500
;Change extrusion role G-code

OFFSET_T1
M117 SET FILAMENT SENSOR OFF 
SET_FILAMENT_SENSOR SENSOR=encoder_t1 ENABLE=0


;TYPE:Skirt
;WIDTH:0.48
G1 F3000
G1 X129.054 Y164.699 E.51402
G1 X130.623 Y164.05 E.06171
G1 X131.123 Y163.55 E.0257
G1 X131.772 Y161.981 E.06171
G1 X131.772 Y145.981 E.58149
G1 X131.123 Y144.412 E.06171
G1 X130.623 Y143.912 E.0257
G1 X129.054 Y143.262 E.06171
G1 X113.054 Y143.262 E.58149
G1 X111.485 Y143.912 E.06171
G1 X110.985 Y144.412 E.0257
G1 X110.335 Y145.981 E.06171
G1 X110.335 Y161.981 E.58149
G1 X110.985 Y163.55 E.06171
G1 X111.485 Y164.05 E.0257
G1 X113.054 Y164.699 E.06171
G1 X114.87 Y164.699 E.06602
; printing object Calibration Cube.stl id:0 copy 0
SET_VELOCITY_LIMIT ACCEL=7000 ACCEL_TO_DECEL=3500
G1 E-.28 F1800
;WIPE_START
G1 F3000
G1 X115.87 Y164.699 E-.12
;WIPE_END
EXCLUDE_OBJECT_START NAME=Calibration_Cube.stl_id_0_copy_0
G1 Z.8 F21000
G1 X128.38 Y146.655 Z.8
G1 Z.4
G1 E.4 F1800
SET_VELOCITY_LIMIT ACCEL=5000 ACCEL_TO_DECEL=2500
;Change extrusion role G-code

OFFSET_T1
M117 SET FILAMENT SENSOR OFF 
SET_FILAMENT_SENSOR SENSOR=encoder_t1 ENABLE=0


;TYPE:Inner wall
;WIDTH:0.439999
G1 F7482
G1 X128.38 Y161.307 E.48376
G1 X113.728 Y161.307 E.48376
G1 X113.728 Y146.655 E.48376
G1 X128.34 Y146.655 E.48244
SET_VELOCITY_LIMIT ACCEL=7000 ACCEL_TO_DECEL=3500
G1 X128.777 Y146.258 F21000
SET_VELOCITY_LIMIT ACCEL=5000 ACCEL_TO_DECEL=2500
G1 F7482
G1 X128.777 Y161.704 E.50998
G1 X113.331 Y161.704 E.50998
G1 X113.331 Y146.258 E.50998
G1 X128.737 Y146.258 E.50866
SET_VELOCITY_LIMIT ACCEL=7000 ACCEL_TO_DECEL=3500
G1 X128.971 Y145.881 F21000
SET_VELOCITY_LIMIT ACCEL=3000 ACCEL_TO_DECEL=1500
;Change extrusion role G-code

OFFSET_T1
M117 SET FILAMENT SENSOR OFF 
SET_FILAMENT_SENSOR SENSOR=encoder_t1 ENABLE=0


;TYPE:Outer wall
;WIDTH:0.399999
G1 F3000
G1 X129.154 Y146.064 E.00768
G1 X129.154 Y161.898 E.47013
G1 X128.971 Y162.081 E.00768
G1 X113.137 Y162.081 E.47013
G1 X112.954 Y161.898 E.00768
G1 X112.954 Y146.064 E.47013
M73 P3 R15
G1 X113.137 Y145.881 E.00768
M73 P3 R15
G1 X128.931 Y145.881 E.46894
SET_VELOCITY_LIMIT ACCEL=7000 ACCEL_TO_DECEL=3500
G1 E-.28 F1800
;WIPE_START
G1 F3000
G1 X129.154 Y146.064 E-.03459
G1 X129.154 Y146.776 E-.08541
;WIPE_END
G1 Z.8 F21000
G1 X128.259 Y160.199 Z.8
G1 Z.4
G1 E.4 F1800
SET_VELOCITY_LIMIT ACCEL=5000 ACCEL_TO_DECEL=2500
;Change extrusion role G-code

OFFSET_T1
M117 SET FILAMENT SENSOR OFF 
SET_FILAMENT_SENSOR SENSOR=encoder_t1 ENABLE=0


;TYPE:Internal solid infill
;WIDTH:0.481986
G1 F7482
G1 X127.468 Y160.989 E.04079
G1 X126.848 Y160.989 E.02267
G1 X128.062 Y159.775 E.06269
G1 X128.062 Y159.154 E.02267
G1 X126.227 Y160.989 E.09475
G1 X125.606 Y160.989 E.02267
G1 X128.062 Y158.533 E.12681
G1 X128.062 Y157.912 E.02267
G1 X124.985 Y160.989 E.15887
G1 X124.364 Y160.989 E.02267
G1 X128.062 Y157.291 E.19093
G1 X128.062 Y156.67 E.02267
G1 X123.743 Y160.989 E.22299
G1 X123.122 Y160.989 E.02267
G1 X128.062 Y156.049 E.25505
G1 X128.062 Y155.428 E.02267
G1 X122.501 Y160.989 E.28711
G1 X121.88 Y160.989 E.02267
G1 X128.062 Y154.807 E.31917
G1 X128.062 Y154.186 E.02267
G1 X121.259 Y160.989 E.35123
G1 X120.638 Y160.989 E.02267
G1 X128.062 Y153.565 E.38329
G1 X128.062 Y152.944 E.02267
G1 X120.017 Y160.989 E.41535
G1 X119.396 Y160.989 E.02267
G1 X128.062 Y152.324 E.4474
G1 X128.062 Y151.703 E.02267
G1 X118.775 Y160.989 E.47946
G1 X118.154 Y160.989 E.02267
G1 X128.062 Y151.082 E.51152
G1 X128.062 Y150.461 E.02267
G1 X117.534 Y160.989 E.54358
G1 X116.913 Y160.989 E.02267
G1 X128.062 Y149.84 E.57564
G1 X128.062 Y149.219 E.02267
G1 X116.292 Y160.989 E.6077
G1 X115.671 Y160.989 E.02267
G1 X128.062 Y148.598 E.63976
G1 X128.062 Y147.977 E.02267
G1 X115.05 Y160.989 E.67182
G1 X114.429 Y160.989 E.02267
G1 X128.062 Y147.356 E.70388
G1 X128.062 Y146.973 E.01399
G1 X127.824 Y146.973 E.00868
G1 X114.046 Y160.751 E.71138
G1 X114.046 Y160.13 E.02267
G1 X127.203 Y146.973 E.67932
G1 X126.582 Y146.973 E.02267
G1 X114.046 Y159.509 E.64727
G1 X114.046 Y158.888 E.02267
G1 X125.961 Y146.973 E.61521
G1 X125.34 Y146.973 E.02267
G1 X114.046 Y158.267 E.58315
G1 X114.046 Y157.647 E.02267
G1 X124.719 Y146.973 E.55109
G1 X124.098 Y146.973 E.02267
G1 X114.046 Y157.026 E.51903
G1 X114.046 Y156.405 E.02267
G1 X123.478 Y146.973 E.48697
G1 X122.857 Y146.973 E.02267
G1 X114.046 Y155.784 E.45491
G1 X114.046 Y155.163 E.02267
G1 X122.236 Y146.973 E.42285
G1 X121.615 Y146.973 E.02267
G1 X114.046 Y154.542 E.39079
G1 X114.046 Y153.921 E.02267
G1 X120.994 Y146.973 E.35873
G1 X120.373 Y146.973 E.02267
G1 X114.046 Y153.3 E.32667
G1 X114.046 Y152.679 E.02267
G1 X119.752 Y146.973 E.29461
G1 X119.131 Y146.973 E.02267
G1 X114.046 Y152.058 E.26255
G1 X114.046 Y151.437 E.02267
G1 X118.51 Y146.973 E.23049
G1 X117.889 Y146.973 E.02267
G1 X114.046 Y150.816 E.19844
G1 X114.046 Y150.195 E.02267
G1 X117.268 Y146.973 E.16638
G1 X116.647 Y146.973 E.02267
G1 X114.046 Y149.574 E.13432
G1 X114.046 Y148.953 E.02267
G1 X116.026 Y146.973 E.10226
G1 X115.405 Y146.973 E.02267
G1 X114.046 Y148.333 E.0702
G1 X114.046 Y147.712 E.02267
G1 X114.981 Y146.776 E.04829
SET_VELOCITY_LIMIT ACCEL=7000 ACCEL_TO_DECEL=3500
G1 X114.167 Y147.021 F21000
SET_VELOCITY_LIMIT ACCEL=5000 ACCEL_TO_DECEL=2500
;WIDTH:0.469754
G1 F7482
G1 X114.113 Y147.021 E.00189
G1 X114.087 Y147.067 E.00189
G1 X114.113 Y147.113 E.00189
G1 X114.173 Y147.102 E.00217
SET_VELOCITY_LIMIT ACCEL=7000 ACCEL_TO_DECEL=3500
G1 X128.032 Y160.9 F21000
SET_VELOCITY_LIMIT ACCEL=5000 ACCEL_TO_DECEL=2500
;WIDTH:0.384528
G1 F7482
G1 X127.968 Y160.937 E.0021
G1 X128.033 Y160.972 E.0021
; stop printing object Calibration Cube.stl id:0 copy 0
;LAYER_CHANGE
;Z:0.6
;HEIGHT:0.2
;BEFORE_LAYER_CHANGE
;0.6
G92 E0

OFFSET_T1
M117 SET FILAMENT SENSOR OFF 
SET_FILAMENT_SENSOR SENSOR=encoder_t1 ENABLE=0

M117 LAYER 0.6
G1 E-.37473 F1800
;WIPE_START
G1 F10538.395
G1 X127.968 Y160.937 E-.01264
G1 X128.032 Y160.9 E-.01263
;WIPE_END
EXCLUDE_OBJECT_END NAME=Calibration_Cube.stl_id_0_copy_0
;AFTER_LAYER_CHANGE
;0.6
;AFTER_LAYER_CHANGE
;0.6

OFFSET_T1
M117 SET FILAMENT SENSOR OFF 
SET_FILAMENT_SENSOR SENSOR=encoder_t1 ENABLE=0

;_SET_FAN_SPEED_CHANGING_LAYER
SET_VELOCITY_LIMIT ACCEL=7000 ACCEL_TO_DECEL=3500
G1 Z1 F21000
G1 X131.772 Y160.9 Z1
G1 Z.6
G1 E.4 F1800
SET_VELOCITY_LIMIT ACCEL=5000 ACCEL_TO_DECEL=2500
;Change extrusion role G-code

OFFSET_T1
M117 SET FILAMENT SENSOR OFF 
SET_FILAMENT_SENSOR SENSOR=encoder_t1 ENABLE=0


;TYPE:Skirt
;WIDTH:0.48
G1 F3000
G1 X131.772 Y161.981 E.03927
G1 X131.123 Y163.55 E.06171
G1 X130.623 Y164.05 E.0257
G1 X129.054 Y164.699 E.06171
G1 X113.054 Y164.699 E.58149
G1 X111.485 Y164.05 E.06171
G1 X110.985 Y163.55 E.0257
G1 X110.335 Y161.981 E.06171
G1 X110.335 Y145.981 E.58149
G1 X110.985 Y144.412 E.06171
G1 X111.485 Y143.912 E.0257
G1 X113.054 Y143.262 E.06171
G1 X129.054 Y143.262 E.58149
G1 X130.623 Y143.912 E.06171
G1 X131.123 Y144.412 E.0257
G1 X131.772 Y145.981 E.06171
G1 X131.772 Y160.86 E.54077
; printing object Calibration Cube.stl id:0 copy 0
SET_VELOCITY_LIMIT ACCEL=7000 ACCEL_TO_DECEL=3500
G1 E-.28 F1800
;WIPE_START
G1 F3000
G1 X131.772 Y161.86 E-.12
;WIPE_END
EXCLUDE_OBJECT_START NAME=Calibration_Cube.stl_id_0_copy_0
G1 Z1 F21000
G1 X128.58 Y146.455 Z1
G1 Z.6
G1 E.4 F1800
SET_VELOCITY_LIMIT ACCEL=5000 ACCEL_TO_DECEL=2500
;Change extrusion role G-code

OFFSET_T1
M117 SET FILAMENT SENSOR OFF 
SET_FILAMENT_SENSOR SENSOR=encoder_t1 ENABLE=0


;TYPE:Inner wall
;WIDTH:0.439999
G1 F7706
G1 X128.58 Y161.507 E.49697
G1 X113.528 Y161.507 E.49697
G1 X113.528 Y146.455 E.49697
G1 X128.54 Y146.455 E.49564
SET_VELOCITY_LIMIT ACCEL=7000 ACCEL_TO_DECEL=3500
G1 X128.815 Y146.058 F21000
SET_VELOCITY_LIMIT ACCEL=5000 ACCEL_TO_DECEL=2500
G1 F7706
G1 X128.977 Y146.22 E.00756
G1 X128.977 Y161.742 E.51249
G1 X128.815 Y161.904 E.00756
G1 X113.293 Y161.904 E.51249
G1 X113.131 Y161.742 E.00756
G1 X113.131 Y146.22 E.51249
M73 P4 R15
