; HEADER_BLOCK_START
; generated by OrcaSlicer 2.2.0 on 2024-12-15 at 09:45:24
; total layer number: 100
; filament_density: 1.27,1.24,1.24,1.24,1.24
; filament_diameter: 1.75,1.75,1.75,1.75,1.75
; max_z_height: 20.00
; HEADER_BLOCK_END

; THUMBNAIL_BLOCK_START

;
; THUMBNAIL_BLOCK_END

; THUMBNAIL_BLOCK_START

;
; THUMBNAIL_BLOCK_END

; external perimeters extrusion width = 0.40mm
; perimeters extrusion width = 0.44mm
; infill extrusion width = 0.44mm
; solid infill extrusion width = 0.48mm
; top infill extrusion width = 0.38mm
; first layer extrusion width = 0.48mm

; EXECUTABLE_BLOCK_START
EXCLUDE_OBJECT_DEFINE NAME=Calibration_Cube.stl_id_0_copy_0 CENTER=199.239,107.4 POLYGON=[[189.239,99.4003],[191.239,97.4003],[207.239,97.4003],[209.239,99.4003],[209.239,115.4],[207.239,117.4],[191.239,117.4],[189.239,115.4],[189.239,99.4003]]
M73 P0 R15
;TYPE:Custom
;START
M140 S35         ; set bed final temp
M190 S35         ; wait for bed final temp






G90
G21
M83 ; use relative distances for extrusion
; TESTING
T1



OFFSET_T1
M117 SET FILAMENT SENSOR OFF 
SET_FILAMENT_SENSOR SENSOR=encoder_t1 ENABLE=0
;_FORCE_RESUME_FAN_SPEED
; filament start gcode
M109 S210 T1 ; set nozzle temperature and wait for it to be reached
M106 S0
;LAYER_CHANGE
;Z:0.2
;HEIGHT:0.2
;BEFORE_LAYER_CHANGE
;0.2
G92 E0

OFFSET_T1
M117 SET FILAMENT SENSOR OFF 
SET_FILAMENT_SENSOR SENSOR=encoder_t1 ENABLE=0

M117 LAYER 0.2
G1 E-.4 F1800
;AFTER_LAYER_CHANGE
;0.2
;AFTER_LAYER_CHANGE
;0.2

OFFSET_T1
M117 SET FILAMENT SENSOR OFF 
SET_FILAMENT_SENSOR SENSOR=encoder_t1 ENABLE=0

;_SET_FAN_SPEED_CHANGING_LAYER
SET_VELOCITY_LIMIT ACCEL=500 ACCEL_TO_DECEL=250
G1 Z.6 F21000
G1 X188.802 Y96.963
G1 Z.6
G1 Z.2
G1 E.4 F1800
;Change extrusion role G-code

OFFSET_T1
M117 SET FILAMENT SENSOR OFF 
SET_FILAMENT_SENSOR SENSOR=encoder_t1 ENABLE=0


;TYPE:Skirt
;WIDTH:0.48
G1 F3000
G1 X189.052 Y96.713 E.01285
G1 X190.398 Y95.924 E.0567
G1 X191.239 Y95.808 E.03086
G1 X207.239 Y95.808 E.58149
G1 X208.748 Y96.201 E.0567
G1 X209.425 Y96.713 E.03086
G1 X209.925 Y97.213 E.0257
G1 X210.715 Y98.559 E.0567
G1 X210.831 Y99.4 E.03086
G1 X210.831 Y115.4 E.58149
G1 X210.438 Y116.91 E.0567
G1 X209.925 Y117.587 E.03086
G1 X209.425 Y118.087 E.0257
G1 X208.08 Y118.876 E.0567
G1 X207.239 Y118.993 E.03086
G1 X191.239 Y118.993 E.58149
G1 X189.729 Y118.599 E.0567
G1 X189.052 Y118.087 E.03086
G1 X188.552 Y117.587 E.0257
G1 X187.762 Y116.241 E.0567
G1 X187.646 Y115.4 E.03086
G1 X187.646 Y99.4 E.58149
G1 X188.039 Y97.891 E.0567
G1 X188.552 Y97.213 E.03086
G1 X188.773 Y96.992 E.0114
G1 X189.083 Y97.301 F21000
G1 F3000
G1 X189.361 Y97.023 E.0143
G1 X191.239 Y96.245 E.07387
G1 X207.239 Y96.245 E.58149
G1 X209.116 Y97.023 E.07387
G1 X209.616 Y97.523 E.0257
G1 X210.394 Y99.4 E.07387
G1 X210.394 Y115.4 E.58149
G1 X209.616 Y117.278 E.07387
G1 X209.116 Y117.778 E.0257
G1 X207.239 Y118.556 E.07387
G1 X191.239 Y118.556 E.58149
G1 X189.361 Y117.778 E.07387
G1 X188.861 Y117.278 E.0257
G1 X188.083 Y115.4 E.07387
G1 X188.083 Y99.4 E.58149
G1 X188.861 Y97.523 E.07387
G1 X189.054 Y97.329 E.00994
G1 X189.363 Y97.638 F21000
G1 F3000
G1 X189.67 Y97.332 E.01576
G1 X191.239 Y96.682 E.06171
G1 X207.239 Y96.682 E.58149
G1 X208.807 Y97.332 E.06171
G1 X209.307 Y97.832 E.0257
G1 X209.957 Y99.4 E.06171
G1 X209.957 Y115.4 E.58149
G1 X209.307 Y116.969 E.06171
G1 X208.807 Y117.469 E.0257
G1 X207.239 Y118.119 E.06171
G1 X191.239 Y118.119 E.58149
G1 X189.67 Y117.469 E.06171
G1 X189.17 Y116.969 E.0257
G1 X188.52 Y115.4 E.06171
G1 X188.52 Y99.4 E.58149
G1 X189.17 Y97.832 E.06171
G1 X189.335 Y97.666 E.00849
; printing object Calibration Cube.stl id:0 copy 0
G1 E-.28 F1800
;WIPE_START
G1 F3000
G1 X189.67 Y97.332 E-.05683
G1 X190.156 Y97.13 E-.06317
;WIPE_END
EXCLUDE_OBJECT_START NAME=Calibration_Cube.stl_id_0_copy_0
G1 Z.6 F21000
G1 X206.224 Y100.414 Z.6
G1 Z.2
G1 E.4 F1800
;Change extrusion role G-code

OFFSET_T1
M117 SET FILAMENT SENSOR OFF 
SET_FILAMENT_SENSOR SENSOR=encoder_t1 ENABLE=0


;TYPE:Inner wall
;WIDTH:0.479999
G1 F3000
G1 X206.224 Y114.386 E.50778
G1 X192.253 Y114.386 E.50778
G1 X192.253 Y100.414 E.50778
G1 X206.184 Y100.414 E.50632
M73 P1 R15
G1 X206.662 Y99.977 F21000
M73 P1 R15
G1 F3000
G1 X206.662 Y114.823 E.53955
G1 X191.816 Y114.823 E.53955
G1 X191.816 Y99.977 E.53955
G1 X206.622 Y99.977 E.53809
G1 X207.099 Y99.54 F21000
;Change extrusion role G-code

OFFSET_T1
M117 SET FILAMENT SENSOR OFF 
SET_FILAMENT_SENSOR SENSOR=encoder_t1 ENABLE=0


;TYPE:Outer wall
G1 F3000
G1 X207.099 Y115.26 E.57132
G1 X191.379 Y115.26 E.57132
G1 X191.379 Y99.54 E.57132
G1 X207.059 Y99.54 E.56986
G1 E-.28 F1800
;WIPE_START
G1 F3000
G1 X207.061 Y100.54 E-.12
;WIPE_END
G1 Z.6 F21000
G1 X205.199 Y100.546 Z.6
G1 Z.2
G1 E.4 F1800
;Change extrusion role G-code

OFFSET_T1
M117 SET FILAMENT SENSOR OFF 
SET_FILAMENT_SENSOR SENSOR=encoder_t1 ENABLE=0


;TYPE:Bottom surface
;WIDTH:0.484962
G1 F6300
G1 X205.897 Y101.243 E.03625
G1 X205.897 Y101.868 E.02298
G1 X204.771 Y100.742 E.05852
G1 X204.146 Y100.742 E.02298
G1 X205.897 Y102.493 E.09102
G1 X205.897 Y103.118 E.02298
G1 X203.521 Y100.742 E.12351
G1 X202.895 Y100.742 E.02298
G1 X205.897 Y103.744 E.15601
G1 X205.897 Y104.369 E.02298
G1 X202.27 Y100.742 E.1885
G1 X201.645 Y100.742 E.02298
G1 X205.897 Y104.994 E.221
G1 X205.897 Y105.619 E.02298
G1 X201.02 Y100.742 E.25349
G1 X200.395 Y100.742 E.02298
G1 X205.897 Y106.244 E.28599
G1 X205.897 Y106.869 E.02298
G1 X199.77 Y100.742 E.31849
G1 X199.145 Y100.742 E.02298
G1 X205.897 Y107.494 E.35098
G1 X205.897 Y108.12 E.02298
G1 X198.519 Y100.742 E.38348
G1 X197.894 Y100.742 E.02298
G1 X205.897 Y108.745 E.41597
G1 X205.897 Y109.37 E.02298
G1 X197.269 Y100.742 E.44847
G1 X196.644 Y100.742 E.02298
G1 X205.897 Y109.995 E.48096
G1 X205.897 Y110.62 E.02298
G1 X196.019 Y100.742 E.51346
G1 X195.394 Y100.742 E.02298
G1 X205.897 Y111.245 E.54595
G1 X205.897 Y111.87 E.02298
G1 X194.769 Y100.742 E.57845
G1 X194.143 Y100.742 E.02298
G1 X205.897 Y112.496 E.61094
G1 X205.897 Y113.121 E.02298
G1 X193.518 Y100.742 E.64344
G1 X192.893 Y100.742 E.02298
G1 X205.897 Y113.746 E.67593
G1 X205.897 Y114.058 E.01149
G1 X205.584 Y114.058 E.01149
G1 X192.581 Y101.055 E.67593
M73 P2 R15
G1 X192.581 Y101.68 E.02298
M73 P2 R15
G1 X204.959 Y114.058 E.64343
G1 X204.334 Y114.058 E.02298
G1 X192.581 Y102.305 E.61094
G1 X192.581 Y102.93 E.02298
G1 X203.709 Y114.058 E.57844
G1 X203.083 Y114.058 E.02298
G1 X192.581 Y103.555 E.54595
G1 X192.581 Y104.181 E.02298
G1 X202.458 Y114.058 E.51345
G1 X201.833 Y114.058 E.02298
G1 X192.581 Y104.806 E.48096
G1 X192.581 Y105.431 E.02298
G1 X201.208 Y114.058 E.44846
G1 X200.583 Y114.058 E.02298
G1 X192.581 Y106.056 E.41597
G1 X192.581 Y106.681 E.02298
G1 X199.958 Y114.058 E.38347
G1 X199.333 Y114.058 E.02298
G1 X192.581 Y107.306 E.35098
G1 X192.581 Y107.931 E.02298
G1 X198.707 Y114.058 E.31848
G1 X198.082 Y114.058 E.02298
G1 X192.581 Y108.557 E.28599
G1 X192.581 Y109.182 E.02298
G1 X197.457 Y114.058 E.25349
G1 X196.832 Y114.058 E.02298
G1 X192.581 Y109.807 E.22099
G1 X192.581 Y110.432 E.02298
G1 X196.207 Y114.058 E.1885
G1 X195.582 Y114.058 E.02298
G1 X192.581 Y111.057 E.156
G1 X192.581 Y111.682 E.02298
G1 X194.957 Y114.058 E.12351
G1 X194.331 Y114.058 E.02298
G1 X192.581 Y112.307 E.09101
G1 X192.581 Y112.933 E.02298
G1 X193.706 Y114.058 E.05852
G1 X193.081 Y114.058 E.02298
G1 X192.384 Y113.361 E.03625
; stop printing object Calibration Cube.stl id:0 copy 0
M106 S255
;LAYER_CHANGE
;Z:0.4
;HEIGHT:0.2
;BEFORE_LAYER_CHANGE
;0.4
G92 E0

OFFSET_T1
M117 SET FILAMENT SENSOR OFF 
SET_FILAMENT_SENSOR SENSOR=encoder_t1 ENABLE=0

M117 LAYER 0.4
G1 E-.28 F1800
;WIPE_START
G1 F6300
G1 X193.081 Y114.058 E-.11834
G1 X193.095 Y114.058 E-.00166
;WIPE_END
EXCLUDE_OBJECT_END NAME=Calibration_Cube.stl_id_0_copy_0
;AFTER_LAYER_CHANGE
;0.4
;AFTER_LAYER_CHANGE
;0.4

OFFSET_T1
M117 SET FILAMENT SENSOR OFF 
SET_FILAMENT_SENSOR SENSOR=encoder_t1 ENABLE=0

;_SET_FAN_SPEED_CHANGING_LAYER
SET_VELOCITY_LIMIT ACCEL=5000 ACCEL_TO_DECEL=2500
M140 S35 ; set bed temperature
SET_VELOCITY_LIMIT ACCEL=7000 ACCEL_TO_DECEL=3500
G1 Z.8 F21000
G1 X193.095 Y118.119 Z.8
G1 Z.4
G1 E.4 F1800
SET_VELOCITY_LIMIT ACCEL=5000 ACCEL_TO_DECEL=2500
;Change extrusion role G-code

OFFSET_T1
M117 SET FILAMENT SENSOR OFF 
SET_FILAMENT_SENSOR SENSOR=encoder_t1 ENABLE=0


;TYPE:Skirt
;WIDTH:0.48
G1 F3000
G1 X207.239 Y118.119 E.51402
G1 X208.807 Y117.469 E.06171
G1 X209.307 Y116.969 E.0257
G1 X209.957 Y115.4 E.06171
G1 X209.957 Y99.4 E.58149
G1 X209.307 Y97.832 E.06171
G1 X208.807 Y97.332 E.0257
G1 X207.239 Y96.682 E.06171
G1 X191.239 Y96.682 E.58149
G1 X189.67 Y97.332 E.06171
G1 X189.17 Y97.832 E.0257
G1 X188.52 Y99.4 E.06171
G1 X188.52 Y115.4 E.58149
G1 X189.17 Y116.969 E.06171
G1 X189.67 Y117.469 E.0257
G1 X191.239 Y118.119 E.06171
G1 X193.055 Y118.119 E.06602
; printing object Calibration Cube.stl id:0 copy 0
SET_VELOCITY_LIMIT ACCEL=7000 ACCEL_TO_DECEL=3500
G1 E-.28 F1800
;WIPE_START
G1 F3000
G1 X194.055 Y118.119 E-.12
;WIPE_END
EXCLUDE_OBJECT_START NAME=Calibration_Cube.stl_id_0_copy_0
G1 Z.8 F21000
G1 X206.564 Y100.074 Z.8
G1 Z.4
G1 E.4 F1800
SET_VELOCITY_LIMIT ACCEL=5000 ACCEL_TO_DECEL=2500
;Change extrusion role G-code

OFFSET_T1
M117 SET FILAMENT SENSOR OFF 
SET_FILAMENT_SENSOR SENSOR=encoder_t1 ENABLE=0


;TYPE:Inner wall
;WIDTH:0.439999
G1 F7482
G1 X206.564 Y114.726 E.48376
G1 X191.913 Y114.726 E.48376
G1 X191.913 Y100.074 E.48376
G1 X206.524 Y100.074 E.48244
SET_VELOCITY_LIMIT ACCEL=7000 ACCEL_TO_DECEL=3500
G1 X206.962 Y99.677 F21000
SET_VELOCITY_LIMIT ACCEL=5000 ACCEL_TO_DECEL=2500
G1 F7482
G1 X206.962 Y115.123 E.50998
G1 X191.516 Y115.123 E.50998
G1 X191.516 Y99.677 E.50998
G1 X206.922 Y99.677 E.50866
SET_VELOCITY_LIMIT ACCEL=7000 ACCEL_TO_DECEL=3500
G1 X207.156 Y99.3 F21000
SET_VELOCITY_LIMIT ACCEL=3000 ACCEL_TO_DECEL=1500
;Change extrusion role G-code

OFFSET_T1
M117 SET FILAMENT SENSOR OFF 
SET_FILAMENT_SENSOR SENSOR=encoder_t1 ENABLE=0


;TYPE:Outer wall
;WIDTH:0.399999
G1 F3000
G1 X207.339 Y99.483 E.00768
G1 X207.339 Y115.317 E.47013
G1 X207.156 Y115.5 E.00768
G1 X191.321 Y115.5 E.47016
M73 P3 R15
G1 X191.139 Y115.317 E.00766
M73 P3 R15
G1 X191.139 Y99.483 E.47013
G1 X191.321 Y99.3 E.00766
G1 X207.116 Y99.3 E.46897
SET_VELOCITY_LIMIT ACCEL=7000 ACCEL_TO_DECEL=3500
G1 E-.28 F1800
;WIPE_START
G1 F3000
G1 X207.339 Y99.483 E-.03459
G1 X207.339 Y100.195 E-.08541
;WIPE_END
G1 Z.8 F21000
G1 X206.443 Y113.618 Z.8
G1 Z.4
G1 E.4 F1800
SET_VELOCITY_LIMIT ACCEL=5000 ACCEL_TO_DECEL=2500
;Change extrusion role G-code

OFFSET_T1
M117 SET FILAMENT SENSOR OFF 
SET_FILAMENT_SENSOR SENSOR=encoder_t1 ENABLE=0


;TYPE:Internal solid infill
;WIDTH:0.481986
G1 F7482
G1 X205.653 Y114.408 E.04079
G1 X205.032 Y114.408 E.02267
G1 X206.247 Y113.194 E.06269
G1 X206.247 Y112.573 E.02267
G1 X204.411 Y114.408 E.09475
G1 X203.791 Y114.408 E.02267
G1 X206.247 Y111.952 E.12681
G1 X206.247 Y111.331 E.02267
G1 X203.17 Y114.408 E.15887
G1 X202.549 Y114.408 E.02267
G1 X206.247 Y110.71 E.19093
G1 X206.247 Y110.089 E.02267
G1 X201.928 Y114.408 E.22299
G1 X201.307 Y114.408 E.02267
G1 X206.247 Y109.468 E.25505
G1 X206.247 Y108.848 E.02267
G1 X200.686 Y114.408 E.28711
G1 X200.065 Y114.408 E.02267
G1 X206.247 Y108.227 E.31917
G1 X206.247 Y107.606 E.02267
G1 X199.444 Y114.408 E.35123
G1 X198.823 Y114.408 E.02267
G1 X206.247 Y106.985 E.38329
G1 X206.247 Y106.364 E.02267
G1 X198.202 Y114.408 E.41535
G1 X197.581 Y114.408 E.02267
G1 X206.247 Y105.743 E.4474
G1 X206.247 Y105.122 E.02267
G1 X196.96 Y114.408 E.47946
G1 X196.339 Y114.408 E.02267
G1 X206.247 Y104.501 E.51152
G1 X206.247 Y103.88 E.02267
G1 X195.718 Y114.408 E.54358
G1 X195.097 Y114.408 E.02267
G1 X206.247 Y103.259 E.57564
G1 X206.247 Y102.638 E.02267
G1 X194.477 Y114.408 E.6077
G1 X193.856 Y114.408 E.02267
G1 X206.247 Y102.017 E.63976
G1 X206.247 Y101.396 E.02267
G1 X193.235 Y114.408 E.67182
G1 X192.614 Y114.408 E.02267
G1 X206.247 Y100.775 E.70388
G1 X206.247 Y100.392 E.01399
G1 X206.009 Y100.392 E.00868
G1 X192.231 Y114.171 E.71138
G1 X192.231 Y113.55 E.02267
G1 X205.388 Y100.392 E.67932
G1 X204.767 Y100.392 E.02267
G1 X192.231 Y112.929 E.64727
G1 X192.231 Y112.308 E.02267
G1 X204.146 Y100.392 E.61521
G1 X203.525 Y100.392 E.02267
G1 X192.231 Y111.687 E.58315
G1 X192.231 Y111.066 E.02267
G1 X202.904 Y100.392 E.55109
G1 X202.283 Y100.392 E.02267
G1 X192.231 Y110.445 E.51903
G1 X192.231 Y109.824 E.02267
G1 X201.662 Y100.392 E.48697
G1 X201.041 Y100.392 E.02267
G1 X192.231 Y109.203 E.45491
G1 X192.231 Y108.582 E.02267
G1 X200.42 Y100.392 E.42285
G1 X199.8 Y100.392 E.02267
G1 X192.231 Y107.961 E.39079
G1 X192.231 Y107.34 E.02267
G1 X199.179 Y100.392 E.35873
G1 X198.558 Y100.392 E.02267
G1 X192.231 Y106.719 E.32667
G1 X192.231 Y106.098 E.02267
G1 X197.937 Y100.392 E.29461
G1 X197.316 Y100.392 E.02267
G1 X192.231 Y105.478 E.26255
G1 X192.231 Y104.857 E.02267
G1 X196.695 Y100.392 E.23049
G1 X196.074 Y100.392 E.02267
G1 X192.231 Y104.236 E.19844
G1 X192.231 Y103.615 E.02267
G1 X195.453 Y100.392 E.16638
G1 X194.832 Y100.392 E.02267
G1 X192.231 Y102.994 E.13432
G1 X192.231 Y102.373 E.02267
G1 X194.211 Y100.392 E.10226
G1 X193.59 Y100.392 E.02267
G1 X192.231 Y101.752 E.0702
G1 X192.231 Y101.131 E.02267
G1 X193.166 Y100.196 E.04829
SET_VELOCITY_LIMIT ACCEL=7000 ACCEL_TO_DECEL=3500
G1 X192.351 Y100.44 F21000
SET_VELOCITY_LIMIT ACCEL=5000 ACCEL_TO_DECEL=2500
;WIDTH:0.469754
G1 F7482
G1 X192.298 Y100.44 E.00189
G1 X192.271 Y100.486 E.00189
G1 X192.298 Y100.533 E.00189
G1 X192.358 Y100.521 E.00217
SET_VELOCITY_LIMIT ACCEL=7000 ACCEL_TO_DECEL=3500
G1 X206.216 Y114.32 F21000
SET_VELOCITY_LIMIT ACCEL=5000 ACCEL_TO_DECEL=2500
;WIDTH:0.384528
G1 F7482
G1 X206.152 Y114.357 E.0021
G1 X206.218 Y114.391 E.0021
; stop printing object Calibration Cube.stl id:0 copy 0
;LAYER_CHANGE
;Z:0.6
;HEIGHT:0.2
;BEFORE_LAYER_CHANGE
;0.6
G92 E0

OFFSET_T1
M117 SET FILAMENT SENSOR OFF 
SET_FILAMENT_SENSOR SENSOR=encoder_t1 ENABLE=0

M117 LAYER 0.6
G1 E-.37473 F1800
;WIPE_START
G1 F10538.395
G1 X206.152 Y114.357 E-.01264
G1 X206.216 Y114.32 E-.01263
;WIPE_END
EXCLUDE_OBJECT_END NAME=Calibration_Cube.stl_id_0_copy_0
;AFTER_LAYER_CHANGE
;0.6
;AFTER_LAYER_CHANGE
;0.6

OFFSET_T1
M117 SET FILAMENT SENSOR OFF 
SET_FILAMENT_SENSOR SENSOR=encoder_t1 ENABLE=0

;_SET_FAN_SPEED_CHANGING_LAYER
SET_VELOCITY_LIMIT ACCEL=7000 ACCEL_TO_DECEL=3500
G1 Z1 F21000
G1 X209.957 Y114.32 Z1
G1 Z.6
G1 E.4 F1800
SET_VELOCITY_LIMIT ACCEL=5000 ACCEL_TO_DECEL=2500
;Change extrusion role G-code

OFFSET_T1
M117 SET FILAMENT SENSOR OFF 
SET_FILAMENT_SENSOR SENSOR=encoder_t1 ENABLE=0


;TYPE:Skirt
;WIDTH:0.48
G1 F3000
G1 X209.957 Y115.4 E.03927
G1 X209.307 Y116.969 E.06171
G1 X208.807 Y117.469 E.0257
G1 X207.239 Y118.119 E.06171
G1 X191.239 Y118.119 E.58149
G1 X189.67 Y117.469 E.06171
G1 X189.17 Y116.969 E.0257
G1 X188.52 Y115.4 E.06171
G1 X188.52 Y99.4 E.58149
G1 X189.17 Y97.832 E.06171
G1 X189.67 Y97.332 E.0257
G1 X191.239 Y96.682 E.06171
G1 X207.239 Y96.682 E.58149
G1 X208.807 Y97.332 E.06171
G1 X209.307 Y97.832 E.0257
G1 X209.957 Y99.4 E.06171
G1 X209.957 Y114.28 E.54077
; printing object Calibration Cube.stl id:0 copy 0
SET_VELOCITY_LIMIT ACCEL=7000 ACCEL_TO_DECEL=3500
G1 E-.28 F1800
;WIPE_START
G1 F3000
G1 X209.957 Y115.28 E-.12
;WIPE_END
EXCLUDE_OBJECT_START NAME=Calibration_Cube.stl_id_0_copy_0
G1 Z1 F21000
G1 X206.764 Y99.874 Z1
G1 Z.6
G1 E.4 F1800
SET_VELOCITY_LIMIT ACCEL=5000 ACCEL_TO_DECEL=2500
;Change extrusion role G-code

OFFSET_T1
M117 SET FILAMENT SENSOR OFF 
SET_FILAMENT_SENSOR SENSOR=encoder_t1 ENABLE=0


;TYPE:Inner wall
;WIDTH:0.439999
G1 F7706
G1 X206.764 Y114.926 E.49697
G1 X191.713 Y114.926 E.49697
G1 X191.713 Y99.874 E.49697
G1 X206.724 Y99.874 E.49564
SET_VELOCITY_LIMIT ACCEL=7000 ACCEL_TO_DECEL=3500
G1 X207 Y99.477 F21000
SET_VELOCITY_LIMIT ACCEL=5000 ACCEL_TO_DECEL=2500
G1 F7706
G1 X207.162 Y99.639 E.00756
G1 X207.162 Y115.161 E.51249
G1 X207 Y115.323 E.00756
G1 X191.478 Y115.323 E.51249
G1 X191.316 Y115.161 E.00756
G1 X191.316 Y99.639 E.51249
M73 P4 R15
G1 X191.478 Y99.477 E.00756
M73 P4 R15
G1 X206.96 Y99.477 E.51117
SET_VELOCITY_LIMIT ACCEL=7000 ACCEL_TO_DECEL=3500
G1 X207.152 Y99.1 F21000
