; HEADER_BLOCK_START
; generated by OrcaSlicer 2.2.0 on 2024-12-13 at 15:22:16
; total layer number: 100
; filament_density: 1.27,1.24,1.24,1.24,1.24
; filament_diameter: 1.75,1.75,1.75,1.75,1.75
; max_z_height: 20.00
; HEADER_BLOCK_END

; THUMBNAIL_BLOCK_START

;
; THUMBNAIL_BLOCK_END

; THUMBNAIL_BLOCK_START

;
; THUMBNAIL_BLOCK_END

; external perimeters extrusion width = 0.40mm
; perimeters extrusion width = 0.44mm
; infill extrusion width = 0.44mm
; solid infill extrusion width = 0.48mm
; top infill extrusion width = 0.38mm
; first layer extrusion width = 0.48mm

; EXECUTABLE_BLOCK_START
EXCLUDE_OBJECT_DEFINE NAME=Calibration_Cube.stl_id_0_copy_0 CENTER=184.852,140.992 POLYGON=[[174.852,132.992],[176.852,130.992],[192.852,130.992],[194.852,132.992],[194.852,148.992],[192.852,150.992],[176.852,150.992],[174.852,148.992],[174.852,132.992]]
M73 P0 R15
;TYPE:Custom
;START
M140 S60         ; set bed final temp
M190 S60         ; wait for bed final temp






G90
G21
M83 ; use relative distances for extrusion
; TESTING
T2



OFFSET_T2
M117 SET FILAMENT SENSOR ON 
SET_FILAMENT_SENSOR SENSOR=encoder_t2 ENABLE=1
;_FORCE_RESUME_FAN_SPEED
; filament start gcode
M109 S210 T2 ; set nozzle temperature and wait for it to be reached
M106 S0
;LAYER_CHANGE
;Z:0.2
;HEIGHT:0.2
;BEFORE_LAYER_CHANGE
;0.2
G92 E0

OFFSET_T2

M117 LAYER 0.2
G1 E-.8 F1800
;AFTER_LAYER_CHANGE
;0.2
;AFTER_LAYER_CHANGE
;0.2

OFFSET_T2

;_SET_FAN_SPEED_CHANGING_LAYER
SET_VELOCITY_LIMIT ACCEL=500 ACCEL_TO_DECEL=250
G1 Z.6 F21000
G1 X174.415 Y130.555
G1 Z.6
G1 Z.2
G1 E.8 F1800
;Change extrusion role G-code

OFFSET_T2


;TYPE:Skirt
;WIDTH:0.48
G1 F3000
G1 X174.665 Y130.305 E.01259
G1 X176.011 Y129.516 E.05557
G1 X176.852 Y129.399 E.03024
G1 X192.852 Y129.399 E.56986
G1 X194.362 Y129.793 E.05557
G1 X195.039 Y130.305 E.03024
G1 X195.539 Y130.805 E.02518
G1 X196.328 Y132.151 E.05557
G1 X196.445 Y132.992 E.03024
G1 X196.445 Y148.992 E.56986
G1 X196.051 Y150.502 E.05557
G1 X195.539 Y151.179 E.03024
G1 X195.039 Y151.679 E.02518
G1 X193.693 Y152.468 E.05557
G1 X192.852 Y152.585 E.03024
G1 X176.852 Y152.585 E.56986
G1 X175.342 Y152.191 E.05557
G1 X174.665 Y151.679 E.03024
G1 X174.165 Y151.179 E.02518
G1 X173.376 Y149.833 E.05557
G1 X173.259 Y148.992 E.03024
G1 X173.259 Y132.992 E.56986
G1 X173.653 Y131.482 E.05557
G1 X174.165 Y130.805 E.03024
G1 X174.387 Y130.584 E.01117
G1 X174.696 Y130.893 F21000
G1 F3000
G1 X174.974 Y130.614 E.01402
G1 X176.852 Y129.837 E.07239
G1 X192.852 Y129.837 E.56986
G1 X194.73 Y130.614 E.07239
G1 X195.23 Y131.114 E.02518
G1 X196.007 Y132.992 E.07239
G1 X196.007 Y148.992 E.56986
G1 X195.23 Y150.87 E.07239
G1 X194.73 Y151.37 E.02518
G1 X192.852 Y152.148 E.07239
G1 X176.852 Y152.148 E.56986
G1 X174.974 Y151.37 E.07239
G1 X174.474 Y150.87 E.02518
G1 X173.696 Y148.992 E.07239
G1 X173.696 Y132.992 E.56986
G1 X174.474 Y131.114 E.07239
G1 X174.667 Y130.921 E.00974
G1 X174.977 Y131.23 F21000
G1 F3000
G1 X175.283 Y130.923 E.01544
G1 X176.852 Y130.274 E.06048
G1 X192.852 Y130.274 E.56986
G1 X194.421 Y130.923 E.06048
G1 X194.921 Y131.423 E.02518
G1 X195.57 Y132.992 E.06048
G1 X195.57 Y148.992 E.56986
G1 X194.921 Y150.561 E.06048
G1 X194.421 Y151.061 E.02518
G1 X192.852 Y151.711 E.06048
G1 X176.852 Y151.711 E.56986
G1 X175.283 Y151.061 E.06048
G1 X174.783 Y150.561 E.02518
G1 X174.133 Y148.992 E.06048
G1 X174.133 Y132.992 E.56986
G1 X174.783 Y131.423 E.06048
G1 X174.948 Y131.258 E.00832
; printing object Calibration Cube.stl id:0 copy 0
G1 E-.56 F1800
;WIPE_START
G1 F3000
G1 X175.283 Y130.923 E-.11365
G1 X175.769 Y130.722 E-.12635
;WIPE_END
EXCLUDE_OBJECT_START NAME=Calibration_Cube.stl_id_0_copy_0
G1 Z.6 F21000
G1 X191.838 Y134.006 Z.6
G1 Z.2
G1 E.8 F1800
;Change extrusion role G-code

OFFSET_T2


;TYPE:Inner wall
;WIDTH:0.479999
G1 F3000
G1 X191.838 Y147.978 E.49762
G1 X177.866 Y147.978 E.49762
G1 X177.866 Y134.006 E.49762
G1 X191.798 Y134.006 E.4962
M73 P1 R15
G1 X192.275 Y133.569 F21000
M73 P1 R15
G1 F3000
G1 X192.275 Y148.415 E.52876
G1 X177.429 Y148.415 E.52876
G1 X177.429 Y133.569 E.52876
G1 X192.235 Y133.569 E.52733
G1 X192.712 Y133.132 F21000
;Change extrusion role G-code

OFFSET_T2


;TYPE:Outer wall
G1 F3000
G1 X192.712 Y148.852 E.55989
G1 X176.992 Y148.852 E.55989
G1 X176.992 Y133.132 E.55989
G1 X192.672 Y133.132 E.55847
G1 E-.56 F1800
;WIPE_START
G1 F3000
G1 X192.674 Y134.132 E-.24
;WIPE_END
G1 Z.6 F21000
G1 X190.812 Y134.137 Z.6
G1 Z.2
G1 E.8 F1800
;Change extrusion role G-code

OFFSET_T2


;TYPE:Bottom surface
;WIDTH:0.484962
G1 F6300
G1 X191.51 Y134.835 E.03553
G1 X191.51 Y135.46 E.02252
G1 X190.384 Y134.334 E.05735
G1 X189.759 Y134.334 E.02252
G1 X191.51 Y136.085 E.0892
G1 X191.51 Y136.71 E.02252
G1 X189.134 Y134.334 E.12104
G1 X188.509 Y134.334 E.02252
G1 X191.51 Y137.335 E.15289
G1 X191.51 Y137.961 E.02252
G1 X187.883 Y134.334 E.18473
G1 X187.258 Y134.334 E.02252
G1 X191.51 Y138.586 E.21658
G1 X191.51 Y139.211 E.02252
G1 X186.633 Y134.334 E.24842
G1 X186.008 Y134.334 E.02252
G1 X191.51 Y139.836 E.28027
G1 X191.51 Y140.461 E.02252
G1 X185.383 Y134.334 E.31212
G1 X184.758 Y134.334 E.02252
G1 X191.51 Y141.086 E.34396
G1 X191.51 Y141.711 E.02252
G1 X184.133 Y134.334 E.37581
G1 X183.507 Y134.334 E.02252
G1 X191.51 Y142.337 E.40765
G1 X191.51 Y142.962 E.02252
G1 X182.882 Y134.334 E.4395
G1 X182.257 Y134.334 E.02252
G1 X191.51 Y143.587 E.47134
G1 X191.51 Y144.212 E.02252
G1 X181.632 Y134.334 E.50319
G1 X181.007 Y134.334 E.02252
G1 X191.51 Y144.837 E.53503
G1 X191.51 Y145.462 E.02252
G1 X180.382 Y134.334 E.56688
G1 X179.757 Y134.334 E.02252
G1 X191.51 Y146.087 E.59872
G1 X191.51 Y146.712 E.02252
G1 X179.131 Y134.334 E.63057
G1 X178.506 Y134.334 E.02252
G1 X191.51 Y147.338 E.66242
G1 X191.51 Y147.65 E.01126
G1 X191.197 Y147.65 E.01126
G1 X178.194 Y134.647 E.66241
M73 P2 R15
G1 X178.194 Y135.272 E.02252
M73 P2 R15
G1 X190.572 Y147.65 E.63057
G1 X189.947 Y147.65 E.02252
G1 X178.194 Y135.897 E.59872
G1 X178.194 Y136.522 E.02252
G1 X189.322 Y147.65 E.56687
G1 X188.697 Y147.65 E.02252
G1 X178.194 Y137.147 E.53503
G1 X178.194 Y137.772 E.02252
G1 X188.072 Y147.65 E.50318
G1 X187.446 Y147.65 E.02252
G1 X178.194 Y138.398 E.47134
G1 X178.194 Y139.023 E.02252
G1 X186.821 Y147.65 E.43949
G1 X186.196 Y147.65 E.02252
G1 X178.194 Y139.648 E.40765
G1 X178.194 Y140.273 E.02252
G1 X185.571 Y147.65 E.3758
G1 X184.946 Y147.65 E.02252
G1 X178.194 Y140.898 E.34396
G1 X178.194 Y141.523 E.02252
G1 X184.321 Y147.65 E.31211
G1 X183.696 Y147.65 E.02252
G1 X178.194 Y142.148 E.28027
G1 X178.194 Y142.774 E.02252
G1 X183.07 Y147.65 E.24842
G1 X182.445 Y147.65 E.02252
G1 X178.194 Y143.399 E.21657
G1 X178.194 Y144.024 E.02252
G1 X181.82 Y147.65 E.18473
G1 X181.195 Y147.65 E.02252
G1 X178.194 Y144.649 E.15288
G1 X178.194 Y145.274 E.02252
G1 X180.57 Y147.65 E.12104
G1 X179.945 Y147.65 E.02252
G1 X178.194 Y145.899 E.08919
G1 X178.194 Y146.524 E.02252
G1 X179.32 Y147.65 E.05735
G1 X178.694 Y147.65 E.02252
G1 X177.997 Y146.953 E.03552
; stop printing object Calibration Cube.stl id:0 copy 0
M106 S255
;LAYER_CHANGE
;Z:0.4
;HEIGHT:0.2
;BEFORE_LAYER_CHANGE
;0.4
G92 E0

OFFSET_T2

M117 LAYER 0.4
G1 E-.56 F1800
;WIPE_START
G1 F6300
G1 X178.694 Y147.65 E-.23667
G1 X178.708 Y147.65 E-.00333
;WIPE_END
EXCLUDE_OBJECT_END NAME=Calibration_Cube.stl_id_0_copy_0
;AFTER_LAYER_CHANGE
;0.4
;AFTER_LAYER_CHANGE
;0.4

OFFSET_T2

;_SET_FAN_SPEED_CHANGING_LAYER
SET_VELOCITY_LIMIT ACCEL=5000 ACCEL_TO_DECEL=2500
M104 S205 T2 ; set nozzle temperature
M140 S60 ; set bed temperature
SET_VELOCITY_LIMIT ACCEL=7000 ACCEL_TO_DECEL=3500
G1 Z.8 F21000
G1 X178.708 Y151.711 Z.8
G1 Z.4
G1 E.8 F1800
SET_VELOCITY_LIMIT ACCEL=5000 ACCEL_TO_DECEL=2500
;Change extrusion role G-code

OFFSET_T2


;TYPE:Skirt
;WIDTH:0.48
G1 F3000
G1 X192.852 Y151.711 E.50374
G1 X194.421 Y151.061 E.06048
G1 X194.921 Y150.561 E.02518
G1 X195.57 Y148.992 E.06048
G1 X195.57 Y132.992 E.56986
G1 X194.921 Y131.423 E.06048
G1 X194.421 Y130.923 E.02518
G1 X192.852 Y130.274 E.06048
G1 X176.852 Y130.274 E.56986
G1 X175.283 Y130.923 E.06048
G1 X174.783 Y131.423 E.02518
G1 X174.133 Y132.992 E.06048
G1 X174.133 Y148.992 E.56986
G1 X174.783 Y150.561 E.06048
G1 X175.283 Y151.061 E.02518
G1 X176.852 Y151.711 E.06048
G1 X178.668 Y151.711 E.0647
; printing object Calibration Cube.stl id:0 copy 0
SET_VELOCITY_LIMIT ACCEL=7000 ACCEL_TO_DECEL=3500
G1 E-.56 F1800
;WIPE_START
G1 F3000
G1 X179.668 Y151.711 E-.24
;WIPE_END
EXCLUDE_OBJECT_START NAME=Calibration_Cube.stl_id_0_copy_0
G1 Z.8 F21000
G1 X192.178 Y133.666 Z.8
G1 Z.4
G1 E.8 F1800
SET_VELOCITY_LIMIT ACCEL=5000 ACCEL_TO_DECEL=2500
;Change extrusion role G-code

OFFSET_T2


;TYPE:Inner wall
;WIDTH:0.439999
G1 F7555.171
G1 X192.178 Y148.318 E.47408
G1 X177.526 Y148.318 E.47408
G1 X177.526 Y133.666 E.47408
G1 X192.138 Y133.666 E.47279
SET_VELOCITY_LIMIT ACCEL=7000 ACCEL_TO_DECEL=3500
G1 X192.575 Y133.269 F21000
SET_VELOCITY_LIMIT ACCEL=5000 ACCEL_TO_DECEL=2500
G1 F7555.171
G1 X192.575 Y148.715 E.49978
G1 X177.129 Y148.715 E.49978
G1 X177.129 Y133.269 E.49978
G1 X192.535 Y133.269 E.49849
SET_VELOCITY_LIMIT ACCEL=7000 ACCEL_TO_DECEL=3500
G1 X192.769 Y132.892 F21000
SET_VELOCITY_LIMIT ACCEL=3000 ACCEL_TO_DECEL=1500
;Change extrusion role G-code

OFFSET_T2


;TYPE:Outer wall
;WIDTH:0.399999
G1 F3000
G1 X192.952 Y133.075 E.00753
G1 X192.952 Y148.909 E.46073
G1 X192.769 Y149.092 E.00753
G1 X176.935 Y149.092 E.46073
M73 P3 R15
G1 X176.752 Y148.909 E.00753
M73 P3 R15
G1 X176.752 Y133.075 E.46073
G1 X176.935 Y132.892 E.00753
G1 X192.729 Y132.892 E.45956
SET_VELOCITY_LIMIT ACCEL=7000 ACCEL_TO_DECEL=3500
G1 E-.56 F1800
;WIPE_START
G1 F3000
G1 X192.952 Y133.075 E-.06918
G1 X192.952 Y133.787 E-.17082
;WIPE_END
G1 Z.8 F21000
G1 X192.057 Y147.21 Z.8
G1 Z.4
G1 E.8 F1800
SET_VELOCITY_LIMIT ACCEL=5000 ACCEL_TO_DECEL=2500
;Change extrusion role G-code

OFFSET_T2


;TYPE:Internal solid infill
;WIDTH:0.481986
G1 F6832.685
M106 S255
G1 X191.267 Y148 E.03997
G1 X190.646 Y148 E.02222
G1 X191.86 Y146.786 E.06144
G1 X191.86 Y146.165 E.02222
G1 X190.025 Y148 E.09286
G1 X189.404 Y148 E.02222
G1 X191.86 Y145.544 E.12428
G1 X191.86 Y144.923 E.02222
G1 X188.783 Y148 E.15569
G1 X188.162 Y148 E.02222
G1 X191.86 Y144.302 E.18711
G1 X191.86 Y143.681 E.02222
G1 X187.541 Y148 E.21853
G1 X186.92 Y148 E.02222
G1 X191.86 Y143.06 E.24995
G1 X191.86 Y142.439 E.02222
G1 X186.299 Y148 E.28137
G1 X185.678 Y148 E.02222
G1 X191.86 Y141.818 E.31278
G1 X191.86 Y141.198 E.02222
G1 X185.057 Y148 E.3442
G1 X184.436 Y148 E.02222
G1 X191.86 Y140.577 E.37562
G1 X191.86 Y139.956 E.02222
G1 X183.815 Y148 E.40704
G1 X183.194 Y148 E.02222
G1 X191.86 Y139.335 E.43846
G1 X191.86 Y138.714 E.02222
G1 X182.573 Y148 E.46987
G1 X181.953 Y148 E.02222
G1 X191.86 Y138.093 E.50129
G1 X191.86 Y137.472 E.02222
G1 X181.332 Y148 E.53271
G1 X180.711 Y148 E.02222
G1 X191.86 Y136.851 E.56413
G1 X191.86 Y136.23 E.02222
G1 X180.09 Y148 E.59555
G1 X179.469 Y148 E.02222
G1 X191.86 Y135.609 E.62697
G1 X191.86 Y134.988 E.02222
G1 X178.848 Y148 E.65838
G1 X178.227 Y148 E.02222
G1 X191.86 Y134.367 E.6898
G1 X191.86 Y133.984 E.01371
G1 X191.622 Y133.984 E.00851
G1 X177.844 Y147.762 E.69716
G1 X177.844 Y147.141 E.02222
G1 X191.001 Y133.984 E.66574
G1 X190.38 Y133.984 E.02222
G1 X177.844 Y146.521 E.63432
G1 X177.844 Y145.9 E.02222
G1 X189.759 Y133.984 E.6029
G1 X189.138 Y133.984 E.02222
G1 X177.844 Y145.279 E.57148
G1 X177.844 Y144.658 E.02222
G1 X188.517 Y133.984 E.54007
G1 X187.896 Y133.984 E.02222
G1 X177.844 Y144.037 E.50865
G1 X177.844 Y143.416 E.02222
G1 X187.276 Y133.984 E.47723
G1 X186.655 Y133.984 E.02222
G1 X177.844 Y142.795 E.44581
G1 X177.844 Y142.174 E.02222
G1 X186.034 Y133.984 E.41439
G1 X185.413 Y133.984 E.02222
G1 X177.844 Y141.553 E.38298
G1 X177.844 Y140.932 E.02222
G1 X184.792 Y133.984 E.35156
G1 X184.171 Y133.984 E.02222
G1 X177.844 Y140.311 E.32014
G1 X177.844 Y139.69 E.02222
G1 X183.55 Y133.984 E.28872
G1 X182.929 Y133.984 E.02222
G1 X177.844 Y139.069 E.2573
G1 X177.844 Y138.448 E.02222
G1 X182.308 Y133.984 E.22588
G1 X181.687 Y133.984 E.02222
G1 X177.844 Y137.827 E.19447
G1 X177.844 Y137.207 E.02222
G1 X181.066 Y133.984 E.16305
G1 X180.445 Y133.984 E.02222
G1 X177.844 Y136.586 E.13163
G1 X177.844 Y135.965 E.02222
G1 X179.824 Y133.984 E.10021
G1 X179.203 Y133.984 E.02222
G1 X177.844 Y135.344 E.06879
G1 X177.844 Y134.723 E.02222
G1 X178.779 Y133.787 E.04733
SET_VELOCITY_LIMIT ACCEL=7000 ACCEL_TO_DECEL=3500
G1 X177.965 Y134.032 F21000
SET_VELOCITY_LIMIT ACCEL=5000 ACCEL_TO_DECEL=2500
;WIDTH:0.469754
G1 F7028.493
G1 X177.911 Y134.032 E.00186
G1 X177.885 Y134.078 E.00186
G1 X177.911 Y134.124 E.00186
G1 X177.971 Y134.113 E.00213
SET_VELOCITY_LIMIT ACCEL=7000 ACCEL_TO_DECEL=3500
G1 X191.83 Y147.912 F21000
SET_VELOCITY_LIMIT ACCEL=5000 ACCEL_TO_DECEL=2500
;WIDTH:0.384528
G1 F8781.996
G1 X191.766 Y147.949 E.00206
G1 X191.831 Y147.983 E.00206
; stop printing object Calibration Cube.stl id:0 copy 0
;LAYER_CHANGE
;Z:0.6
;HEIGHT:0.2
;BEFORE_LAYER_CHANGE
;0.6
G92 E0

OFFSET_T2

M117 LAYER 0.6
G1 E-.76967 F1800
;WIPE_START
G1 F8781.996
G1 X191.766 Y147.949 E-.01517
G1 X191.83 Y147.912 E-.01516
;WIPE_END
EXCLUDE_OBJECT_END NAME=Calibration_Cube.stl_id_0_copy_0
;AFTER_LAYER_CHANGE
;0.6
;AFTER_LAYER_CHANGE
;0.6

OFFSET_T2

;_SET_FAN_SPEED_CHANGING_LAYER
SET_VELOCITY_LIMIT ACCEL=7000 ACCEL_TO_DECEL=3500
G1 Z1 F21000
G1 X195.57 Y147.912 Z1
G1 Z.6
G1 E.8 F1800
SET_VELOCITY_LIMIT ACCEL=5000 ACCEL_TO_DECEL=2500
;Change extrusion role G-code

OFFSET_T2


;TYPE:Skirt
;WIDTH:0.48
G1 F3000
G1 X195.57 Y148.992 E.03848
G1 X194.921 Y150.561 E.06048
G1 X194.421 Y151.061 E.02518
G1 X192.852 Y151.711 E.06048
G1 X176.852 Y151.711 E.56986
G1 X175.283 Y151.061 E.06048
G1 X174.783 Y150.561 E.02518
G1 X174.133 Y148.992 E.06048
G1 X174.133 Y132.992 E.56986
G1 X174.783 Y131.423 E.06048
G1 X175.283 Y130.923 E.02518
G1 X176.852 Y130.274 E.06048
G1 X192.852 Y130.274 E.56986
G1 X194.421 Y130.923 E.06048
G1 X194.921 Y131.423 E.02518
G1 X195.57 Y132.992 E.06048
G1 X195.57 Y147.872 E.52996
; printing object Calibration Cube.stl id:0 copy 0
SET_VELOCITY_LIMIT ACCEL=7000 ACCEL_TO_DECEL=3500
G1 E-.56 F1800
;WIPE_START
G1 F3000
G1 X195.57 Y148.872 E-.24
;WIPE_END
EXCLUDE_OBJECT_START NAME=Calibration_Cube.stl_id_0_copy_0
G1 Z1 F21000
G1 X192.378 Y133.466 Z1
G1 Z.6
G1 E.8 F1800
SET_VELOCITY_LIMIT ACCEL=5000 ACCEL_TO_DECEL=2500
;Change extrusion role G-code

OFFSET_T2


;TYPE:Inner wall
;WIDTH:0.439999
G1 F7555.171
G1 X192.378 Y148.518 E.48703
G1 X177.326 Y148.518 E.48703
G1 X177.326 Y133.466 E.48703
G1 X192.338 Y133.466 E.48573
SET_VELOCITY_LIMIT ACCEL=7000 ACCEL_TO_DECEL=3500
M73 P4 R15
G1 X192.613 Y133.069 F21000
M73 P4 R15
SET_VELOCITY_LIMIT ACCEL=5000 ACCEL_TO_DECEL=2500
G1 F7555.171
G1 X192.775 Y133.231 E.00741
G1 X192.775 Y148.753 E.50224
G1 X192.613 Y148.915 E.00741
G1 X177.091 Y148.915 E.50224
G1 X176.929 Y148.753 E.00741
G1 X176.929 Y133.231 E.50224
G1 X177.091 Y133.069 E.00741
G1 X192.573 Y133.069 E.50095
SET_VELOCITY_LIMIT ACCEL=7000 ACCEL_TO_DECEL=3500
G1 X192.765 Y132.692 F21000
SET_VELOCITY_LIMIT ACCEL=3000 ACCEL_TO_DECEL=1500
;Change extrusion role G-code

OFFSET_T2


;TYPE:Outer wall
;WIDTH:0.399999
G1 F3000
G1 X192.769 Y132.692 E.00012
G1 X193.152 Y133.075 E.01576
G1 X193.152 Y148.909 E.46073
G1 X192.769 Y149.292 E.01576
G1 X176.935 Y149.292 E.46073
G1 X176.552 Y148.909 E.01576
G1 X176.552 Y133.075 E.46073
G1 X176.935 Y132.692 E.01576
G1 X192.725 Y132.692 E.45945
SET_VELOCITY_LIMIT ACCEL=7000 ACCEL_TO_DECEL=3500
G1 E-.56 F1800
;WIPE_START
G1 F3000
G1 X192.769 Y132.692 E-.0105
G1 X193.152 Y133.075 E-.12994
G1 X193.152 Y133.49 E-.09956
;WIPE_END
G1 Z1 F21000
G1 X191.983 Y133.84 Z1
G1 Z.6
G1 E.8 F1800
SET_VELOCITY_LIMIT ACCEL=5000 ACCEL_TO_DECEL=2500
;Change extrusion role G-code

OFFSET_T2


;TYPE:Internal solid infill
;WIDTH:0.491068
G1 F6694.217
M106 S255
G1 X191.927 Y133.84 E.00205
G1 X191.899 Y133.889 E.00205
G1 X191.927 Y133.937 E.00205
G1 X191.991 Y133.924 E.00239
SET_VELOCITY_LIMIT ACCEL=7000 ACCEL_TO_DECEL=3500
G1 X191.088 Y133.587 F21000
SET_VELOCITY_LIMIT ACCEL=5000 ACCEL_TO_DECEL=2500
;WIDTH:0.481941
G1 F6833.386
G1 X192.06 Y134.559 E.04917
G1 X192.06 Y135.18 E.02221
