; HEADER_BLOCK_START
; generated by OrcaSlicer 2.2.0 on 2024-12-15 at 11:09:04
; total layer number: 100
; filament_density: 1.24,1.24,1.24,1.24,1.24
; filament_diameter: 1.75,1.75,1.75,1.75,1.75
; max_z_height: 20.00
; HEADER_BLOCK_END

; THUMBNAIL_BLOCK_START

;
; THUMBNAIL_BLOCK_END

; THUMBNAIL_BLOCK_START

;
; THUMBNAIL_BLOCK_END

; external perimeters extrusion width = 0.42mm
; perimeters extrusion width = 0.45mm
; infill extrusion width = 0.45mm
; solid infill extrusion width = 0.42mm
; top infill extrusion width = 0.42mm
; first layer extrusion width = 0.50mm

; EXECUTABLE_BLOCK_START
EXCLUDE_OBJECT_DEFINE NAME=Calibration_Cube.stl_id_0_copy_0 CENTER=176.676,168.274 POLYGON=[[166.676,160.274],[168.676,158.274],[184.676,158.274],[186.676,160.274],[186.676,176.274],[184.676,178.274],[168.676,178.274],[166.676,176.274],[166.676,160.274]]
M73 P0 R15
;TYPE:Custom
;START
M140 S35         ; set bed final temp
M190 S35         ; wait for bed final temp






G90
G21
M83 ; use relative distances for extrusion
; TESTING
T1



OFFSET_T1
M117 SET FILAMENT SENSOR OFF 
SET_FILAMENT_SENSOR SENSOR=encoder_t1 ENABLE=0
;_FORCE_RESUME_FAN_SPEED
; filament start gcode
M109 S200 T1 ; set nozzle temperature and wait for it to be reached
M106 S0
;LAYER_CHANGE
;Z:0.2
;HEIGHT:0.2
;BEFORE_LAYER_CHANGE
;0.2
G92 E0

OFFSET_T1
M117 SET FILAMENT SENSOR OFF 
SET_FILAMENT_SENSOR SENSOR=encoder_t1 ENABLE=0

M117 LAYER 0.2
G1 E-.4 F1800
;AFTER_LAYER_CHANGE
;0.2
;AFTER_LAYER_CHANGE
;0.2

OFFSET_T1
M117 SET FILAMENT SENSOR OFF 
SET_FILAMENT_SENSOR SENSOR=encoder_t1 ENABLE=0

;_SET_FAN_SPEED_CHANGING_LAYER
SET_VELOCITY_LIMIT ACCEL=500 ACCEL_TO_DECEL=250
G1 Z.6 F45000
G1 X166.204 Y157.802
G1 Z.6
G1 Z.2
G1 E.4 F1800
;Change extrusion role G-code

OFFSET_T1
M117 SET FILAMENT SENSOR OFF 
SET_FILAMENT_SENSOR SENSOR=encoder_t1 ENABLE=0


;TYPE:Skirt
;WIDTH:0.5
G1 F3000
G1 X166.454 Y157.552 E.01344
G1 X167.809 Y156.753 E.05978
G1 X168.676 Y156.631 E.03328
G1 X184.676 Y156.631 E.6081
G1 X186.199 Y157.025 E.05978
G1 X186.898 Y157.552 E.03328
G1 X187.398 Y158.052 E.02687
G1 X188.196 Y159.407 E.05978
G1 X188.318 Y160.274 E.03328
G1 X188.318 Y176.274 E.6081
G1 X187.925 Y177.797 E.05978
G1 X187.398 Y178.496 E.03328
G1 X186.898 Y178.996 E.02687
G1 X185.543 Y179.795 E.05978
G1 X184.676 Y179.917 E.03328
G1 X168.676 Y179.917 E.6081
G1 X167.153 Y179.523 E.05978
G1 X166.454 Y178.996 E.03328
G1 X165.954 Y178.496 E.02687
G1 X165.155 Y177.141 E.05978
G1 X165.033 Y176.274 E.03328
G1 X165.033 Y160.274 E.6081
G1 X165.427 Y158.751 E.05978
G1 X165.954 Y158.052 E.03328
G1 X166.175 Y157.83 E.01192
G1 X166.498 Y158.153 F45000
G1 F3000
G1 X166.777 Y157.875 E.01496
G1 X168.676 Y157.088 E.07812
G1 X184.676 Y157.088 E.6081
G1 X186.575 Y157.875 E.07812
G1 X187.075 Y158.375 E.02687
G1 X187.861 Y160.274 E.07812
G1 X187.861 Y176.274 E.6081
G1 X187.075 Y178.173 E.07812
G1 X186.575 Y178.673 E.02687
G1 X184.676 Y179.46 E.07812
G1 X168.676 Y179.46 E.6081
G1 X166.777 Y178.673 E.07812
G1 X166.277 Y178.173 E.02687
G1 X165.49 Y176.274 E.07812
G1 X165.49 Y160.274 E.6081
G1 X166.277 Y158.375 E.07812
G1 X166.47 Y158.181 E.0104
G1 X166.793 Y158.505 F45000
G1 F3000
G1 X167.1 Y158.198 E.01648
G1 X168.676 Y157.545 E.06483
G1 X184.676 Y157.545 E.6081
G1 X186.252 Y158.198 E.06483
G1 X186.752 Y158.698 E.02687
G1 X187.404 Y160.274 E.06483
G1 X187.404 Y176.274 E.6081
G1 X186.752 Y177.85 E.06483
G1 X186.252 Y178.35 E.02687
G1 X184.676 Y179.002 E.06483
G1 X168.676 Y179.002 E.6081
G1 X167.1 Y178.35 E.06483
G1 X166.6 Y177.85 E.02687
G1 X165.947 Y176.274 E.06483
G1 X165.947 Y160.274 E.6081
G1 X166.6 Y158.698 E.06483
G1 X166.765 Y158.533 E.00888
; printing object Calibration Cube.stl id:0 copy 0
G1 E-.28 F1800
;WIPE_START
G1 F3000
G1 X167.1 Y158.198 E-.05683
G1 X167.586 Y157.997 E-.06317
;WIPE_END
EXCLUDE_OBJECT_START NAME=Calibration_Cube.stl_id_0_copy_0
G1 Z.6 F45000
G1 X183.994 Y175.592 Z.6
G1 Z.2
G1 E.4 F1800
;Change extrusion role G-code

OFFSET_T1
M117 SET FILAMENT SENSOR OFF 
SET_FILAMENT_SENSOR SENSOR=encoder_t1 ENABLE=0


;TYPE:Inner wall
G1 F3000
G1 X169.358 Y175.592 E.55625
G1 X169.358 Y160.956 E.55625
G1 X183.994 Y160.956 E.55625
M73 P1 R15
G1 X183.994 Y175.552 E.55473
M73 P1 R15
G1 X184.451 Y176.049 F45000
;Change extrusion role G-code

OFFSET_T1
M117 SET FILAMENT SENSOR OFF 
SET_FILAMENT_SENSOR SENSOR=encoder_t1 ENABLE=0


;TYPE:Outer wall
G1 F3000
G1 X168.901 Y176.049 E.591
G1 X168.901 Y160.499 E.591
G1 X184.451 Y160.499 E.591
G1 X184.451 Y176.009 E.58948
G1 E-.28 F1800
;WIPE_START
G1 F3000
G1 X183.451 Y176.012 E-.12
;WIPE_END
G1 Z.6 F45000
G1 X182.92 Y161.093 Z.6
G1 Z.2
G1 E.4 F1800
;Change extrusion role G-code

OFFSET_T1
M117 SET FILAMENT SENSOR OFF 
SET_FILAMENT_SENSOR SENSOR=encoder_t1 ENABLE=0


;TYPE:Bottom surface
;WIDTH:0.505988
G1 F6300
G1 X183.651 Y161.824 E.0398
G1 X183.651 Y162.479 E.02522
G1 X182.471 Y161.299 E.06426
G1 X181.816 Y161.299 E.02522
G1 X183.651 Y163.134 E.09993
G1 X183.651 Y163.789 E.02522
G1 X181.161 Y161.299 E.13559
G1 X180.506 Y161.299 E.02522
G1 X183.651 Y164.444 E.17125
G1 X183.651 Y165.099 E.02522
G1 X179.851 Y161.299 E.20691
G1 X179.196 Y161.299 E.02522
G1 X183.651 Y165.753 E.24257
G1 X183.651 Y166.408 E.02522
G1 X178.541 Y161.299 E.27823
G1 X177.887 Y161.299 E.02522
G1 X183.651 Y167.063 E.31389
G1 X183.651 Y167.718 E.02522
G1 X177.232 Y161.299 E.34955
G1 X176.577 Y161.299 E.02522
G1 X183.651 Y168.373 E.38521
G1 X183.651 Y169.028 E.02522
G1 X175.922 Y161.299 E.42087
G1 X175.267 Y161.299 E.02522
G1 X183.651 Y169.683 E.45653
G1 X183.651 Y170.338 E.02522
G1 X174.612 Y161.299 E.49219
G1 X173.957 Y161.299 E.02522
G1 X183.651 Y170.992 E.52785
G1 X183.651 Y171.647 E.02522
G1 X173.302 Y161.299 E.56351
G1 X172.647 Y161.299 E.02522
G1 X183.651 Y172.302 E.59917
G1 X183.651 Y172.957 E.02522
G1 X171.993 Y161.299 E.63483
G1 X171.338 Y161.299 E.02522
G1 X183.651 Y173.612 E.67049
G1 X183.651 Y174.267 E.02522
G1 X170.683 Y161.299 E.70615
G1 X170.028 Y161.299 E.02522
G1 X183.651 Y174.922 E.74181
G1 X183.651 Y175.249 E.01261
G1 X183.323 Y175.249 E.01261
G1 X169.701 Y161.626 E.7418
G1 X169.701 Y162.281 E.02522
G1 X182.668 Y175.249 E.70614
M73 P2 R15
G1 X182.014 Y175.249 E.02522
M73 P2 R15
G1 X169.701 Y162.936 E.67048
G1 X169.701 Y163.591 E.02522
G1 X181.359 Y175.249 E.63482
G1 X180.704 Y175.249 E.02522
G1 X169.701 Y164.246 E.59916
G1 X169.701 Y164.901 E.02522
G1 X180.049 Y175.249 E.5635
G1 X179.394 Y175.249 E.02522
G1 X169.701 Y165.556 E.52784
G1 X169.701 Y166.21 E.02522
G1 X178.739 Y175.249 E.49218
G1 X178.084 Y175.249 E.02522
G1 X169.701 Y166.865 E.45652
G1 X169.701 Y167.52 E.02522
G1 X177.429 Y175.249 E.42086
G1 X176.775 Y175.249 E.02522
G1 X169.701 Y168.175 E.3852
G1 X169.701 Y168.83 E.02522
G1 X176.12 Y175.249 E.34954
G1 X175.465 Y175.249 E.02522
G1 X169.701 Y169.485 E.31388
G1 X169.701 Y170.14 E.02522
G1 X174.81 Y175.249 E.27822
G1 X174.155 Y175.249 E.02522
G1 X169.701 Y170.795 E.24256
G1 X169.701 Y171.449 E.02522
G1 X173.5 Y175.249 E.2069
G1 X172.845 Y175.249 E.02522
G1 X169.701 Y172.104 E.17124
G1 X169.701 Y172.759 E.02522
G1 X172.19 Y175.249 E.13558
G1 X171.536 Y175.249 E.02522
G1 X169.701 Y173.414 E.09992
G1 X169.701 Y174.069 E.02522
G1 X170.881 Y175.249 E.06426
G1 X170.226 Y175.249 E.02522
G1 X169.495 Y174.518 E.0398
; stop printing object Calibration Cube.stl id:0 copy 0
M106 S255
;LAYER_CHANGE
;Z:0.4
;HEIGHT:0.2
;BEFORE_LAYER_CHANGE
;0.4
G92 E0

OFFSET_T1
M117 SET FILAMENT SENSOR OFF 
SET_FILAMENT_SENSOR SENSOR=encoder_t1 ENABLE=0

M117 LAYER 0.4
G1 E-.28 F1800
;WIPE_START
G1 F6300
G1 X170.202 Y175.225 E-.12
;WIPE_END
EXCLUDE_OBJECT_END NAME=Calibration_Cube.stl_id_0_copy_0
;AFTER_LAYER_CHANGE
;0.4
;AFTER_LAYER_CHANGE
;0.4

OFFSET_T1
M117 SET FILAMENT SENSOR OFF 
SET_FILAMENT_SENSOR SENSOR=encoder_t1 ENABLE=0

;_SET_FAN_SPEED_CHANGING_LAYER
SET_VELOCITY_LIMIT ACCEL=6000 ACCEL_TO_DECEL=3000
M140 S35 ; set bed temperature
SET_VELOCITY_LIMIT ACCEL=10000 ACCEL_TO_DECEL=5000
G1 Z.8 F45000
G1 X170.202 Y179.002 Z.8
G1 Z.4
G1 E.4 F1800
SET_VELOCITY_LIMIT ACCEL=6000 ACCEL_TO_DECEL=3000
;Change extrusion role G-code

OFFSET_T1
M117 SET FILAMENT SENSOR OFF 
SET_FILAMENT_SENSOR SENSOR=encoder_t1 ENABLE=0


;TYPE:Skirt
;WIDTH:0.5
G1 F3000
G1 X184.676 Y179.002 E.55009
G1 X186.252 Y178.35 E.06483
G1 X186.752 Y177.85 E.02687
G1 X187.404 Y176.274 E.06483
G1 X187.404 Y160.274 E.6081
G1 X186.752 Y158.698 E.06483
G1 X186.252 Y158.198 E.02687
G1 X184.676 Y157.545 E.06483
G1 X168.676 Y157.545 E.6081
G1 X167.1 Y158.198 E.06483
G1 X166.6 Y158.698 E.02687
G1 X165.947 Y160.274 E.06483
G1 X165.947 Y176.274 E.6081
G1 X166.6 Y177.85 E.06483
G1 X167.1 Y178.35 E.02687
G1 X168.676 Y179.002 E.06483
G1 X170.162 Y179.002 E.05649
; printing object Calibration Cube.stl id:0 copy 0
SET_VELOCITY_LIMIT ACCEL=10000 ACCEL_TO_DECEL=5000
G1 E-.28 F1800
;WIPE_START
G1 F3000
G1 X171.162 Y179.002 E-.12
;WIPE_END
EXCLUDE_OBJECT_START NAME=Calibration_Cube.stl_id_0_copy_0
G1 Z.8 F45000
G1 X184.374 Y175.972 Z.8
G1 Z.4
G1 E.4 F1800
;Change extrusion role G-code

OFFSET_T1
M117 SET FILAMENT SENSOR OFF 
SET_FILAMENT_SENSOR SENSOR=encoder_t1 ENABLE=0


;TYPE:Inner wall
;WIDTH:0.45
G1 F7727
G1 X168.978 Y175.972 E.52113
G1 X168.978 Y160.576 E.52113
G1 X184.374 Y160.576 E.52113
G1 X184.374 Y175.932 E.51978
G1 X184.766 Y176.187 F45000
SET_VELOCITY_LIMIT ACCEL=5000 ACCEL_TO_DECEL=2500
;Change extrusion role G-code

OFFSET_T1
M117 SET FILAMENT SENSOR OFF 
SET_FILAMENT_SENSOR SENSOR=encoder_t1 ENABLE=0


;TYPE:Outer wall
;WIDTH:0.42
G1 F3600
G1 X184.589 Y176.364 E.00785
G1 X168.763 Y176.364 E.49621
G1 X168.586 Y176.187 E.00785
G1 X168.586 Y160.361 E.49621
G1 X168.763 Y160.184 E.00785
G1 X184.589 Y160.184 E.49621
G1 X184.766 Y160.361 E.00785
G1 X184.766 Y176.147 E.49496
SET_VELOCITY_LIMIT ACCEL=10000 ACCEL_TO_DECEL=5000
G1 E-.28 F1800
;WIPE_START
G1 F3600
G1 X184.589 Y176.364 E-.0336
G1 X183.869 Y176.364 E-.0864
;WIPE_END
G1 Z.8 F45000
G1 X183.444 Y175.808 Z.8
G1 Z.4
G1 E.4 F1800
SET_VELOCITY_LIMIT ACCEL=6000 ACCEL_TO_DECEL=3000
;Change extrusion role G-code

OFFSET_T1
M117 SET FILAMENT SENSOR OFF 
SET_FILAMENT_SENSOR SENSOR=encoder_t1 ENABLE=0


;TYPE:Internal solid infill
;WIDTH:0.421752
G1 F7727
G1 X184.04 Y175.212 E.02656
M73 P3 R15
G1 X184.04 Y174.676 E.01688
M73 P3 R15
G1 X183.078 Y175.639 E.04287
G1 X182.542 Y175.639 E.01688
G1 X184.04 Y174.14 E.06674
G1 X184.04 Y173.605 E.01688
G1 X182.007 Y175.639 E.0906
G1 X181.471 Y175.639 E.01688
G1 X184.04 Y173.069 E.11447
G1 X184.04 Y172.533 E.01688
G1 X180.935 Y175.639 E.13834
G1 X180.399 Y175.639 E.01688
G1 X184.04 Y171.997 E.1622
G1 X184.04 Y171.462 E.01688
G1 X179.864 Y175.639 E.18607
G1 X179.328 Y175.639 E.01688
G1 X184.04 Y170.926 E.20994
G1 X184.04 Y170.39 E.01688
G1 X178.792 Y175.639 E.2338
G1 X178.256 Y175.639 E.01688
G1 X184.04 Y169.854 E.25767
G1 X184.04 Y169.319 E.01688
G1 X177.721 Y175.639 E.28154
G1 X177.185 Y175.639 E.01688
G1 X184.04 Y168.783 E.3054
G1 X184.04 Y168.247 E.01688
G1 X176.649 Y175.639 E.32927
G1 X176.113 Y175.639 E.01688
G1 X184.04 Y167.711 E.35313
G1 X184.04 Y167.176 E.01688
G1 X175.578 Y175.639 E.377
G1 X175.042 Y175.639 E.01688
G1 X184.04 Y166.64 E.40087
G1 X184.04 Y166.104 E.01688
G1 X174.506 Y175.639 E.42473
G1 X173.97 Y175.639 E.01688
G1 X184.04 Y165.568 E.4486
G1 X184.04 Y165.033 E.01688
G1 X173.435 Y175.639 E.47247
G1 X172.899 Y175.639 E.01688
G1 X184.04 Y164.497 E.49633
G1 X184.04 Y163.961 E.01688
G1 X172.363 Y175.639 E.5202
G1 X171.827 Y175.639 E.01688
G1 X184.04 Y163.426 E.54407
G1 X184.04 Y162.89 E.01688
G1 X171.292 Y175.639 E.56793
G1 X170.756 Y175.639 E.01688
G1 X184.04 Y162.354 E.5918
G1 X184.04 Y161.818 E.01688
G1 X170.22 Y175.639 E.61567
G1 X169.684 Y175.639 E.01688
G1 X184.04 Y161.283 E.63953
M73 P3 R14
G1 X184.04 Y160.909 E.01176
M73 P3 R14
G1 X183.878 Y160.909 E.00512
G1 X169.311 Y175.476 E.64892
G1 X169.311 Y174.94 E.01688
G1 X183.342 Y160.909 E.62505
G1 X182.806 Y160.909 E.01688
G1 X169.311 Y174.405 E.60118
G1 X169.311 Y173.869 E.01688
G1 X182.271 Y160.909 E.57732
G1 X181.735 Y160.909 E.01688
G1 X169.311 Y173.333 E.55345
G1 X169.311 Y172.797 E.01688
G1 X181.199 Y160.909 E.52959
G1 X180.663 Y160.909 E.01688
G1 X169.311 Y172.262 E.50572
G1 X169.311 Y171.726 E.01688
G1 X180.128 Y160.909 E.48185
G1 X179.592 Y160.909 E.01688
G1 X169.311 Y171.19 E.45799
G1 X169.311 Y170.654 E.01688
G1 X179.056 Y160.909 E.43412
G1 X178.52 Y160.909 E.01688
G1 X169.311 Y170.119 E.41025
G1 X169.311 Y169.583 E.01688
G1 X177.985 Y160.909 E.38639
G1 X177.449 Y160.909 E.01688
G1 X169.311 Y169.047 E.36252
G1 X169.311 Y168.511 E.01688
G1 X176.913 Y160.909 E.33865
G1 X176.377 Y160.909 E.01688
G1 X169.311 Y167.976 E.31479
G1 X169.311 Y167.44 E.01688
G1 X175.842 Y160.909 E.29092
G1 X175.306 Y160.909 E.01688
G1 X169.311 Y166.904 E.26705
G1 X169.311 Y166.368 E.01688
G1 X174.77 Y160.909 E.24319
G1 X174.234 Y160.909 E.01688
G1 X169.311 Y165.833 E.21932
G1 X169.311 Y165.297 E.01688
G1 X173.699 Y160.909 E.19546
G1 X173.163 Y160.909 E.01688
G1 X169.311 Y164.761 E.17159
G1 X169.311 Y164.225 E.01688
G1 X172.627 Y160.909 E.14772
G1 X172.091 Y160.909 E.01688
G1 X169.311 Y163.69 E.12386
G1 X169.311 Y163.154 E.01688
G1 X171.556 Y160.909 E.09999
G1 X171.02 Y160.909 E.01688
G1 X169.311 Y162.618 E.07612
G1 X169.311 Y162.082 E.01688
G1 X170.484 Y160.909 E.05226
G1 X169.948 Y160.909 E.01688
G1 X169.141 Y161.716 E.03595
SET_VELOCITY_LIMIT ACCEL=10000 ACCEL_TO_DECEL=5000
G1 X169.406 Y160.936 F45000
SET_VELOCITY_LIMIT ACCEL=6000 ACCEL_TO_DECEL=3000
;WIDTH:0.442592
G1 F7727
G1 X169.331 Y160.979 E.00288
G1 X169.411 Y161.014 E.00289
; stop printing object Calibration Cube.stl id:0 copy 0
;LAYER_CHANGE
;Z:0.6
;HEIGHT:0.2
;BEFORE_LAYER_CHANGE
;0.6
G92 E0

OFFSET_T1
M117 SET FILAMENT SENSOR OFF 
SET_FILAMENT_SENSOR SENSOR=encoder_t1 ENABLE=0

M117 LAYER 0.6
G1 E-.3653 F1800
;WIPE_START
G1 F9007.386
G1 X169.331 Y160.979 E-.01741
G1 X169.406 Y160.936 E-.01729
;WIPE_END
EXCLUDE_OBJECT_END NAME=Calibration_Cube.stl_id_0_copy_0
;AFTER_LAYER_CHANGE
;0.6
;AFTER_LAYER_CHANGE
;0.6

OFFSET_T1
M117 SET FILAMENT SENSOR OFF 
SET_FILAMENT_SENSOR SENSOR=encoder_t1 ENABLE=0

;_SET_FAN_SPEED_CHANGING_LAYER
SET_VELOCITY_LIMIT ACCEL=10000 ACCEL_TO_DECEL=5000
G1 Z1 F45000
G1 X169.406 Y157.545 Z1
G1 Z.6
G1 E.4 F1800
SET_VELOCITY_LIMIT ACCEL=6000 ACCEL_TO_DECEL=3000
;Change extrusion role G-code

OFFSET_T1
M117 SET FILAMENT SENSOR OFF 
SET_FILAMENT_SENSOR SENSOR=encoder_t1 ENABLE=0


;TYPE:Skirt
;WIDTH:0.5
G1 F3000
G1 X184.676 Y157.545 E.58034
G1 X186.252 Y158.198 E.06483
G1 X186.752 Y158.698 E.02687
G1 X187.404 Y160.274 E.06483
G1 X187.404 Y176.274 E.6081
G1 X186.752 Y177.85 E.06483
G1 X186.252 Y178.35 E.02687
G1 X184.676 Y179.002 E.06483
G1 X168.676 Y179.002 E.6081
G1 X167.1 Y178.35 E.06483
G1 X166.6 Y177.85 E.02687
G1 X165.947 Y176.274 E.06483
G1 X165.947 Y160.274 E.6081
G1 X166.6 Y158.698 E.06483
G1 X167.1 Y158.198 E.02687
G1 X168.676 Y157.545 E.06483
G1 X169.366 Y157.545 E.02624
; printing object Calibration Cube.stl id:0 copy 0
SET_VELOCITY_LIMIT ACCEL=10000 ACCEL_TO_DECEL=5000
G1 E-.28 F1800
;WIPE_START
G1 F3000
G1 X170.366 Y157.545 E-.12
;WIPE_END
EXCLUDE_OBJECT_START NAME=Calibration_Cube.stl_id_0_copy_0
G1 Z1 F45000
G1 X184.574 Y176.025 Z1
G1 Z.6
G1 E.4 F1800
;Change extrusion role G-code

OFFSET_T1
M117 SET FILAMENT SENSOR OFF 
SET_FILAMENT_SENSOR SENSOR=encoder_t1 ENABLE=0


;TYPE:Inner wall
;WIDTH:0.45
G1 F8198
G1 X184.426 Y176.172 E.00705
G1 X168.925 Y176.172 E.5247
G1 X168.778 Y176.025 E.00705
G1 X168.778 Y160.523 E.5247
G1 X168.925 Y160.376 E.00705
G1 X184.426 Y160.376 E.5247
G1 X184.574 Y160.523 E.00705
G1 X184.574 Y175.985 E.52334
G1 X184.966 Y176.178 F45000
SET_VELOCITY_LIMIT ACCEL=5000 ACCEL_TO_DECEL=2500
;Change extrusion role G-code

OFFSET_T1
M117 SET FILAMENT SENSOR OFF 
SET_FILAMENT_SENSOR SENSOR=encoder_t1 ENABLE=0


;TYPE:Outer wall
;WIDTH:0.42
G1 F3600
G1 X184.966 Y176.187 E.00028
G1 X184.589 Y176.564 E.01672
G1 X168.763 Y176.564 E.49621
G1 X168.386 Y176.187 E.01672
G1 X168.386 Y160.361 E.49621
M73 P4 R14
G1 X168.763 Y159.984 E.01672
M73 P4 R14
G1 X184.589 Y159.984 E.49621
G1 X184.966 Y160.361 E.01672
G1 X184.966 Y176.138 E.49468
