; HEADER_BLOCK_START
; generated by OrcaSlicer 2.2.0 on 2024-12-13 at 11:56:38
; total layer number: 167
; filament_density: 1.27,1.24,1.24,1.24,1.24
; filament_diameter: 1.75,1.75,1.75,1.75,1.75
; max_z_height: 50.00
; HEADER_BLOCK_END

; THUMBNAIL_BLOCK_START

;
; THUMBNAIL_BLOCK_END

; THUMBNAIL_BLOCK_START

;
; THUMBNAIL_BLOCK_END

; external perimeters extrusion width = 0.40mm
; perimeters extrusion width = 0.44mm
; infill extrusion width = 0.44mm
; solid infill extrusion width = 0.48mm
; top infill extrusion width = 0.38mm
; first layer extrusion width = 0.48mm

; EXECUTABLE_BLOCK_START
EXCLUDE_OBJECT_DEFINE NAME=square_tower.stl_id_0_copy_0 CENTER=190,175 POLYGON=[[157,147],[157.109,145.96],[157.432,144.966],[157.955,144.061],[158.654,143.284],[159.5,142.67],[160.455,142.245],[161.477,142.027],[218.523,142.027],[219.545,142.245],[220.5,142.67],[221.346,143.284],[222.045,144.061],[222.568,144.966],[222.891,145.96],[223,147],[223,203],[222.891,204.04],[222.568,205.034],[222.045,205.939],[221.346,206.716],[220.5,207.33],[219.545,207.755],[218.523,207.973],[161.477,207.973],[160.455,207.755],[159.5,207.33],[158.654,206.716],[157.955,205.939],[157.432,205.034],[157.109,204.04],[157,203],[157,147]]
M73 P0 R52
;TYPE:Custom
;START
M140 S60         ; set bed final temp
M190 S60         ; wait for bed final temp






G90
G21
M83 ; use relative distances for extrusion
; TESTING
T2



OFFSET_T2
M117 SET FILAMENT SENSOR ON 
SET_FILAMENT_SENSOR SENSOR=encoder_t2 ENABLE=1
;_FORCE_RESUME_FAN_SPEED
; filament start gcode
M109 S220 T2 ; set nozzle temperature and wait for it to be reached
M106 S0
;LAYER_CHANGE
;Z:0.2
;HEIGHT:0.2
;BEFORE_LAYER_CHANGE
;0.2
G92 E0

OFFSET_T2

M117 LAYER 0.2
G1 E-.8 F1800
;AFTER_LAYER_CHANGE
;0.2
;AFTER_LAYER_CHANGE
;0.2

OFFSET_T2

;_SET_FAN_SPEED_CHANGING_LAYER
SET_VELOCITY_LIMIT ACCEL=500
G1 Z.6 F21000
G1 X156.345 Y141.286
G1 Z.6
G1 Z.2
G1 E.8 F1800
;Change extrusion role G-code

OFFSET_T2


;TYPE:Skirt
;WIDTH:0.48
G1 F3000
G1 X156.836 Y140.782 E.02506
G1 X158.242 Y139.845 E.06018
G1 X159.812 Y139.22 E.06018
G1 X161.477 Y138.935 E.06018
G1 X218.523 Y138.935 E2.03175
G1 X219.166 Y139.002 E.02303
G1 X220.188 Y139.22 E.03723
G1 X221.758 Y139.845 E.06018
G1 X223.163 Y140.782 E.06018
G1 X223.644 Y141.215 E.02303
G1 X224.343 Y141.992 E.03723
G1 X225.246 Y143.42 E.06018
G1 X225.832 Y145.005 E.06018
G1 X226.076 Y146.677 E.06017
G1 X226.093 Y203 E2.00604
G1 X225.966 Y204.363 E.04875
G1 X225.509 Y205.989 E.06018
G1 X224.723 Y207.485 E.06018
G1 X224.343 Y208.008 E.02303
G1 X223.163 Y209.218 E.06018
G1 X221.758 Y210.155 E.06017
G1 X220.188 Y210.78 E.06019
G1 X218.523 Y211.065 E.06018
G1 X161.477 Y211.065 E2.03175
G1 X159.812 Y210.78 E.06018
G1 X159.197 Y210.581 E.02303
G1 X157.682 Y209.832 E.06018
G1 X156.836 Y209.218 E.03723
G1 X155.657 Y208.008 E.06018
G1 X154.754 Y206.58 E.06017
G1 X154.168 Y204.995 E.06018
G1 X154.034 Y204.363 E.02303
G1 X153.907 Y203 E.04875
G1 X153.907 Y147 E1.99452
M73 P0 R51
G1 X154.034 Y145.637 E.04875
M73 P0 R51
G1 X154.491 Y144.011 E.06018
G1 X154.754 Y143.42 E.02303
G1 X155.657 Y141.992 E.06018
G1 X156.317 Y141.315 E.03369
G1 X156.628 Y141.616 F21000
G1 F3000
G1 X157.093 Y141.136 E.02381
G1 X158.42 Y140.244 E.05693
G1 X159.903 Y139.647 E.05693
G1 X161.477 Y139.372 E.05693
G1 X218.523 Y139.372 E2.03175
G1 X219.075 Y139.43 E.01977
G1 X220.097 Y139.647 E.03723
G1 X221.58 Y140.244 E.05693
G1 X222.907 Y141.136 E.05693
G1 X223.319 Y141.507 E.01978
G1 X224.019 Y142.284 E.03723
G1 X224.868 Y143.639 E.05693
G1 X225.416 Y145.14 E.05693
G1 X225.641 Y146.722 E.05693
G1 X225.656 Y203 E2.00441
G1 X225.532 Y204.317 E.04712
G1 X225.093 Y205.854 E.05693
G1 X224.345 Y207.267 E.05693
G1 X224.019 Y207.716 E.01977
G1 X222.907 Y208.864 E.05694
G1 X221.58 Y209.756 E.05693
G1 X220.097 Y210.353 E.05694
G1 X218.523 Y210.628 E.05693
G1 X161.477 Y210.628 E2.03175
G1 X159.903 Y210.353 E.05693
G1 X159.375 Y210.181 E.01978
G1 X158.42 Y209.756 E.03723
G1 X157.093 Y208.864 E.05693
G1 X155.981 Y207.716 E.05693
G1 X155.132 Y206.362 E.05693
G1 X154.584 Y204.86 E.05693
G1 X154.344 Y203 E.0668
G1 X154.344 Y147 E1.99452
G1 X154.468 Y145.683 E.04712
G1 X154.907 Y144.146 E.05693
G1 X155.132 Y143.638 E.01977
G1 X155.981 Y142.284 E.05693
G1 X156.601 Y141.645 E.0317
G1 X156.914 Y141.909 F21000
G1 F3000
G1 X157.006 Y141.8 E.00508
G1 X158.598 Y140.643 E.07009
G1 X159.994 Y140.075 E.05369
G1 X161.477 Y139.809 E.05369
G1 X218.984 Y139.857 E2.04818
G1 X220.006 Y140.075 E.03723
G1 X221.402 Y140.643 E.05369
G1 X222.994 Y141.8 E.07009
G1 X223.694 Y142.577 E.03723
G1 X224.489 Y143.857 E.05369
G1 X225.001 Y145.275 E.05368
G1 X225.206 Y146.768 E.05368
G1 X225.219 Y203 E2.00278
G1 X225.097 Y204.272 E.04549
G1 X224.678 Y205.719 E.05368
G1 X223.966 Y207.048 E.05368
G1 X222.994 Y208.2 E.05368
G1 X221.804 Y209.125 E.05369
G1 X220.448 Y209.782 E.05368
G1 X218.523 Y210.191 E.07009
G1 X161.477 Y210.191 E2.03175
G1 X159.552 Y209.782 E.07009
G1 X158.196 Y209.125 E.05368
G1 X157.006 Y208.2 E.05369
G1 X156.034 Y207.048 E.05368
G1 X155.322 Y205.719 E.05369
G1 X154.903 Y204.271 E.05369
G1 X154.781 Y203 E.04549
G1 X154.781 Y147 E1.99452
G1 X154.903 Y145.729 E.04549
G1 X155.322 Y144.281 E.05369
G1 X156.034 Y142.952 E.05369
G1 X156.888 Y141.939 E.04718
; printing object square_tower.stl id:0 copy 0
G1 E-.56 F1800
;WIPE_START
G1 F3000
G1 X157.006 Y141.8 E-.04385
G1 X157.667 Y141.319 E-.19615
;WIPE_END
EXCLUDE_OBJECT_START NAME=square_tower.stl_id_0_copy_0
G1 Z.6 F21000
G1 X219.367 Y199.357 Z.6
G1 Z.2
G1 E.8 F1800
;Change extrusion role G-code

OFFSET_T2


;TYPE:Inner wall
;WIDTH:0.479999
G1 F3000
G1 X219.437 Y199.41 E.00316
G1 X219.94 Y199.64 E.01968
G1 X220.596 Y200.117 E.02889
G1 X221.139 Y200.72 E.02889
G1 X221.544 Y201.422 E.02889
G1 X221.795 Y202.193 E.02889
G1 X221.88 Y203 E.02889
G1 X221.795 Y203.807 E.02889
G1 X221.544 Y204.578 E.02889
G1 X221.139 Y205.28 E.02889
G1 X220.596 Y205.883 E.02889
G1 X219.94 Y206.36 E.02889
G1 X219.199 Y206.69 E.02889
G1 X218.406 Y206.858 E.02889
G1 X217.594 Y206.858 E.02889
G1 X216.801 Y206.69 E.02889
G1 X216.06 Y206.36 E.02889
G1 X215.404 Y205.883 E.02889
G1 X214.864 Y205.283 E.02875
G1 X214.266 Y204.27 E.04191
G1 X214.069 Y204.089 E.00952
G1 X213.775 Y203.94 E.01172
G1 X213.434 Y203.886 E.01231
G1 X166.417 Y203.886 E1.67458
G1 X165.931 Y204.089 E.01874
G1 X165.734 Y204.27 E.00952
G1 X165.616 Y204.439 E.00734
G1 X165.136 Y205.283 E.0346
G1 X164.596 Y205.883 E.02875
G1 X163.94 Y206.36 E.02889
G1 X163.199 Y206.69 E.02889
G1 X162.406 Y206.858 E.02889
G1 X161.594 Y206.858 E.02889
G1 X160.801 Y206.69 E.02889
G1 X160.06 Y206.36 E.02889
G1 X159.404 Y205.883 E.02889
G1 X158.861 Y205.28 E.02889
G1 X158.456 Y204.578 E.02889
G1 X158.205 Y203.807 E.02889
G1 X158.12 Y203 E.02889
G1 X158.205 Y202.193 E.02889
G1 X158.456 Y201.422 E.02889
G1 X158.861 Y200.72 E.02889
G1 X159.404 Y200.117 E.02889
G1 X160.06 Y199.64 E.02889
G1 X160.674 Y199.338 E.02437
G1 X160.917 Y199.087 E.01244
G1 X161.061 Y198.797 E.01154
G1 X161.114 Y198.461 E.0121
G1 X161.114 Y151.539 E1.67121
G1 X161.061 Y151.203 E.0121
G1 X160.917 Y150.913 E.01154
G1 X160.795 Y150.768 E.00675
G1 X160.563 Y150.59 E.01044
G1 X160.06 Y150.36 E.01968
G1 X159.404 Y149.883 E.02889
G1 X158.861 Y149.28 E.02889
G1 X158.456 Y148.578 E.02889
G1 X158.205 Y147.807 E.02889
G1 X158.12 Y147 E.02889
G1 X158.205 Y146.193 E.02889
G1 X158.456 Y145.422 E.02889
G1 X158.861 Y144.72 E.02889
G1 X159.404 Y144.117 E.02889
G1 X160.06 Y143.64 E.02889
G1 X160.801 Y143.31 E.02889
G1 X161.594 Y143.142 E.02889
G1 X162.406 Y143.142 E.02889
G1 X163.199 Y143.31 E.02889
G1 X163.94 Y143.64 E.02889
G1 X164.596 Y144.117 E.02889
G1 X165.136 Y144.717 E.02875
G1 X165.734 Y145.73 E.04191
G1 X165.931 Y145.911 E.00952
G1 X166.225 Y146.06 E.01172
G1 X166.566 Y146.114 E.01231
G1 X213.583 Y146.114 E1.67458
G1 X214.069 Y145.911 E.01874
G1 X214.266 Y145.73 E.00952
G1 X214.384 Y145.561 E.00733
G1 X214.864 Y144.717 E.0346
G1 X215.404 Y144.117 E.02875
G1 X216.06 Y143.64 E.02889
G1 X216.801 Y143.31 E.02889
G1 X217.595 Y143.142 E.02889
G1 X218.405 Y143.142 E.02888
G1 X219.199 Y143.31 E.02889
G1 X219.94 Y143.64 E.02889
G1 X220.596 Y144.117 E.02889
G1 X221.139 Y144.72 E.02889
G1 X221.544 Y145.422 E.02889
G1 X221.795 Y146.193 E.02889
G1 X221.88 Y147 E.02889
G1 X221.795 Y147.807 E.02889
G1 X221.544 Y148.578 E.02889
G1 X221.139 Y149.28 E.02889
G1 X220.596 Y149.883 E.02889
G1 X219.94 Y150.36 E.02889
G1 X219.326 Y150.662 E.02437
G1 X219.083 Y150.913 E.01244
G1 X218.939 Y151.203 E.01154
G1 X218.886 Y151.539 E.0121
G1 X218.886 Y198.61 E1.67652
G1 X219.083 Y199.087 E.01837
G1 X219.205 Y199.233 E.00675
G1 X219.335 Y199.332 E.00586
G1 X219.611 Y198.992 F21000
G1 F3000
G1 X219.654 Y199.031 E.00208
G1 X220.16 Y199.26 E.01977
G1 X220.89 Y199.79 E.03216
G1 X221.494 Y200.461 E.03216
G1 X221.946 Y201.243 E.03216
G1 X222.225 Y202.102 E.03216
G1 X222.319 Y203 E.03216
G1 X222.225 Y203.898 E.03216
G1 X221.946 Y204.757 E.03216
G1 X221.494 Y205.539 E.03216
G1 X220.89 Y206.21 E.03216
G1 X220.16 Y206.741 E.03216
G1 X219.335 Y207.108 E.03216
G1 X218.451 Y207.296 E.03216
G1 X217.549 Y207.296 E.03216
G1 X216.665 Y207.108 E.03216
G1 X215.84 Y206.741 E.03216
G1 X215.11 Y206.21 E.03216
G1 X214.507 Y205.54 E.03208
G1 X213.933 Y204.553 E.04067
G1 X213.639 Y204.356 E.01263
G1 X213.434 Y204.323 E.00738
G1 X166.476 Y204.323 E1.67245
G1 X166.185 Y204.445 E.01124
G1 X165.996 Y204.655 E.01006
G1 X165.493 Y205.54 E.03629
G1 X164.89 Y206.21 E.03208
G1 X164.16 Y206.741 E.03216
G1 X163.335 Y207.108 E.03216
G1 X162.451 Y207.296 E.03216
G1 X161.549 Y207.296 E.03216
G1 X160.665 Y207.108 E.03216
G1 X159.84 Y206.741 E.03216
G1 X159.11 Y206.21 E.03216
G1 X158.506 Y205.539 E.03216
G1 X158.054 Y204.757 E.03216
G1 X157.775 Y203.898 E.03216
G1 X157.681 Y203 E.03216
G1 X157.775 Y202.102 E.03216
G1 X158.054 Y201.243 E.03216
G1 X158.506 Y200.461 E.03216
G1 X159.11 Y199.79 E.03216
G1 X159.84 Y199.26 E.03216
G1 X160.169 Y199.113 E.0128
G1 X160.486 Y198.924 E.01316
G1 X160.645 Y198.663 E.01091
G1 X160.677 Y198.461 E.00726
G1 X160.677 Y151.539 E1.67121
G1 X160.645 Y151.337 E.00726
G1 X160.559 Y151.163 E.00693
G1 X160.346 Y150.969 E.01025
G1 X159.84 Y150.741 E.01977
G1 X159.11 Y150.21 E.03216
G1 X158.506 Y149.539 E.03216
G1 X158.054 Y148.757 E.03216
G1 X157.775 Y147.898 E.03216
G1 X157.681 Y147 E.03216
G1 X157.775 Y146.102 E.03216
G1 X158.054 Y145.243 E.03216
G1 X158.506 Y144.461 E.03216
G1 X159.11 Y143.79 E.03216
G1 X159.84 Y143.259 E.03216
G1 X160.665 Y142.892 E.03216
G1 X161.549 Y142.704 E.03216
G1 X162.451 Y142.704 E.03216
G1 X163.335 Y142.892 E.03216
G1 X164.16 Y143.259 E.03216
G1 X164.89 Y143.79 E.03216
G1 X165.493 Y144.46 E.03208
G1 X166.067 Y145.447 E.04067
G1 X166.361 Y145.644 E.01263
G1 X166.566 Y145.677 E.00738
G1 X213.524 Y145.677 E1.67245
G1 X213.815 Y145.555 E.01124
G1 X214.004 Y145.345 E.01006
G1 X214.507 Y144.46 E.03629
G1 X215.11 Y143.79 E.03208
G1 X215.84 Y143.259 E.03216
G1 X216.665 Y142.892 E.03216
G1 X217.549 Y142.704 E.03216
G1 X218.451 Y142.704 E.03216
G1 X219.335 Y142.892 E.03216
G1 X220.16 Y143.259 E.03216
G1 X220.89 Y143.79 E.03216
G1 X221.494 Y144.461 E.03216
G1 X221.946 Y145.243 E.03216
G1 X222.225 Y146.102 E.03216
G1 X222.319 Y147 E.03216
G1 X222.225 Y147.898 E.03216
G1 X221.946 Y148.757 E.03216
G1 X221.494 Y149.539 E.03216
G1 X220.89 Y150.21 E.03216
G1 X220.16 Y150.741 E.03216
G1 X219.831 Y150.887 E.0128
G1 X219.514 Y151.076 E.01316
G1 X219.355 Y151.337 E.01091
G1 X219.323 Y151.539 E.00726
G1 X219.323 Y198.551 E1.67439
G1 X219.441 Y198.837 E.01102
G1 X219.581 Y198.965 E.00675
G1 X219.89 Y198.661 F21000
;Change extrusion role G-code

OFFSET_T2


;TYPE:Outer wall
G1 F3000
G1 X220.379 Y198.879 E.01909
G1 X221.184 Y199.464 E.03543
G1 X221.85 Y200.203 E.03543
G1 X222.347 Y201.064 E.03543
G1 X222.655 Y202.011 E.03543
G1 X222.759 Y203 E.03543
G1 X222.655 Y203.989 E.03543
G1 X222.347 Y204.936 E.03543
G1 X221.85 Y205.797 E.03543
G1 X221.184 Y206.536 E.03543
G1 X220.379 Y207.121 E.03543
G1 X219.471 Y207.526 E.03543
G1 X218.497 Y207.733 E.03543
M73 P1 R51
G1 X217.503 Y207.733 E.03543
M73 P1 R51
G1 X216.529 Y207.526 E.03543
G1 X215.621 Y207.121 E.03543
G1 X214.816 Y206.536 E.03543
G1 X214.151 Y205.798 E.0354
G1 X213.6 Y204.837 E.03944
G1 X213.434 Y204.76 E.00653
G1 X166.511 Y204.76 E1.67121
G1 X166.376 Y204.871 E.00622
G1 X165.849 Y205.798 E.03798
G1 X165.184 Y206.536 E.0354
G1 X164.379 Y207.121 E.03543
G1 X163.471 Y207.526 E.03543
G1 X162.497 Y207.733 E.03543
G1 X161.503 Y207.733 E.03543
G1 X160.529 Y207.526 E.03543
G1 X159.621 Y207.121 E.03543
G1 X158.816 Y206.536 E.03543
G1 X158.15 Y205.797 E.03543
G1 X157.653 Y204.936 E.03543
G1 X157.345 Y203.989 E.03543
G1 X157.241 Y203 E.03543
G1 X157.345 Y202.011 E.03543
G1 X157.653 Y201.064 E.03543
G1 X158.15 Y200.203 E.03543
G1 X158.816 Y199.464 E.03543
G1 X159.621 Y198.879 E.03543
G1 X160.176 Y198.615 E.0219
G1 X160.24 Y198.461 E.00594
G1 X160.24 Y151.483 E1.67318
G1 X160.11 Y151.339 E.00691
G1 X159.621 Y151.121 E.01909
G1 X158.816 Y150.536 E.03543
G1 X158.15 Y149.797 E.03543
G1 X157.653 Y148.936 E.03543
G1 X157.345 Y147.989 E.03543
G1 X157.241 Y147 E.03543
G1 X157.345 Y146.011 E.03543
G1 X157.653 Y145.064 E.03543
G1 X158.15 Y144.203 E.03543
G1 X158.816 Y143.464 E.03543
G1 X159.621 Y142.879 E.03543
G1 X160.529 Y142.474 E.03543
G1 X161.503 Y142.267 E.03543
G1 X162.497 Y142.267 E.03543
G1 X163.471 Y142.474 E.03543
G1 X164.379 Y142.879 E.03543
G1 X165.184 Y143.464 E.03543
G1 X165.849 Y144.202 E.0354
G1 X166.4 Y145.163 E.03944
G1 X166.566 Y145.24 E.00653
G1 X213.489 Y145.24 E1.67121
G1 X213.624 Y145.129 E.00622
G1 X214.151 Y144.202 E.03798
G1 X214.816 Y143.464 E.0354
G1 X215.621 Y142.879 E.03543
G1 X216.529 Y142.474 E.03543
G1 X217.503 Y142.267 E.03543
G1 X218.497 Y142.267 E.03543
G1 X219.471 Y142.474 E.03543
G1 X220.379 Y142.879 E.03543
G1 X221.184 Y143.464 E.03543
G1 X221.85 Y144.203 E.03543
G1 X222.347 Y145.064 E.03543
G1 X222.655 Y146.011 E.03543
G1 X222.759 Y147 E.03543
G1 X222.655 Y147.989 E.03543
G1 X222.347 Y148.936 E.03543
G1 X221.85 Y149.797 E.03543
G1 X221.184 Y150.536 E.03543
G1 X220.379 Y151.121 E.03543
G1 X219.824 Y151.385 E.0219
G1 X219.76 Y151.539 E.00594
G1 X219.76 Y198.517 E1.67318
G1 X219.863 Y198.631 E.00548
G1 E-.56 F1800
;WIPE_START
G1 F3000
G1 X220.379 Y198.879 E-.13747
G1 X220.725 Y199.13 E-.10253
;WIPE_END
G1 Z.6 F21000
G1 X216.614 Y175.278 Z.6
G1 Z.2
G1 E.8 F1800
;Change extrusion role G-code

OFFSET_T2


;TYPE:Inner wall
G1 F3000
G1 X216.614 Y176.021 E.02649
G1 X216.555 Y176.377 E.01286
G1 X216.394 Y176.68 E.01219
G1 X216.114 Y176.819 E.01112
G1 X216.114 Y200.021 E.82639
G1 X216.058 Y200.366 E.01244
G1 X215.859 Y200.723 E.01457
G1 X215.638 Y200.923 E.0106
G1 X215.287 Y201.081 E.01373
G1 X214.228 Y201.114 E.03774
G1 X191.819 Y201.114 E.79812
G1 X191.68 Y201.394 E.01112
G1 X191.377 Y201.555 E.01219
G1 X191.021 Y201.614 E.01286
G1 X188.979 Y201.614 E.07276
G1 X188.623 Y201.555 E.01286
G1 X188.32 Y201.394 E.01219
G1 X188.181 Y201.114 E.01112
G1 X164.979 Y201.114 E.82639
G1 X164.713 Y201.081 E.00952
G1 X164.333 Y200.903 E.01495
G1 X164.061 Y200.616 E.01409
G1 X163.942 Y200.366 E.00984
G1 X163.886 Y200.021 E.01244
G1 X163.886 Y172.819 E.96886
G1 X163.606 Y172.68 E.01112
G1 X163.445 Y172.377 E.01219
G1 X163.386 Y172.021 E.01286
G1 X163.386 Y169.979 E.07276
G1 X163.445 Y169.623 E.01286
G1 X163.606 Y169.32 E.01219
G1 X163.886 Y169.181 E.01112
G1 X163.886 Y149.979 E.68393
G1 X163.942 Y149.634 E.01244
G1 X164.141 Y149.277 E.01457
G1 X164.268 Y149.149 E.00641
G1 X164.519 Y148.987 E.01064
G1 X164.713 Y148.919 E.00734
G1 X165.772 Y148.886 E.03774
G1 X188.181 Y148.886 E.79812
G1 X188.32 Y148.606 E.01112
G1 X188.623 Y148.445 E.01219
G1 X188.979 Y148.386 E.01286
G1 X191.021 Y148.386 E.07276
G1 X191.377 Y148.445 E.01286
G1 X191.68 Y148.606 E.01219
G1 X191.819 Y148.886 E.01112
G1 X215.021 Y148.886 E.82639
G1 X215.287 Y148.919 E.00952
G1 X215.667 Y149.097 E.01495
G1 X215.939 Y149.385 E.01409
G1 X216.058 Y149.634 E.00984
G1 X216.114 Y149.979 E.01244
G1 X216.114 Y173.181 E.82639
G1 X216.394 Y173.32 E.01112
G1 X216.555 Y173.623 E.01219
G1 X216.614 Y173.979 E.01286
G1 X216.614 Y175.238 E.04485
