; generated by SuperSlicer 2.5.59.8 on 2024-08-14 at 15:09:40 UTC


;
;

;
;
; TODO: check the size of the extruder and the y-bar clearance. Optimize & test supports.

; external perimeters extrusion width = 0.84mm
; perimeters extrusion width = 0.84mm
; infill extrusion width = 0.84mm
; solid infill extrusion width = 0.84mm
; top infill extrusion width = 0.84mm
; first layer extrusion width = 0.84mm

; object:{"name":"part_2_holes_test","id":"part_2_holes_test.stl id:0 copy 0","object_center":[250.000000,250.000000,0.000000],"boundingbox_center":[250.000000,250.000000,1.500000],"boundingbox_size":[311.999939,316.000031,3.000000]}
; Total objects to print: 1
M486 T1
; plater:{"center":[250.000000,250.000000,0.000000],"boundingbox_center":[250.000000,250.000000,1.500000],"boundingbox_size":[311.999939,316.000031,3.000000]}

M107
M140 S60 ; set bed temperature
G10 P0 R205 ; sets the standby temperature
G10 P0 S215 ; set temperature
;TYPE:Custom
; M190 S0
; M109 S0 ; uncomment to remove set&wait temp gcode added automatically after this start gcode
print_start EXTRUDER=215 BED=60 CHAMBER=15
M107
G21 ; set units to millimeters
G90 ; use absolute coordinates
M83 ; use relative distances for extrusion
T0
G10 P0 S215 ; set temperature
M116 ; wait for temperature to be reached
M190 S60 ; set bed temperature and wait for it to be reached
;LAYER_CHANGE
;Z:0.3
;HEIGHT:0.3
;BEFORE_LAYER_CHANGE
;0.3


G1 Z0.3 F18000
;AFTER_LAYER_CHANGE
;0.3
G92 E0
G1 E-0.75 F3000
G1 Z0.7 F18000
M204 P1000 T1000
G1 X90.829 Y88.602
G1 Z0.3
G1 E0.75 F1800
;TYPE:Skirt
;WIDTH:0.78
M107
G1 X89.707 Y90.194 E0.17379
G1 X89.311 Y92.1 E0.17379
G1 X89.311 Y407.9 E28.18705
G1 X89.589 Y409.508 E0.14569
G1 X90.602 Y411.171 E0.17379
G1 X92.194 Y412.293 E0.17379
G1 X94.1 Y412.689 E0.17379
G1 X405.9 Y412.689 E27.83002
G1 X407.508 Y412.411 E0.14569
G1 X409.171 Y411.398 E0.17379
G1 X410.293 Y409.806 E0.17379
G1 X410.689 Y407.9 E0.17379
G1 X410.689 Y162.1 E21.93913
G1 X410.355 Y160.342 E0.15976
G1 X409.286 Y158.714 E0.17379
G1 X339.286 Y88.714 E8.83589
G1 X337.806 Y87.707 E0.15976
G1 X335.9 Y87.311 E0.17379
G1 X94.1 Y87.311 E21.5821
G1 X92.492 Y87.589 E0.14569
G1 X90.906 Y88.555 E0.16576
M107
G1 X91.478 Y89.005 F18000
M107
G1 F1800
G1 X90.422 Y90.35 E0.15263
G1 X90.027 Y92.1 E0.16013
G1 X90.027 Y407.9 E28.18705
G1 X90.142 Y408.863 E0.08653
G1 X90.939 Y410.47 E0.16013
G1 X92.35 Y411.578 E0.16013
G1 X94.1 Y411.973 E0.16013
G1 X405.9 Y411.973 E27.83002
G1 X406.863 Y411.858 E0.08653
G1 X408.47 Y411.061 E0.16013
G1 X409.578 Y409.65 E0.16013
G1 X409.973 Y407.9 E0.16013
G1 X409.973 Y162.1 E21.93913
G1 X409.738 Y160.736 E0.1235
G1 X408.78 Y159.22 E0.16013
G1 X338.78 Y89.22 E8.83589
G1 X337.65 Y88.422 E0.1235
G1 X335.9 Y88.027 E0.16013
G1 X94.1 Y88.027 E21.5821
G1 X93.137 Y88.142 E0.08653
G1 X91.536 Y88.937 E0.1596
M107
G1 X92.104 Y89.449 F18000
M107
G1 F1800
G1 X91.136 Y90.522 E0.12892
G1 X90.742 Y92.1 E0.1452
G1 X90.742 Y407.9 E28.18705
G1 X91.314 Y409.774 E0.17489
G1 X92.522 Y410.864 E0.1452
G1 X94.1 Y411.258 E0.1452
G1 X405.9 Y411.258 E27.83002
G1 X407.774 Y410.686 E0.17489
G1 X408.864 Y409.478 E0.1452
G1 X409.258 Y407.9 E0.1452
G1 X409.258 Y162.1 E21.93913
G1 X409.112 Y161.12 E0.08841
G1 X408.274 Y159.726 E0.1452
G1 X338.274 Y89.726 E8.83589
G1 X337.478 Y89.136 E0.08841
G1 X335.9 Y88.742 E0.1452
G1 X94.1 Y88.742 E21.5821
G1 X92.226 Y89.314 E0.17489
G1 X92.164 Y89.382 E0.00825
M107
G1 E-0.75 F3000
M204 P1500 T1000
G1 Z0.7 F18000
; printing object part_2_holes_test.stl id:0 copy 0
M486 S0
; acceleration to travel
M204 P1500 T1500
G1 X257.843 Y256.13
; decel to extrusion
M204 P1500 T1000
G1 X368.296 Y367.296
; end travel
M204 P1000 T1500
G1 Z0.3
G1 E0.75 F1800
;TYPE:Internal perimeter
;WIDTH:0.84
M107
G1 X368.296 Y184.704 E17.66379
G1 X318.296 Y184.704 E4.83698
G1 X318.296 Y114.704 E6.77177
G1 X115.704 Y114.704 E19.59858
G1 X115.704 Y367.296 E24.43556
G1 X368.206 Y367.296 E24.42685
M107
M204 P1000 T1000
G1 X367.52 Y366.52 F18000
;TYPE:External perimeter
M107
G1 F1800
G1 X367.52 Y185.48 E17.51373
G1 X317.52 Y185.48 E4.83698
G1 X317.52 Y115.48 E6.77177
G1 X116.48 Y115.48 E19.44852
G1 X116.48 Y366.52 E24.28549
G1 X367.43 Y366.52 E24.27679
M107
;WIPE_START
M204 P1500 T1000
G1 X368.12 Y366.52 F18000
;WIPE_END
G1 E-0.75 F3000
G1 Z0.7 F18000
; acceleration to travel
M204 P1500 T1500
G1 X226.834 Y209.778
; decel to extrusion
M204 P1500 T1000
G1 X132.643 Y105.284
; end travel
M204 P1000 T1500
G1 Z0.3
G1 E0.75 F1800
;TYPE:Internal perimeter
M107
G1 X132.709 Y105.276 E0.00642
G1 X133.362 Y105.063 E0.06643
G1 X133.923 Y104.746 E0.06234
G1 X134.439 Y104.3 E0.06603
G1 X134.834 Y103.79 E0.06235
G1 X135.14 Y103.175 E0.06644
G1 X135.305 Y102.559 E0.06171
G1 X135.351 Y101.93 E0.06102
G1 X135.278 Y101.296 E0.06172
G1 X135.065 Y100.643 E0.06644
G1 X134.752 Y100.087 E0.06177
G1 X134.337 Y99.597 E0.06212
G1 X133.798 Y99.171 E0.06647
G1 X133.223 Y98.879 E0.06241
G1 X132.561 Y98.695 E0.06643
G1 X131.925 Y98.649 E0.06171
G1 X131.291 Y98.724 E0.06172
G1 X130.638 Y98.937 E0.06644
G1 X130.077 Y99.254 E0.06234
G1 X129.561 Y99.7 E0.06603
G1 X129.17 Y100.204 E0.06167
G1 X128.884 Y100.766 E0.06103
G1 X128.706 Y101.379 E0.06172
G1 X128.648 Y102.063 E0.06643
G1 X128.722 Y102.704 E0.06241
G1 X128.935 Y103.357 E0.06644
G1 X129.248 Y103.913 E0.06177
G1 X129.658 Y104.398 E0.06143
G1 X130.155 Y104.799 E0.06176
G1 X130.764 Y105.116 E0.06643
G1 X131.384 Y105.295 E0.0624
G1 X132.068 Y105.352 E0.06643
G1 X132.554 Y105.295 E0.04727
M107
M204 P1000 T1000
G1 X132.542 Y104.515 F18000
;TYPE:External perimeter
M107
G1 F1800
G1 X133.047 Y104.35 E0.05145
G1 X133.474 Y104.109 E0.0474
G1 X133.874 Y103.763 E0.05111
G1 X134.174 Y103.376 E0.0474
G1 X134.41 Y102.9 E0.05146
G1 X134.536 Y102.429 E0.04713
G1 X134.572 Y101.946 E0.04684
G1 X134.516 Y101.462 E0.04714
G1 X134.352 Y100.956 E0.05146
G1 X134.112 Y100.532 E0.04715
G1 X133.795 Y100.157 E0.04748
G1 X133.378 Y99.827 E0.05147
G1 X132.941 Y99.605 E0.04743
G1 X132.428 Y99.463 E0.05145
G1 X131.942 Y99.428 E0.04713
G1 X131.458 Y99.485 E0.04714
G1 X130.953 Y99.65 E0.05146
G1 X130.526 Y99.891 E0.04739
G1 X130.126 Y100.237 E0.05111
G1 X129.828 Y100.622 E0.04711
G1 X129.608 Y101.053 E0.04684
G1 X129.472 Y101.521 E0.04713
G1 X129.428 Y102.051 E0.05145
G1 X129.484 Y102.538 E0.04743
G1 X129.648 Y103.044 E0.05146
G1 X129.888 Y103.468 E0.04715
G1 X130.203 Y103.841 E0.04719
G1 X130.582 Y104.147 E0.04715
G1 X131.054 Y104.392 E0.05145
G1 X131.525 Y104.529 E0.04743
G1 X132.055 Y104.572 E0.05145
G1 X132.452 Y104.526 E0.03872
M107
;WIPE_START
M204 P1500 T1000
G1 X132.961 Y104.945 F18000
;WIPE_END
G1 E-0.75 F3000
G1 Z0.7 F18000
; acceleration to travel
M204 P1500 T1500
G1 X119.953 Y131.323
; decel to extrusion
M204 P1500 T1000
G1 X111.282 Y148.909
; end travel
M204 P1000 T1500
G1 Z0.3
G1 E0.75 F1800
;TYPE:Internal perimeter
M107
G1 X111.222 Y148.879 E0.00642
G1 X110.561 Y148.695 E0.06643
G1 X109.925 Y148.649 E0.06171
G1 X109.291 Y148.724 E0.06171
G1 X108.638 Y148.937 E0.06644
G1 X108.077 Y149.254 E0.06235
G1 X107.561 Y149.7 E0.06603
G1 X107.166 Y150.21 E0.06235
G1 X106.86 Y150.825 E0.06643
G1 X106.695 Y151.441 E0.06171
G1 X106.649 Y152.07 E0.06102
G1 X106.722 Y152.704 E0.06172
G1 X106.935 Y153.357 E0.06644
G1 X107.248 Y153.913 E0.06177
G1 X107.663 Y154.403 E0.06212
G1 X108.202 Y154.829 E0.06648
G1 X108.777 Y155.121 E0.0624
G1 X109.439 Y155.305 E0.06643
G1 X110.075 Y155.351 E0.06171
G1 X110.709 Y155.276 E0.06172
G1 X111.362 Y155.063 E0.06643
G1 X111.923 Y154.746 E0.06234
G1 X112.439 Y154.3 E0.06603
G1 X112.834 Y153.79 E0.06235
G1 X113.14 Y153.175 E0.06643
G1 X113.305 Y152.559 E0.06172
G1 X113.351 Y151.93 E0.06102
G1 X113.278 Y151.296 E0.06172
G1 X113.065 Y150.643 E0.06643
G1 X112.752 Y150.087 E0.06177
G1 X112.337 Y149.597 E0.06212
G1 X111.798 Y149.171 E0.06648
G1 X111.362 Y148.949 E0.04728
M107
M204 P1000 T1000
G1 X110.94 Y149.605 F18000
;TYPE:External perimeter
M107
G1 F1800
G1 X110.428 Y149.463 E0.05145
G1 X109.942 Y149.428 E0.04713
G1 X109.458 Y149.485 E0.04713
G1 X108.953 Y149.65 E0.05146
G1 X108.526 Y149.891 E0.0474
G1 X108.126 Y150.237 E0.05111
G1 X107.826 Y150.624 E0.0474
G1 X107.59 Y151.1 E0.05145
G1 X107.463 Y151.571 E0.04713
G1 X107.428 Y152.054 E0.04684
G1 X107.484 Y152.538 E0.04714
G1 X107.648 Y153.044 E0.05146
G1 X107.888 Y153.468 E0.04716
G1 X108.205 Y153.843 E0.04748
G1 X108.622 Y154.173 E0.05147
G1 X109.059 Y154.395 E0.04742
G1 X109.572 Y154.537 E0.05146
G1 X110.058 Y154.572 E0.04713
G1 X110.542 Y154.515 E0.04714
G1 X111.047 Y154.35 E0.05145
G1 X111.474 Y154.109 E0.0474
G1 X111.874 Y153.763 E0.05111
G1 X112.174 Y153.376 E0.0474
G1 X112.41 Y152.9 E0.05146
G1 X112.536 Y152.429 E0.04713
G1 X112.572 Y151.946 E0.04684
G1 X112.516 Y151.462 E0.04714
G1 X112.352 Y150.956 E0.05145
G1 X112.112 Y150.532 E0.04716
G1 X111.795 Y150.157 E0.04748
G1 X111.378 Y149.827 E0.05147
G1 X111.021 Y149.646 E0.03872
M107
;WIPE_START
M204 P1500 T1000
G1 X110.829 Y149.016 F18000
;WIPE_END
G1 E-0.75 F3000
G1 Z0.7 F18000
; acceleration to travel
M204 P1500 T1500
G1 X108.656 Y209.701
; decel to extrusion
M204 P1500 T1000
G1 X107.206 Y250.157
; end travel
M204 P1000 T1500
G1 Z0.3
G1 E0.75 F1800
;TYPE:Internal perimeter
M107
G1 X107.166 Y250.21 E0.00642
G1 X106.86 Y250.825 E0.06644
G1 X106.695 Y251.441 E0.06171
G1 X106.649 Y252.07 E0.06102
G1 X106.722 Y252.704 E0.06172
G1 X106.935 Y253.357 E0.06643
G1 X107.248 Y253.913 E0.06177
G1 X107.658 Y254.398 E0.06143
G1 X108.155 Y254.799 E0.06176
G1 X108.764 Y255.116 E0.06644
G1 X109.384 Y255.295 E0.0624
G1 X110.068 Y255.352 E0.06643
G1 X110.709 Y255.276 E0.0624
G1 X111.362 Y255.063 E0.06644
G1 X111.923 Y254.746 E0.06234
G1 X112.439 Y254.3 E0.06603
G1 X112.834 Y253.79 E0.06236
G1 X113.14 Y253.175 E0.06644
G1 X113.305 Y252.559 E0.06171
G1 X113.351 Y251.93 E0.06102
G1 X113.278 Y251.296 E0.06172
G1 X113.065 Y250.643 E0.06643
G1 X112.752 Y250.087 E0.06177
G1 X112.337 Y249.597 E0.06211
G1 X111.798 Y249.171 E0.06648
G1 X111.223 Y248.879 E0.06241
G1 X110.561 Y248.695 E0.06643
G1 X109.925 Y248.649 E0.06171
G1 X109.291 Y248.724 E0.06171
G1 X108.638 Y248.937 E0.06644
G1 X108.077 Y249.254 E0.06235
G1 X107.561 Y249.7 E0.06603
G1 X107.262 Y250.086 E0.04723
M107
M204 P1000 T1000
G1 X107.826 Y250.624 F18000
;TYPE:External perimeter
M107
G1 F1800
G1 X107.59 Y251.1 E0.05146
G1 X107.463 Y251.571 E0.04713
G1 X107.428 Y252.054 E0.04684
G1 X107.484 Y252.538 E0.04714
G1 X107.648 Y253.044 E0.05146
G1 X107.888 Y253.468 E0.04716
G1 X108.203 Y253.841 E0.04718
G1 X108.582 Y254.147 E0.04715
G1 X109.054 Y254.393 E0.05146
G1 X109.525 Y254.529 E0.04743
G1 X110.055 Y254.572 E0.05145
G1 X110.542 Y254.515 E0.04742
G1 X111.047 Y254.35 E0.05146
G1 X111.474 Y254.109 E0.04739
G1 X111.874 Y253.763 E0.05111
G1 X112.174 Y253.376 E0.0474
G1 X112.41 Y252.9 E0.05146
G1 X112.536 Y252.429 E0.04713
G1 X112.572 Y251.946 E0.04684
G1 X112.516 Y251.462 E0.04714
G1 X112.352 Y250.956 E0.05146
G1 X112.112 Y250.532 E0.04716
G1 X111.795 Y250.157 E0.04747
G1 X111.378 Y249.827 E0.05148
G1 X110.941 Y249.605 E0.04743
G1 X110.428 Y249.463 E0.05145
G1 X109.942 Y249.428 E0.04713
G1 X109.458 Y249.485 E0.04713
G1 X108.953 Y249.65 E0.05146
G1 X108.526 Y249.891 E0.0474
G1 X108.126 Y250.237 E0.05111
G1 X107.881 Y250.553 E0.0387
M107
;WIPE_START
M204 P1500 T1000
G1 X107.226 Y250.622 F18000
;WIPE_END
G1 E-0.75 F3000
G1 Z0.7 F18000
; acceleration to travel
M204 P1500 T1500
G1 X110.567 Y312.554
; decel to extrusion
M204 P1500 T1000
G1 X112.794 Y353.843
; end travel
M204 P1000 T1500
G1 Z0.3
G1 E0.75 F1800
;TYPE:Internal perimeter
M107
G1 X112.834 Y353.79 E0.00642
G1 X113.14 Y353.175 E0.06643
G1 X113.305 Y352.559 E0.06172
G1 X113.351 Y351.93 E0.06102
G1 X113.278 Y351.296 E0.06172
G1 X113.065 Y350.643 E0.06644
G1 X112.752 Y350.087 E0.06177
G1 X112.337 Y349.597 E0.06212
G1 X111.798 Y349.171 E0.06648
G1 X111.222 Y348.879 E0.06241
G1 X110.561 Y348.695 E0.06643
G1 X109.925 Y348.649 E0.06171
G1 X109.291 Y348.724 E0.06172
G1 X108.638 Y348.937 E0.06643
G1 X108.077 Y349.254 E0.06234
G1 X107.561 Y349.7 E0.06604
G1 X107.166 Y350.21 E0.06235
G1 X106.86 Y350.825 E0.06644
G1 X106.695 Y351.441 E0.06171
G1 X106.649 Y352.07 E0.06102
G1 X106.722 Y352.704 E0.06172
G1 X106.935 Y353.357 E0.06644
G1 X107.248 Y353.913 E0.06177
G1 X107.663 Y354.403 E0.06212
G1 X108.202 Y354.829 E0.06648
G1 X108.771 Y355.118 E0.06172
G1 X109.384 Y355.295 E0.06171
G1 X110.068 Y355.352 E0.06643
G1 X110.709 Y355.276 E0.0624
G1 X111.362 Y355.063 E0.06643
G1 X111.923 Y354.746 E0.06234
G1 X112.439 Y354.3 E0.06604
G1 X112.738 Y353.914 E0.04722
M107
M204 P1000 T1000
G1 X112.174 Y353.376 F18000
;TYPE:External perimeter
M107
G1 F1800
G1 X112.41 Y352.9 E0.05145
G1 X112.536 Y352.429 E0.04714
G1 X112.572 Y351.946 E0.04683
G1 X112.516 Y351.462 E0.04714
G1 X112.352 Y350.956 E0.05146
G1 X112.112 Y350.532 E0.04716
G1 X111.795 Y350.157 E0.04748
G1 X111.378 Y349.827 E0.05147
G1 X110.941 Y349.605 E0.04743
G1 X110.428 Y349.463 E0.05145
G1 X109.942 Y349.428 E0.04713
G1 X109.458 Y349.485 E0.04713
G1 X108.953 Y349.65 E0.05145
G1 X108.526 Y349.891 E0.0474
G1 X108.126 Y350.237 E0.05112
G1 X107.826 Y350.624 E0.0474
G1 X107.59 Y351.1 E0.05146
G1 X107.463 Y351.571 E0.04713
G1 X107.428 Y352.054 E0.04684
G1 X107.484 Y352.538 E0.04714
G1 X107.648 Y353.044 E0.05146
G1 X107.888 Y353.468 E0.04716
G1 X108.205 Y353.843 E0.04748
G1 X108.622 Y354.173 E0.05147
G1 X109.057 Y354.393 E0.04714
G1 X109.525 Y354.529 E0.04713
G1 X110.055 Y354.572 E0.05146
G1 X110.542 Y354.515 E0.04742
G1 X111.047 Y354.35 E0.05145
G1 X111.474 Y354.109 E0.0474
G1 X111.874 Y353.763 E0.05112
G1 X112.119 Y353.447 E0.03869
M107
;WIPE_START
M204 P1500 T1000
G1 X112.774 Y353.378 F18000
;WIPE_END
G1 E-0.75 F3000
G1 Z0.7 F18000
; acceleration to travel
M204 P1500 T1500
G1 X137.986 Y374.657
; decel to extrusion
M204 P1500 T1000
G1 X154.794 Y388.843
; end travel
M204 P1000 T1500
G1 Z0.3
G1 E0.75 F1800
;TYPE:Internal perimeter
M107
G1 X154.834 Y388.79 E0.00642
G1 X155.14 Y388.175 E0.06644
G1 X155.305 Y387.559 E0.06171
G1 X155.351 Y386.93 E0.06102
G1 X155.278 Y386.296 E0.06172
G1 X155.065 Y385.643 E0.06644
G1 X154.752 Y385.087 E0.06176
G1 X154.337 Y384.597 E0.06213
G1 X153.798 Y384.171 E0.06648
G1 X153.229 Y383.882 E0.06171
G1 X152.616 Y383.705 E0.06171
G1 X151.932 Y383.648 E0.06644
G1 X151.291 Y383.724 E0.0624
G1 X150.638 Y383.937 E0.06643
G1 X150.077 Y384.254 E0.06235
G1 X149.561 Y384.7 E0.06604
G1 X149.17 Y385.204 E0.06166
G1 X148.884 Y385.766 E0.06103
G1 X148.706 Y386.379 E0.06171
G1 X148.648 Y387.063 E0.06643
G1 X148.722 Y387.704 E0.06241
G1 X148.937 Y388.364 E0.06713
G1 X149.284 Y388.965 E0.06718
G1 X149.709 Y389.447 E0.06212
G1 X150.214 Y389.837 E0.06176
G1 X150.83 Y390.141 E0.06644
G1 X151.446 Y390.305 E0.06171
G1 X152.075 Y390.351 E0.06102
G1 X152.709 Y390.276 E0.06172
G1 X153.362 Y390.063 E0.06643
G1 X153.923 Y389.746 E0.06234
G1 X154.439 Y389.3 E0.06603
G1 X154.738 Y388.914 E0.04723
M107
M204 P1000 T1000
G1 X154.174 Y388.376 F18000
;TYPE:External perimeter
M107
G1 F1800
G1 X154.41 Y387.9 E0.05146
G1 X154.536 Y387.429 E0.04713
G1 X154.572 Y386.946 E0.04684
G1 X154.516 Y386.462 E0.04714
G1 X154.352 Y385.956 E0.05146
G1 X154.112 Y385.532 E0.04715
G1 X153.795 Y385.157 E0.04748
G1 X153.378 Y384.827 E0.05147
G1 X152.943 Y384.607 E0.04713
G1 X152.475 Y384.471 E0.04713
G1 X151.945 Y384.428 E0.05146
G1 X151.458 Y384.485 E0.04742
G1 X150.953 Y384.65 E0.05145
G1 X150.526 Y384.891 E0.0474
G1 X150.126 Y385.237 E0.05112
G1 X149.828 Y385.622 E0.04711
G1 X149.608 Y386.053 E0.04684
G1 X149.472 Y386.521 E0.04713
G1 X149.428 Y387.051 E0.05145
G1 X149.484 Y387.538 E0.04743
G1 X149.649 Y388.047 E0.05175
G1 X149.917 Y388.51 E0.05177
G1 X150.242 Y388.878 E0.04748
G1 X150.627 Y389.176 E0.04715
G1 X151.104 Y389.412 E0.05146
G1 X151.575 Y389.537 E0.04713
G1 X152.058 Y389.572 E0.04684
G1 X152.542 Y389.515 E0.04714
G1 X153.047 Y389.35 E0.05145
G1 X153.474 Y389.109 E0.04739
G1 X153.874 Y388.763 E0.05112
G1 X154.119 Y388.447 E0.0387
M107
;WIPE_START
M204 P1500 T1000
G1 X154.774 Y388.378 F18000
;WIPE_END
G1 E-0.75 F3000
G1 Z0.7 F18000
; acceleration to travel
M204 P1500 T1500
G1 X213.495 Y389.522
; decel to extrusion
M204 P1500 T1000
G1 X252.643 Y390.284
