; generated by SuperSlicer 2.5.59.8 on 2024-08-16 at 17:21:17 UTC


;
;

;
;
; TODO: check the size of the extruder and the y-bar clearance. Optimize & test supports.

; external perimeters extrusion width = 0.84mm
; perimeters extrusion width = 0.84mm
; infill extrusion width = 0.84mm
; solid infill extrusion width = 0.84mm
; top infill extrusion width = 0.84mm
; first layer extrusion width = 0.84mm

; object:{"name":"part_4_holes","id":"part_4_holes.stl id:0 copy 0","object_center":[250.000000,250.000000,0.000000],"boundingbox_center":[250.000000,250.000000,1.500000],"boundingbox_size":[311.999939,316.000000,3.000000]}
; Total objects to print: 1
M486 T1
; plater:{"center":[250.000000,250.000000,0.000000],"boundingbox_center":[250.000000,250.000000,1.500000],"boundingbox_size":[311.999939,316.000000,3.000000]}

M107
M140 S60 ; set bed temperature
G10 P0 R205 ; sets the standby temperature
G10 P0 S215 ; set temperature
;TYPE:Custom
; M190 S0
; M109 S0 ; uncomment to remove set&wait temp gcode added automatically after this start gcode
print_start EXTRUDER=215 BED=60 CHAMBER=15
M107
G21 ; set units to millimeters
G90 ; use absolute coordinates
M83 ; use relative distances for extrusion
T0
G10 P0 S215 ; set temperature
M116 ; wait for temperature to be reached
M190 S60 ; set bed temperature and wait for it to be reached
;LAYER_CHANGE
;Z:0.3
;HEIGHT:0.3
;BEFORE_LAYER_CHANGE
;0.3


G1 Z0.3 F18000
;AFTER_LAYER_CHANGE
;0.3
G92 E0
G1 E-0.75 F3000
G1 Z0.7 F18000
M204 P1000 T1000
G1 X90.829 Y88.602
G1 Z0.3
G1 E0.75 F1800
;TYPE:Skirt
;WIDTH:0.78
M107
G1 X89.707 Y90.194 E0.17379
G1 X89.311 Y92.1 E0.17379
G1 X89.311 Y407.9 E28.18704
G1 X89.589 Y409.508 E0.14569
G1 X90.602 Y411.171 E0.17379
G1 X92.194 Y412.293 E0.17379
G1 X94.1 Y412.689 E0.17379
G1 X335.9 Y412.689 E21.5821
G1 X337.658 Y412.355 E0.15976
G1 X339.286 Y411.286 E0.17379
G1 X409.286 Y341.286 E8.83589
G1 X410.293 Y339.806 E0.15976
G1 X410.689 Y337.9 E0.17379
G1 X410.689 Y92.1 E21.93912
G1 X410.411 Y90.492 E0.14569
G1 X409.398 Y88.829 E0.17379
G1 X407.806 Y87.707 E0.17379
G1 X405.9 Y87.311 E0.17379
G1 X94.1 Y87.311 E27.83002
G1 X92.492 Y87.589 E0.14569
G1 X90.906 Y88.555 E0.16576
M107
G1 X91.478 Y89.006 F18000
M107
G1 F1800
G1 X90.422 Y90.35 E0.15263
G1 X90.027 Y92.1 E0.16013
G1 X90.027 Y407.9 E28.18704
G1 X90.142 Y408.863 E0.08653
G1 X90.939 Y410.47 E0.16013
G1 X92.35 Y411.578 E0.16013
G1 X94.1 Y411.973 E0.16013
G1 X335.9 Y411.973 E21.5821
G1 X337.263 Y411.738 E0.1235
G1 X338.78 Y410.78 E0.16013
G1 X408.78 Y340.78 E8.83589
G1 X409.578 Y339.65 E0.1235
G1 X409.973 Y337.9 E0.16013
G1 X409.973 Y92.1 E21.93912
G1 X409.858 Y91.137 E0.08653
G1 X409.061 Y89.53 E0.16013
G1 X407.65 Y88.422 E0.16013
G1 X405.9 Y88.027 E0.16013
G1 X94.1 Y88.027 E27.83002
G1 X93.137 Y88.142 E0.08653
G1 X91.536 Y88.937 E0.1596
M107
G1 X92.104 Y89.449 F18000
M107
G1 F1800
G1 X91.136 Y90.522 E0.12892
G1 X90.742 Y92.1 E0.1452
G1 X90.742 Y407.9 E28.18704
G1 X91.314 Y409.774 E0.17489
G1 X92.522 Y410.864 E0.1452
G1 X94.1 Y411.258 E0.1452
G1 X335.9 Y411.258 E21.5821
G1 X336.88 Y411.112 E0.08841
G1 X338.274 Y410.274 E0.1452
G1 X408.274 Y340.274 E8.83589
G1 X408.864 Y339.478 E0.08841
G1 X409.258 Y337.9 E0.1452
G1 X409.258 Y92.1 E21.93912
G1 X408.686 Y90.226 E0.17489
G1 X407.478 Y89.136 E0.1452
G1 X405.9 Y88.742 E0.1452
G1 X94.1 Y88.742 E27.83002
G1 X92.226 Y89.314 E0.17489
G1 X92.164 Y89.382 E0.00825
M107
G1 E-0.75 F3000
M204 P1500 T1000
G1 Z0.7 F18000
; printing object part_4_holes.stl id:0 copy 0
M486 S0
; acceleration to travel
M204 P1500 T1500
G1 X101.189 Y122.247
; decel to extrusion
M204 P1500 T1000
G1 X107.206 Y144.157
; end travel
M204 P1000 T1500
G1 Z0.3
G1 E0.75 F1800
;TYPE:Internal perimeter
;WIDTH:0.84
M107
G1 X107.166 Y144.21 E0.00642
G1 X106.86 Y144.825 E0.06643
G1 X106.695 Y145.441 E0.06171
G1 X106.649 Y146.07 E0.06102
G1 X106.722 Y146.704 E0.06172
G1 X106.935 Y147.357 E0.06644
G1 X107.248 Y147.913 E0.06175
G1 X107.662 Y148.402 E0.06198
G1 X108.201 Y148.829 E0.06647
G1 X108.769 Y149.118 E0.06172
G1 X109.382 Y149.295 E0.06171
G1 X110.067 Y149.352 E0.06643
G1 X110.707 Y149.277 E0.06241
G1 X111.36 Y149.064 E0.06643
G1 X111.921 Y148.747 E0.06236
G1 X112.439 Y148.3 E0.06617
G1 X112.834 Y147.79 E0.06236
G1 X113.14 Y147.175 E0.06643
G1 X113.305 Y146.559 E0.06172
G1 X113.351 Y145.93 E0.06101
G1 X113.278 Y145.296 E0.06172
G1 X113.065 Y144.643 E0.06644
G1 X112.752 Y144.087 E0.06175
G1 X112.338 Y143.598 E0.06198
G1 X111.799 Y143.171 E0.06647
G1 X111.23 Y142.882 E0.06172
G1 X110.618 Y142.705 E0.06171
G1 X109.933 Y142.648 E0.06644
G1 X109.293 Y142.723 E0.0624
G1 X108.64 Y142.936 E0.06644
G1 X108.078 Y143.253 E0.06236
G1 X107.561 Y143.7 E0.06617
G1 X107.262 Y144.086 E0.04724
M107
M204 P1000 T1000
G1 X107.826 Y144.624 F18000
;TYPE:External perimeter
M107
G1 F1800
G1 X107.59 Y145.1 E0.05145
G1 X107.463 Y145.571 E0.04713
G1 X107.428 Y146.054 E0.04684
G1 X107.484 Y146.538 E0.04713
G1 X107.648 Y147.044 E0.05146
G1 X107.888 Y147.468 E0.04715
G1 X108.204 Y147.842 E0.04736
G1 X108.621 Y148.172 E0.05147
G1 X109.055 Y148.393 E0.04713
G1 X109.524 Y148.528 E0.04713
G1 X110.054 Y148.572 E0.05145
G1 X110.54 Y148.515 E0.04743
G1 X111.046 Y148.35 E0.05146
G1 X111.473 Y148.109 E0.0474
G1 X111.874 Y147.763 E0.05123
G1 X112.174 Y147.376 E0.0474
G1 X112.41 Y146.9 E0.05145
G1 X112.536 Y146.429 E0.04714
G1 X112.572 Y145.946 E0.04683
G1 X112.516 Y145.462 E0.04714
G1 X112.352 Y144.956 E0.05146
G1 X112.112 Y144.532 E0.04715
G1 X111.796 Y144.158 E0.04736
G1 X111.379 Y143.828 E0.05147
G1 X110.944 Y143.607 E0.04713
G1 X110.476 Y143.472 E0.04713
G1 X109.946 Y143.428 E0.05146
G1 X109.459 Y143.485 E0.04742
G1 X108.954 Y143.65 E0.05146
G1 X108.527 Y143.891 E0.0474
G1 X108.126 Y144.237 E0.05123
G1 X107.881 Y144.553 E0.0387
M107
;WIPE_START
M204 P1500 T1000
G1 X107.226 Y144.622 F18000
;WIPE_END
G1 E-0.75 F3000
G1 Z0.7 F18000
; acceleration to travel
M204 P1500 T1500
G1 X132.119 Y127.232
; decel to extrusion
M204 P1500 T1000
G1 X148.715 Y115.638
; end travel
M204 P1000 T1500
G1 Z0.3
G1 E0.75 F1800
;TYPE:Internal perimeter
M107
G1 X148.722 Y115.704 E0.00642
G1 X148.937 Y116.364 E0.06713
G1 X149.284 Y116.965 E0.06716
G1 X149.708 Y117.445 E0.06199
G1 X150.213 Y117.836 E0.06174
G1 X150.828 Y118.141 E0.06644
G1 X151.444 Y118.305 E0.06171
G1 X152.074 Y118.351 E0.06102
G1 X152.707 Y118.277 E0.06172
G1 X153.36 Y118.064 E0.06644
G1 X153.922 Y117.747 E0.06236
G1 X154.439 Y117.3 E0.06617
G1 X154.834 Y116.79 E0.06237
G1 X155.14 Y116.175 E0.06644
G1 X155.305 Y115.559 E0.06171
G1 X155.351 Y114.93 E0.06102
G1 X155.278 Y114.296 E0.06173
G1 X155.065 Y113.643 E0.06644
G1 X154.752 Y113.087 E0.06174
G1 X154.338 Y112.598 E0.06199
G1 X153.799 Y112.171 E0.06647
G1 X153.23 Y111.882 E0.06172
G1 X152.618 Y111.705 E0.06171
G1 X151.933 Y111.648 E0.06644
G1 X151.293 Y111.723 E0.0624
G1 X150.64 Y111.936 E0.06644
G1 X150.078 Y112.253 E0.06236
G1 X149.561 Y112.7 E0.06617
G1 X149.17 Y113.204 E0.06167
G1 X148.884 Y113.766 E0.06103
G1 X148.706 Y114.379 E0.06171
G1 X148.648 Y115.063 E0.06643
G1 X148.704 Y115.549 E0.04728
M107
M204 P1000 T1000
G1 X149.484 Y115.538 F18000
;TYPE:External perimeter
M107
G1 F1800
G1 X149.649 Y116.047 E0.05175
G1 X149.917 Y116.51 E0.05176
G1 X150.241 Y116.877 E0.04736
G1 X150.626 Y117.175 E0.04714
G1 X151.103 Y117.411 E0.05146
G1 X151.574 Y117.537 E0.04713
G1 X152.057 Y117.572 E0.04684
G1 X152.54 Y117.515 E0.04713
G1 X153.046 Y117.35 E0.05146
G1 X153.473 Y117.109 E0.0474
G1 X153.874 Y116.763 E0.05123
G1 X154.174 Y116.376 E0.04741
G1 X154.41 Y115.9 E0.05146
G1 X154.536 Y115.429 E0.04713
G1 X154.572 Y114.946 E0.04684
G1 X154.516 Y114.462 E0.04714
G1 X154.352 Y113.956 E0.05146
G1 X154.112 Y113.532 E0.04714
G1 X153.796 Y113.158 E0.04737
G1 X153.379 Y112.828 E0.05147
G1 X152.944 Y112.607 E0.04713
G1 X152.476 Y112.472 E0.04713
G1 X151.946 Y112.428 E0.05146
G1 X151.459 Y112.485 E0.04742
G1 X150.954 Y112.65 E0.05146
G1 X150.527 Y112.891 E0.04741
G1 X150.126 Y113.237 E0.05123
G1 X149.828 Y113.622 E0.04711
G1 X149.608 Y114.053 E0.04684
G1 X149.472 Y114.521 E0.04713
G1 X149.428 Y115.051 E0.05145
G1 X149.474 Y115.448 E0.03872
M107
;WIPE_START
M204 P1500 T1000
G1 X149.054 Y115.956 F18000
;WIPE_END
G1 E-0.75 F3000
G1 Z0.7 F18000
; acceleration to travel
M204 P1500 T1500
G1 X210.901 Y117.389
; decel to extrusion
M204 P1500 T1000
G1 X252.133 Y118.344
; end travel
M204 P1000 T1500
G1 Z0.3
G1 E0.75 F1800
;TYPE:Internal perimeter
M107
G1 X252.707 Y118.277 E0.05598
G1 X253.36 Y118.064 E0.06643
G1 X253.921 Y117.747 E0.06236
G1 X254.439 Y117.3 E0.06616
G1 X254.834 Y116.79 E0.06237
G1 X255.14 Y116.175 E0.06644
G1 X255.305 Y115.559 E0.06171
G1 X255.351 Y114.93 E0.06102
G1 X255.278 Y114.296 E0.06172
G1 X255.065 Y113.643 E0.06643
G1 X254.752 Y113.087 E0.06175
G1 X254.338 Y112.598 E0.06199
G1 X253.799 Y112.171 E0.06647
G1 X253.23 Y111.882 E0.06171
G1 X252.618 Y111.705 E0.06171
G1 X251.933 Y111.648 E0.06643
G1 X251.293 Y111.723 E0.0624
G1 X250.64 Y111.936 E0.06644
G1 X250.078 Y112.253 E0.06236
G1 X249.561 Y112.7 E0.06617
G1 X249.166 Y113.21 E0.06237
G1 X248.86 Y113.825 E0.06644
G1 X248.695 Y114.441 E0.06171
G1 X248.649 Y115.07 E0.06102
G1 X248.722 Y115.704 E0.06172
G1 X248.935 Y116.357 E0.06644
G1 X249.248 Y116.913 E0.06174
G1 X249.662 Y117.402 E0.06199
G1 X250.201 Y117.829 E0.06646
G1 X250.77 Y118.118 E0.06172
G1 X251.382 Y118.295 E0.06171
G1 X252.043 Y118.35 E0.06415
M107
M204 P1000 T1000
G1 X252.054 Y117.572 F18000
;TYPE:External perimeter
M107
G1 F1800
G1 X252.54 Y117.515 E0.04742
G1 X253.046 Y117.351 E0.05146
G1 X253.473 Y117.11 E0.04741
G1 X253.873 Y116.763 E0.05123
G1 X254.174 Y116.376 E0.04741
G1 X254.41 Y115.9 E0.05146
G1 X254.536 Y115.429 E0.04713
G1 X254.572 Y114.946 E0.04683
G1 X254.516 Y114.462 E0.04714
G1 X254.352 Y113.956 E0.05146
G1 X254.112 Y113.532 E0.04715
G1 X253.796 Y113.158 E0.04737
G1 X253.379 Y112.828 E0.05147
G1 X252.944 Y112.607 E0.04713
G1 X252.476 Y112.472 E0.04713
G1 X251.946 Y112.428 E0.05145
G1 X251.459 Y112.485 E0.04742
G1 X250.954 Y112.65 E0.05146
G1 X250.527 Y112.891 E0.04741
G1 X250.126 Y113.237 E0.05123
G1 X249.826 Y113.624 E0.04741
G1 X249.59 Y114.1 E0.05146
G1 X249.463 Y114.571 E0.04713
G1 X249.428 Y115.054 E0.04683
G1 X249.484 Y115.538 E0.04714
G1 X249.648 Y116.044 E0.05146
G1 X249.888 Y116.468 E0.04714
G1 X250.204 Y116.842 E0.04737
G1 X250.621 Y117.172 E0.05147
G1 X251.056 Y117.393 E0.04714
G1 X251.523 Y117.528 E0.04713
G1 X251.964 Y117.565 E0.04275
M107
;WIPE_START
M204 P1500 T1000
G1 X252.379 Y118.076 F18000
;WIPE_END
G1 E-0.75 F3000
G1 Z0.7 F18000
; acceleration to travel
M204 P1500 T1500
G1 X312.179 Y114.225
; decel to extrusion
M204 P1500 T1000
G1 X352.046 Y111.658
; end travel
M204 P1000 T1500
G1 Z0.3
G1 E0.75 F1800
;TYPE:Internal perimeter
M107
G1 X351.933 Y111.648 E0.01095
G1 X351.293 Y111.723 E0.0624
G1 X350.633 Y111.938 E0.06712
G1 X350.033 Y112.286 E0.06709
G1 X349.557 Y112.706 E0.06145
G1 X349.17 Y113.204 E0.06099
G1 X348.884 Y113.766 E0.06102
G1 X348.706 Y114.379 E0.06172
G1 X348.648 Y115.063 E0.06643
G1 X348.722 Y115.704 E0.0624
G1 X348.935 Y116.357 E0.06644
G1 X349.248 Y116.913 E0.06174
G1 X349.657 Y117.397 E0.06129
G1 X350.154 Y117.798 E0.06175
G1 X350.769 Y118.119 E0.06712
G1 X351.437 Y118.305 E0.06712
G1 X352.074 Y118.351 E0.06172
G1 X352.707 Y118.277 E0.06172
G1 X353.36 Y118.064 E0.06643
G1 X353.922 Y117.747 E0.06236
G1 X354.444 Y117.295 E0.06685
G1 X354.864 Y116.743 E0.06709
G1 X355.141 Y116.168 E0.06172
G1 X355.305 Y115.559 E0.06102
G1 X355.351 Y114.93 E0.06101
G1 X355.278 Y114.303 E0.06103
G1 X355.088 Y113.694 E0.06172
G1 X354.757 Y113.092 E0.06646
G1 X354.343 Y112.603 E0.06198
G1 X353.846 Y112.202 E0.06175
G1 X353.237 Y111.884 E0.06644
G1 X352.618 Y111.705 E0.06241
G1 X352.136 Y111.665 E0.04678
M107
M204 P1000 T1000
G1 X351.46 Y112.485 F18000
;TYPE:External perimeter
M107
G1 F1800
G1 X350.951 Y112.65 E0.05175
G1 X350.488 Y112.918 E0.05174
G1 X350.125 Y113.239 E0.0469
G1 X349.828 Y113.622 E0.04682
G1 X349.608 Y114.053 E0.04684
G1 X349.472 Y114.521 E0.04713
G1 X349.428 Y115.051 E0.05145
G1 X349.484 Y115.538 E0.04743
G1 X349.648 Y116.044 E0.05146
G1 X349.888 Y116.468 E0.04715
G1 X350.202 Y116.84 E0.04707
G1 X350.581 Y117.146 E0.04714
G1 X351.055 Y117.393 E0.05175
G1 X351.571 Y117.537 E0.05175
G1 X352.057 Y117.572 E0.04714
G1 X352.54 Y117.515 E0.04714
G1 X353.046 Y117.35 E0.05146
G1 X353.473 Y117.109 E0.0474
G1 X353.876 Y116.761 E0.05152
G1 X354.199 Y116.335 E0.05173
G1 X354.411 Y115.897 E0.04714
G1 X354.536 Y115.429 E0.04684
G1 X354.572 Y114.946 E0.04683
G1 X354.516 Y114.465 E0.04685
G1 X354.371 Y114 E0.04713
G1 X354.114 Y113.534 E0.05147
G1 X353.798 Y113.16 E0.04736
G1 X353.419 Y112.854 E0.04714
G1 X352.947 Y112.608 E0.05146
G1 X352.476 Y112.472 E0.04743
G1 X351.946 Y112.428 E0.05145
G1 X351.549 Y112.474 E0.03871
M107
;WIPE_START
M204 P1500 T1000
G1 X351.041 Y112.055 F18000
;WIPE_END
G1 E-0.75 F3000
G1 Z0.7 F18000
; acceleration to travel
M204 P1500 T1500
G1 X379.199 Y122.044
; decel to extrusion
M204 P1500 T1000
G1 X397.972 Y128.704
; end travel
M204 P1000 T1500
G1 Z0.3
G1 E0.75 F1800
;TYPE:Internal perimeter
M107
G1 X398.444 Y128.295 E0.06044
G1 X398.864 Y127.743 E0.06709
G1 X399.141 Y127.168 E0.06172
G1 X399.305 Y126.559 E0.06102
G1 X399.351 Y125.93 E0.06102
G1 X399.278 Y125.296 E0.06172
G1 X399.065 Y124.643 E0.06644
G1 X398.752 Y124.087 E0.06174
G1 X398.343 Y123.603 E0.06129
G1 X397.846 Y123.202 E0.06175
G1 X397.231 Y122.881 E0.06712
G1 X396.563 Y122.695 E0.06712
G1 X395.926 Y122.649 E0.06172
G1 X395.293 Y122.723 E0.06172
G1 X394.64 Y122.936 E0.06643
G1 X394.078 Y123.253 E0.06236
G1 X393.555 Y123.705 E0.06685
G1 X393.136 Y124.257 E0.06709
G1 X392.859 Y124.832 E0.06172
G1 X392.695 Y125.441 E0.06102
G1 X392.649 Y126.07 E0.06102
G1 X392.722 Y126.704 E0.06172
G1 X392.935 Y127.357 E0.06645
G1 X393.248 Y127.913 E0.06174
G1 X393.657 Y128.397 E0.06129
G1 X394.154 Y128.798 E0.06175
G1 X394.769 Y129.119 E0.06712
G1 X395.437 Y129.305 E0.06712
G1 X396.074 Y129.351 E0.06172
G1 X396.707 Y129.277 E0.06172
G1 X397.36 Y129.064 E0.06644
G1 X397.901 Y128.759 E0.06006
M107
M204 P1000 T1000
G1 X397.473 Y128.109 F18000
;TYPE:External perimeter
M107
G1 F1800
G1 X397.876 Y127.761 E0.05152
G1 X398.199 Y127.335 E0.05173
G1 X398.411 Y126.897 E0.04714
G1 X398.536 Y126.429 E0.04684
G1 X398.572 Y125.946 E0.04684
G1 X398.516 Y125.462 E0.04714
G1 X398.352 Y124.956 E0.05146
G1 X398.112 Y124.532 E0.04714
G1 X397.798 Y124.16 E0.04707
G1 X397.419 Y123.854 E0.04715
G1 X396.945 Y123.607 E0.05175
G1 X396.429 Y123.463 E0.05175
G1 X395.943 Y123.428 E0.04714
G1 X395.459 Y123.485 E0.04714
G1 X394.954 Y123.65 E0.05146
G1 X394.527 Y123.891 E0.04741
G1 X394.124 Y124.239 E0.05152
G1 X393.801 Y124.665 E0.05173
G1 X393.589 Y125.103 E0.04714
G1 X393.463 Y125.571 E0.04684
G1 X393.428 Y126.054 E0.04683
G1 X393.484 Y126.538 E0.04714
G1 X393.648 Y127.044 E0.05146
G1 X393.888 Y127.468 E0.04714
G1 X394.202 Y127.84 E0.04707
G1 X394.581 Y128.146 E0.04715
G1 X395.055 Y128.393 E0.05175
G1 X395.571 Y128.537 E0.05175
G1 X396.057 Y128.572 E0.04713
G1 X396.54 Y128.515 E0.04713
G1 X397.046 Y128.35 E0.05146
G1 X397.395 Y128.154 E0.0387
M107
;WIPE_START
M204 P1500 T1000
G1 X398.025 Y128.344 F18000
;WIPE_END
G1 E-0.75 F3000
G1 Z0.7 F18000
; acceleration to travel
M204 P1500 T1500
G1 X396.106 Y233.818
; decel to extrusion
M204 P1500 T1000
G1 X394.826 Y304.134
; end travel
M204 P1000 T1500
G1 Z0.3
G1 E0.75 F1800
;TYPE:Internal perimeter
M107
G1 X395.382 Y304.295 E0.05599
G1 X396.067 Y304.352 E0.06643
G1 X396.7 Y304.278 E0.06171
G1 X397.302 Y304.088 E0.06102
G1 X397.864 Y303.786 E0.06168
G1 X398.39 Y303.35 E0.06616
G1 X398.796 Y302.849 E0.06237
G1 X399.114 Y302.241 E0.06643
G1 X399.294 Y301.621 E0.0624
G1 X399.352 Y300.937 E0.06643
G1 X399.278 Y300.296 E0.0624
G1 X399.065 Y299.643 E0.06644
G1 X398.752 Y299.087 E0.06174
G1 X398.338 Y298.598 E0.06198
G1 X397.799 Y298.172 E0.06647
G1 X397.231 Y297.882 E0.06171
G1 X396.618 Y297.705 E0.06173
G1 X395.933 Y297.648 E0.06643
G1 X395.3 Y297.722 E0.06171
G1 X394.698 Y297.912 E0.06103
G1 X394.136 Y298.214 E0.06168
G1 X393.604 Y298.654 E0.06685
G1 X393.173 Y299.198 E0.06709
G1 X392.884 Y299.766 E0.06171
