; generated by SuperSlicer 2.5.59.8 on 2024-08-15 at 16:26:01 UTC


;
;

;
;
; TODO: check the size of the extruder and the y-bar clearance. Optimize & test supports.

; external perimeters extrusion width = 0.84mm
; perimeters extrusion width = 0.84mm
; infill extrusion width = 0.84mm
; solid infill extrusion width = 0.84mm
; top infill extrusion width = 0.84mm
; first layer extrusion width = 0.84mm

; object:{"name":"part_3_holes","id":"part_3_holes.stl id:0 copy 0","object_center":[250.000000,250.000000,0.000000],"boundingbox_center":[250.000000,250.000000,1.500000],"boundingbox_size":[312.000061,316.000000,3.000000]}
; Total objects to print: 1
M486 T1
; plater:{"center":[250.000000,250.000000,0.000000],"boundingbox_center":[250.000000,250.000000,1.500000],"boundingbox_size":[312.000061,316.000000,3.000000]}

M107
M140 S60 ; set bed temperature
G10 P0 R205 ; sets the standby temperature
G10 P0 S215 ; set temperature
;TYPE:Custom
; M190 S0
; M109 S0 ; uncomment to remove set&wait temp gcode added automatically after this start gcode
print_start EXTRUDER=215 BED=60 CHAMBER=15
M107
G21 ; set units to millimeters
G90 ; use absolute coordinates
M83 ; use relative distances for extrusion
T0
G10 P0 S215 ; set temperature
M116 ; wait for temperature to be reached
M190 S60 ; set bed temperature and wait for it to be reached
;LAYER_CHANGE
;Z:0.3
;HEIGHT:0.3
;BEFORE_LAYER_CHANGE
;0.3


G1 Z0.3 F18000
;AFTER_LAYER_CHANGE
;0.3
G92 E0
G1 E-0.75 F3000
G1 Z0.7 F18000
M204 P1000 T1000
G1 X90.829 Y88.602
G1 Z0.3
G1 E0.75 F1800
;TYPE:Skirt
;WIDTH:0.78
M107
G1 X89.707 Y90.194 E0.17379
G1 X89.311 Y92.1 E0.17379
G1 X89.311 Y337.9 E21.93912
G1 X89.645 Y339.658 E0.15976
G1 X90.714 Y341.286 E0.17379
G1 X160.714 Y411.286 E8.83589
G1 X162.194 Y412.293 E0.15976
G1 X164.1 Y412.689 E0.17379
G1 X405.9 Y412.689 E21.58211
G1 X407.508 Y412.411 E0.14569
G1 X409.171 Y411.398 E0.17379
G1 X410.293 Y409.806 E0.17379
G1 X410.689 Y407.9 E0.17379
G1 X410.689 Y92.1 E28.18704
G1 X410.411 Y90.492 E0.14569
G1 X409.398 Y88.829 E0.17379
G1 X407.806 Y87.707 E0.17379
G1 X405.9 Y87.311 E0.17379
G1 X94.1 Y87.311 E27.83003
G1 X92.492 Y87.589 E0.14569
G1 X90.906 Y88.555 E0.16576
M107
G1 X91.478 Y89.006 F18000
M107
G1 F1800
G1 X90.422 Y90.35 E0.15263
G1 X90.027 Y92.1 E0.16013
G1 X90.027 Y337.9 E21.93912
G1 X90.262 Y339.264 E0.1235
G1 X91.22 Y340.78 E0.16013
G1 X161.22 Y410.78 E8.83589
G1 X162.35 Y411.578 E0.1235
G1 X164.1 Y411.973 E0.16013
G1 X405.9 Y411.973 E21.58211
G1 X406.863 Y411.858 E0.08653
G1 X408.47 Y411.061 E0.16013
G1 X409.578 Y409.65 E0.16013
G1 X409.973 Y407.9 E0.16013
G1 X409.973 Y92.1 E28.18704
G1 X409.858 Y91.137 E0.08653
G1 X409.061 Y89.53 E0.16013
G1 X407.65 Y88.422 E0.16013
G1 X405.9 Y88.027 E0.16013
G1 X94.1 Y88.027 E27.83003
G1 X93.137 Y88.142 E0.08653
G1 X91.536 Y88.937 E0.1596
M107
G1 X92.104 Y89.449 F18000
M107
G1 F1800
G1 X91.136 Y90.522 E0.12892
G1 X90.742 Y92.1 E0.1452
G1 X90.742 Y337.9 E21.93912
G1 X90.888 Y338.88 E0.08841
G1 X91.726 Y340.274 E0.1452
G1 X161.726 Y410.274 E8.83589
G1 X162.522 Y410.864 E0.08841
G1 X164.1 Y411.258 E0.1452
G1 X405.9 Y411.258 E21.58211
G1 X407.774 Y410.686 E0.17489
G1 X408.864 Y409.478 E0.1452
G1 X409.258 Y407.9 E0.1452
G1 X409.258 Y92.1 E28.18704
G1 X408.686 Y90.226 E0.17489
G1 X407.478 Y89.136 E0.1452
G1 X405.9 Y88.742 E0.1452
G1 X94.1 Y88.742 E27.83003
G1 X92.226 Y89.314 E0.17489
G1 X92.164 Y89.382 E0.00825
M107
G1 E-0.75 F3000
M204 P1500 T1000
G1 Z0.7 F18000
; printing object part_3_holes.stl id:0 copy 0
M486 S0
; acceleration to travel
M204 P1500 T1500
G1 X97.547 Y110.315
; decel to extrusion
M204 P1500 T1000
G1 X101.136 Y124.269
; end travel
M204 P1000 T1500
G1 Z0.3
G1 E0.75 F1800
;TYPE:Internal perimeter
;WIDTH:0.84
M107
G1 X100.86 Y124.825 E0.06001
G1 X100.695 Y125.441 E0.06172
G1 X100.649 Y126.07 E0.06102
G1 X100.722 Y126.704 E0.06171
G1 X100.937 Y127.364 E0.06713
G1 X101.284 Y127.965 E0.06716
G1 X101.708 Y128.445 E0.06199
G1 X102.207 Y128.832 E0.06105
G1 X102.769 Y129.118 E0.06103
G1 X103.382 Y129.295 E0.06171
G1 X104.067 Y129.352 E0.06643
G1 X104.707 Y129.277 E0.0624
G1 X105.36 Y129.064 E0.06643
G1 X105.922 Y128.747 E0.06236
G1 X106.439 Y128.3 E0.06617
G1 X106.834 Y127.79 E0.06237
G1 X107.14 Y127.175 E0.06643
G1 X107.305 Y126.559 E0.06172
G1 X107.351 Y125.93 E0.06102
G1 X107.278 Y125.296 E0.06172
G1 X107.065 Y124.643 E0.06644
G1 X106.752 Y124.087 E0.06174
G1 X106.338 Y123.598 E0.06199
G1 X105.799 Y123.171 E0.06647
G1 X105.224 Y122.879 E0.06241
G1 X104.563 Y122.695 E0.06643
G1 X103.926 Y122.649 E0.06172
G1 X103.293 Y122.723 E0.06171
G1 X102.64 Y122.936 E0.06644
G1 X102.078 Y123.253 E0.06237
G1 X101.561 Y123.7 E0.06617
G1 X101.18 Y124.191 E0.06008
M107
M204 P1000 T1000
G1 X101.826 Y124.624 F18000
;TYPE:External perimeter
M107
G1 F1800
G1 X101.59 Y125.1 E0.05145
G1 X101.463 Y125.571 E0.04713
G1 X101.428 Y126.054 E0.04684
G1 X101.484 Y126.538 E0.04713
G1 X101.649 Y127.047 E0.05175
G1 X101.917 Y127.51 E0.05176
G1 X102.241 Y127.877 E0.04737
G1 X102.624 Y128.173 E0.04685
G1 X103.055 Y128.393 E0.04684
G1 X103.523 Y128.528 E0.04713
G1 X104.054 Y128.572 E0.05146
G1 X104.54 Y128.515 E0.04742
G1 X105.046 Y128.35 E0.05146
G1 X105.473 Y128.109 E0.04741
G1 X105.874 Y127.763 E0.05123
G1 X106.174 Y127.376 E0.04741
G1 X106.41 Y126.9 E0.05145
G1 X106.536 Y126.429 E0.04714
G1 X106.572 Y125.946 E0.04683
G1 X106.516 Y125.462 E0.04714
G1 X106.352 Y124.956 E0.05146
G1 X106.112 Y124.532 E0.04714
G1 X105.796 Y124.158 E0.04737
G1 X105.379 Y123.828 E0.05147
G1 X104.942 Y123.606 E0.04743
G1 X104.429 Y123.463 E0.05145
G1 X103.943 Y123.428 E0.04713
G1 X103.46 Y123.485 E0.04713
G1 X102.954 Y123.65 E0.05146
G1 X102.527 Y123.891 E0.04741
G1 X102.126 Y124.237 E0.05123
G1 X101.881 Y124.553 E0.0387
M107
;WIPE_START
M204 P1500 T1000
G1 X101.226 Y124.622 F18000
;WIPE_END
G1 E-0.75 F3000
G1 Z0.7 F18000
; acceleration to travel
M204 P1500 T1500
G1 X124.883 Y118.847
; decel to extrusion
M204 P1500 T1000
G1 X140.654 Y114.997
; end travel
M204 P1000 T1500
G1 Z0.3
G1 E0.75 F1800
;TYPE:Internal perimeter
M107
G1 X140.648 Y115.063 E0.00642
G1 X140.722 Y115.704 E0.06241
G1 X140.935 Y116.357 E0.06644
G1 X141.248 Y116.913 E0.06175
G1 X141.662 Y117.402 E0.06198
G1 X142.201 Y117.828 E0.06647
G1 X142.769 Y118.118 E0.06172
G1 X143.382 Y118.295 E0.06171
G1 X144.067 Y118.352 E0.06644
G1 X144.707 Y118.277 E0.0624
G1 X145.36 Y118.064 E0.06644
G1 X145.921 Y117.747 E0.06236
G1 X146.439 Y117.3 E0.06617
G1 X146.834 Y116.79 E0.06237
G1 X147.14 Y116.175 E0.06644
G1 X147.305 Y115.559 E0.06172
G1 X147.351 Y114.93 E0.06101
G1 X147.278 Y114.296 E0.06172
G1 X147.065 Y113.643 E0.06644
G1 X146.752 Y113.087 E0.06175
G1 X146.338 Y112.598 E0.06199
G1 X145.799 Y112.171 E0.06647
G1 X145.231 Y111.882 E0.06171
G1 X144.618 Y111.705 E0.06172
G1 X143.933 Y111.648 E0.06643
G1 X143.293 Y111.723 E0.0624
G1 X142.64 Y111.936 E0.06643
G1 X142.078 Y112.253 E0.06236
G1 X141.561 Y112.7 E0.06617
G1 X141.17 Y113.204 E0.06167
G1 X140.884 Y113.766 E0.06103
G1 X140.706 Y114.379 E0.06172
G1 X140.661 Y114.907 E0.0513
M107
M204 P1000 T1000
G1 X141.428 Y115.051 F18000
;TYPE:External perimeter
M107
G1 F1800
G1 X141.484 Y115.538 E0.04743
G1 X141.648 Y116.044 E0.05146
G1 X141.888 Y116.468 E0.04715
G1 X142.204 Y116.842 E0.04736
G1 X142.621 Y117.172 E0.05147
G1 X143.055 Y117.393 E0.04713
G1 X143.523 Y117.528 E0.04713
G1 X144.054 Y117.572 E0.05146
G1 X144.54 Y117.515 E0.04742
G1 X145.046 Y117.35 E0.05146
G1 X145.473 Y117.109 E0.0474
G1 X145.874 Y116.763 E0.05123
G1 X146.174 Y116.376 E0.04741
G1 X146.41 Y115.9 E0.05146
G1 X146.536 Y115.429 E0.04714
G1 X146.572 Y114.946 E0.04683
G1 X146.516 Y114.462 E0.04714
G1 X146.352 Y113.956 E0.05146
G1 X146.112 Y113.532 E0.04715
G1 X145.796 Y113.158 E0.04736
G1 X145.379 Y112.828 E0.05147
G1 X144.944 Y112.607 E0.04713
G1 X144.476 Y112.472 E0.04713
G1 X143.946 Y112.428 E0.05146
G1 X143.459 Y112.485 E0.04742
G1 X142.954 Y112.65 E0.05146
G1 X142.527 Y112.891 E0.0474
G1 X142.126 Y113.237 E0.05123
G1 X141.828 Y113.622 E0.04711
G1 X141.608 Y114.053 E0.04684
G1 X141.472 Y114.521 E0.04713
G1 X141.435 Y114.961 E0.04274
M107
;WIPE_START
M204 P1500 T1000
G1 X140.923 Y115.376 F18000
;WIPE_END
G1 E-0.75 F3000
G1 Z0.7 F18000
; acceleration to travel
M204 P1500 T1500
G1 X201.099 Y116.265
; decel to extrusion
M204 P1500 T1000
G1 X241.217 Y116.858
; end travel
M204 P1000 T1500
G1 Z0.3
G1 E0.75 F1800
;TYPE:Internal perimeter
M107
G1 X241.248 Y116.913 E0.00615
G1 X241.662 Y117.402 E0.06199
G1 X242.201 Y117.828 E0.06646
G1 X242.769 Y118.118 E0.06172
G1 X243.382 Y118.295 E0.06171
G1 X244.067 Y118.352 E0.06644
G1 X244.707 Y118.277 E0.0624
G1 X245.36 Y118.064 E0.06643
G1 X245.922 Y117.747 E0.06236
G1 X246.439 Y117.3 E0.06616
G1 X246.83 Y116.796 E0.06169
G1 X247.116 Y116.234 E0.06103
G1 X247.294 Y115.621 E0.06171
G1 X247.352 Y114.937 E0.06643
G1 X247.278 Y114.296 E0.06241
G1 X247.065 Y113.643 E0.06644
G1 X246.752 Y113.087 E0.06174
G1 X246.338 Y112.598 E0.06199
G1 X245.799 Y112.171 E0.06646
G1 X245.231 Y111.882 E0.06171
G1 X244.618 Y111.705 E0.06171
G1 X243.933 Y111.648 E0.06644
G1 X243.293 Y111.723 E0.0624
G1 X242.64 Y111.936 E0.06643
G1 X242.078 Y112.253 E0.06237
G1 X241.561 Y112.7 E0.06616
G1 X241.17 Y113.204 E0.06167
G1 X240.884 Y113.766 E0.06103
G1 X240.706 Y114.379 E0.06172
G1 X240.648 Y115.063 E0.06642
G1 X240.722 Y115.704 E0.06241
G1 X240.935 Y116.357 E0.06644
G1 X241.173 Y116.779 E0.04689
M107
M204 P1000 T1000
G1 X241.888 Y116.468 F18000
;TYPE:External perimeter
M107
G1 F1800
G1 X242.204 Y116.842 E0.04737
G1 X242.621 Y117.172 E0.05146
G1 X243.055 Y117.393 E0.04713
G1 X243.523 Y117.528 E0.04713
G1 X244.054 Y117.572 E0.05146
G1 X244.54 Y117.515 E0.04742
G1 X245.046 Y117.35 E0.05146
G1 X245.473 Y117.11 E0.04741
G1 X245.873 Y116.763 E0.05122
G1 X246.172 Y116.378 E0.04712
G1 X246.392 Y115.947 E0.04684
G1 X246.528 Y115.479 E0.04713
G1 X246.572 Y114.949 E0.05145
G1 X246.516 Y114.462 E0.04743
G1 X246.352 Y113.956 E0.05146
G1 X246.112 Y113.532 E0.04714
G1 X245.796 Y113.158 E0.04737
G1 X245.379 Y112.828 E0.05147
G1 X244.944 Y112.607 E0.04713
G1 X244.476 Y112.472 E0.04713
G1 X243.946 Y112.428 E0.05146
G1 X243.459 Y112.485 E0.04742
G1 X242.954 Y112.649 E0.05145
G1 X242.527 Y112.891 E0.04741
G1 X242.126 Y113.237 E0.05122
G1 X241.828 Y113.622 E0.04711
G1 X241.608 Y114.053 E0.04684
G1 X241.472 Y114.521 E0.04714
G1 X241.428 Y115.051 E0.05145
G1 X241.484 Y115.538 E0.04743
G1 X241.648 Y116.044 E0.05146
G1 X241.843 Y116.39 E0.03844
M107
;WIPE_START
M204 P1500 T1000
G1 X241.65 Y117.019 F18000
;WIPE_END
G1 E-0.75 F3000
G1 Z0.7 F18000
; acceleration to travel
M204 P1500 T1500
G1 X303.832 Y113.954
; decel to extrusion
M204 P1500 T1000
G1 X345.287 Y111.911
; end travel
M204 P1000 T1500
G1 Z0.3
G1 E0.75 F1800
;TYPE:Internal perimeter
M107
G1 X345.231 Y111.882 E0.00613
G1 X344.618 Y111.705 E0.06171
G1 X343.933 Y111.648 E0.06644
G1 X343.293 Y111.723 E0.0624
G1 X342.64 Y111.936 E0.06644
G1 X342.078 Y112.253 E0.06237
G1 X341.561 Y112.7 E0.06616
G1 X341.17 Y113.204 E0.06167
G1 X340.884 Y113.766 E0.06103
G1 X340.706 Y114.379 E0.06171
G1 X340.648 Y115.063 E0.06643
G1 X340.722 Y115.704 E0.06241
G1 X340.935 Y116.357 E0.06644
G1 X341.248 Y116.913 E0.06175
G1 X341.662 Y117.402 E0.06198
G1 X342.201 Y117.828 E0.06647
G1 X342.776 Y118.121 E0.06241
G1 X343.437 Y118.305 E0.06643
G1 X344.074 Y118.351 E0.06172
G1 X344.707 Y118.277 E0.06171
G1 X345.36 Y118.064 E0.06644
G1 X345.922 Y117.747 E0.06237
G1 X346.439 Y117.3 E0.06616
G1 X346.83 Y116.796 E0.06168
G1 X347.116 Y116.234 E0.06103
G1 X347.294 Y115.621 E0.06171
G1 X347.352 Y114.937 E0.06642
G1 X347.278 Y114.296 E0.06241
G1 X347.065 Y113.643 E0.06644
G1 X346.752 Y113.087 E0.06175
G1 X346.338 Y112.598 E0.06199
G1 X345.799 Y112.171 E0.06647
G1 X345.367 Y111.952 E0.04687
M107
M204 P1000 T1000
G1 X344.944 Y112.607 F18000
;TYPE:External perimeter
M107
G1 F1800
G1 X344.476 Y112.472 E0.04713
G1 X343.946 Y112.428 E0.05146
G1 X343.459 Y112.485 E0.04742
G1 X342.954 Y112.65 E0.05146
G1 X342.527 Y112.891 E0.04741
G1 X342.126 Y113.237 E0.05122
G1 X341.828 Y113.622 E0.04711
G1 X341.608 Y114.053 E0.04685
G1 X341.472 Y114.521 E0.04713
G1 X341.428 Y115.051 E0.05145
G1 X341.484 Y115.538 E0.04743
G1 X341.648 Y116.044 E0.05146
G1 X341.888 Y116.468 E0.04715
G1 X342.204 Y116.842 E0.04736
G1 X342.621 Y117.172 E0.05147
G1 X343.058 Y117.394 E0.04743
G1 X343.571 Y117.537 E0.05145
G1 X344.057 Y117.572 E0.04714
G1 X344.54 Y117.515 E0.04713
G1 X345.046 Y117.35 E0.05146
G1 X345.473 Y117.109 E0.04741
G1 X345.874 Y116.763 E0.05123
G1 X346.172 Y116.378 E0.04712
G1 X346.392 Y115.947 E0.04684
G1 X346.528 Y115.479 E0.04713
G1 X346.572 Y114.949 E0.05145
G1 X346.516 Y114.462 E0.04743
G1 X346.352 Y113.956 E0.05146
G1 X346.112 Y113.532 E0.04714
G1 X345.796 Y113.158 E0.04736
G1 X345.379 Y112.828 E0.05147
G1 X345.025 Y112.648 E0.03842
M107
;WIPE_START
M204 P1500 T1000
G1 X344.838 Y112.017 F18000
;WIPE_END
G1 E-0.75 F3000
G1 Z0.7 F18000
; acceleration to travel
M204 P1500 T1500
G1 X373.011 Y133.512
; decel to extrusion
M204 P1500 T1000
G1 X391.794 Y147.843
; end travel
M204 P1000 T1500
G1 Z0.3
G1 E0.75 F1800
;TYPE:Internal perimeter
M107
G1 X391.834 Y147.79 E0.00642
G1 X392.14 Y147.175 E0.06643
G1 X392.305 Y146.559 E0.06172
G1 X392.351 Y145.93 E0.06101
G1 X392.278 Y145.296 E0.06172
G1 X392.065 Y144.643 E0.06644
G1 X391.752 Y144.087 E0.06175
G1 X391.338 Y143.598 E0.06198
G1 X390.799 Y143.171 E0.06647
G1 X390.23 Y142.882 E0.06172
G1 X389.618 Y142.705 E0.06171
G1 X388.933 Y142.648 E0.06644
G1 X388.293 Y142.723 E0.0624
G1 X387.64 Y142.936 E0.06644
G1 X387.078 Y143.253 E0.06236
G1 X386.561 Y143.7 E0.06617
G1 X386.166 Y144.21 E0.06237
G1 X385.86 Y144.825 E0.06643
G1 X385.695 Y145.441 E0.06171
G1 X385.649 Y146.07 E0.06102
G1 X385.722 Y146.704 E0.06172
G1 X385.935 Y147.357 E0.06644
G1 X386.248 Y147.913 E0.06175
G1 X386.662 Y148.402 E0.06198
G1 X387.201 Y148.829 E0.06647
G1 X387.769 Y149.118 E0.06172
G1 X388.382 Y149.295 E0.06171
G1 X389.067 Y149.352 E0.06643
G1 X389.707 Y149.277 E0.06241
G1 X390.36 Y149.064 E0.06643
G1 X390.921 Y148.747 E0.06236
G1 X391.439 Y148.3 E0.06617
G1 X391.738 Y147.914 E0.04724
M107
M204 P1000 T1000
G1 X391.174 Y147.376 F18000
;TYPE:External perimeter
M107
G1 F1800
G1 X391.41 Y146.9 E0.05145
G1 X391.536 Y146.429 E0.04714
G1 X391.572 Y145.946 E0.04683
G1 X391.516 Y145.462 E0.04714
G1 X391.352 Y144.956 E0.05146
G1 X391.112 Y144.532 E0.04715
G1 X390.796 Y144.158 E0.04736
G1 X390.379 Y143.828 E0.05147
G1 X389.944 Y143.607 E0.04713
G1 X389.476 Y143.472 E0.04713
G1 X388.946 Y143.428 E0.05146
G1 X388.459 Y143.485 E0.04742
G1 X387.954 Y143.65 E0.05146
G1 X387.527 Y143.891 E0.0474
G1 X387.126 Y144.237 E0.05123
G1 X386.826 Y144.624 E0.04741
G1 X386.59 Y145.1 E0.05145
G1 X386.463 Y145.571 E0.04713
G1 X386.428 Y146.054 E0.04684
G1 X386.484 Y146.538 E0.04713
G1 X386.648 Y147.044 E0.05146
G1 X386.888 Y147.468 E0.04715
G1 X387.204 Y147.842 E0.04736
G1 X387.621 Y148.172 E0.05147
G1 X388.055 Y148.393 E0.04713
G1 X388.524 Y148.528 E0.04713
G1 X389.054 Y148.572 E0.05145
G1 X389.54 Y148.515 E0.04743
G1 X390.046 Y148.35 E0.05146
G1 X390.473 Y148.109 E0.0474
G1 X390.874 Y147.763 E0.05123
G1 X391.119 Y147.447 E0.0387
M107
;WIPE_START
M204 P1500 T1000
G1 X391.774 Y147.378 F18000
;WIPE_END
G1 E-0.75 F3000
G1 Z0.7 F18000
; acceleration to travel
M204 P1500 T1500
G1 X388.483 Y207.728
; decel to extrusion
M204 P1500 T1000
G1 X386.289 Y247.962
; end travel
M204 P1000 T1500
G1 Z0.3
G1 E0.75 F1800
;TYPE:Internal perimeter
M107
G1 X386.662 Y248.402 E0.05584
G1 X387.201 Y248.829 E0.06647
G1 X387.769 Y249.118 E0.06171
G1 X388.382 Y249.295 E0.06171
G1 X389.067 Y249.352 E0.06643
G1 X389.707 Y249.277 E0.06241
G1 X390.36 Y249.064 E0.06643
G1 X390.921 Y248.747 E0.06236
G1 X391.439 Y248.3 E0.06617
G1 X391.834 Y247.79 E0.06237
G1 X392.14 Y247.175 E0.06644
G1 X392.305 Y246.559 E0.06171
G1 X392.351 Y245.93 E0.06101
G1 X392.278 Y245.296 E0.06173
G1 X392.065 Y244.643 E0.06643
G1 X391.752 Y244.087 E0.06175
G1 X391.338 Y243.598 E0.06199
G1 X390.799 Y243.171 E0.06646
G1 X390.23 Y242.882 E0.06172
G1 X389.618 Y242.705 E0.06171
G1 X388.933 Y242.648 E0.06643
G1 X388.293 Y242.723 E0.0624
G1 X387.64 Y242.936 E0.06643
