; generated by SuperSlicer 2.5.59.8 on 2024-08-14 at 18:35:00 UTC


;
;

;
;
; TODO: check the size of the extruder and the y-bar clearance. Optimize & test supports.

; external perimeters extrusion width = 0.84mm
; perimeters extrusion width = 0.84mm
; infill extrusion width = 0.84mm
; solid infill extrusion width = 0.84mm
; top infill extrusion width = 0.84mm
; first layer extrusion width = 0.84mm

; object:{"name":"part_2_holes","id":"part_2_holes.stl id:0 copy 0","object_center":[250.000000,250.000000,0.000000],"boundingbox_center":[250.000000,250.000000,1.500000],"boundingbox_size":[311.999939,316.000031,3.000000]}
; Total objects to print: 1
M486 T1
; plater:{"center":[250.000000,250.000000,0.000000],"boundingbox_center":[250.000000,250.000000,1.500000],"boundingbox_size":[311.999939,316.000031,3.000000]}

M107
M140 S60 ; set bed temperature
G10 P0 R205 ; sets the standby temperature
G10 P0 S215 ; set temperature
;TYPE:Custom
; M190 S0
; M109 S0 ; uncomment to remove set&wait temp gcode added automatically after this start gcode
print_start EXTRUDER=215 BED=60 CHAMBER=15
M107
G21 ; set units to millimeters
G90 ; use absolute coordinates
M83 ; use relative distances for extrusion
T0
G10 P0 S215 ; set temperature
M116 ; wait for temperature to be reached
M190 S60 ; set bed temperature and wait for it to be reached
;LAYER_CHANGE
;Z:0.3
;HEIGHT:0.3
;BEFORE_LAYER_CHANGE
;0.3


G1 Z0.3 F18000
;AFTER_LAYER_CHANGE
;0.3
G92 E0
G1 E-0.75 F3000
G1 Z0.7 F18000
M204 P1000 T1000
G1 X90.829 Y88.602
G1 Z0.3
G1 E0.75 F1800
;TYPE:Skirt
;WIDTH:0.78
M107
G1 X89.707 Y90.194 E0.17379
G1 X89.311 Y92.1 E0.17379
G1 X89.311 Y407.9 E28.18705
G1 X89.589 Y409.508 E0.14569
G1 X90.602 Y411.171 E0.17379
G1 X92.194 Y412.293 E0.17379
G1 X94.1 Y412.689 E0.17379
G1 X405.9 Y412.689 E27.83002
G1 X407.508 Y412.411 E0.14569
G1 X409.171 Y411.398 E0.17379
G1 X410.293 Y409.806 E0.17379
G1 X410.689 Y407.9 E0.17379
G1 X410.689 Y162.1 E21.93913
G1 X410.355 Y160.342 E0.15976
G1 X409.286 Y158.714 E0.17379
G1 X339.286 Y88.714 E8.83589
G1 X337.806 Y87.707 E0.15976
G1 X335.9 Y87.311 E0.17379
G1 X94.1 Y87.311 E21.5821
G1 X92.492 Y87.589 E0.14569
G1 X90.906 Y88.555 E0.16576
M107
G1 X91.478 Y89.005 F18000
M107
G1 F1800
G1 X90.422 Y90.35 E0.15263
G1 X90.027 Y92.1 E0.16013
G1 X90.027 Y407.9 E28.18705
G1 X90.142 Y408.863 E0.08653
G1 X90.939 Y410.47 E0.16013
G1 X92.35 Y411.578 E0.16013
G1 X94.1 Y411.973 E0.16013
G1 X405.9 Y411.973 E27.83002
G1 X406.863 Y411.858 E0.08653
G1 X408.47 Y411.061 E0.16013
G1 X409.578 Y409.65 E0.16013
G1 X409.973 Y407.9 E0.16013
G1 X409.973 Y162.1 E21.93913
G1 X409.738 Y160.736 E0.1235
G1 X408.78 Y159.22 E0.16013
G1 X338.78 Y89.22 E8.83589
G1 X337.65 Y88.422 E0.1235
G1 X335.9 Y88.027 E0.16013
G1 X94.1 Y88.027 E21.5821
G1 X93.137 Y88.142 E0.08653
G1 X91.536 Y88.937 E0.1596
M107
G1 X92.104 Y89.449 F18000
M107
G1 F1800
G1 X91.136 Y90.522 E0.12892
G1 X90.742 Y92.1 E0.1452
G1 X90.742 Y407.9 E28.18705
G1 X91.314 Y409.774 E0.17489
G1 X92.522 Y410.864 E0.1452
G1 X94.1 Y411.258 E0.1452
G1 X405.9 Y411.258 E27.83002
G1 X407.774 Y410.686 E0.17489
G1 X408.864 Y409.478 E0.1452
G1 X409.258 Y407.9 E0.1452
G1 X409.258 Y162.1 E21.93913
G1 X409.112 Y161.12 E0.08841
G1 X408.274 Y159.726 E0.1452
G1 X338.274 Y89.726 E8.83589
G1 X337.478 Y89.136 E0.08841
G1 X335.9 Y88.742 E0.1452
G1 X94.1 Y88.742 E21.5821
G1 X92.226 Y89.314 E0.17489
G1 X92.164 Y89.382 E0.00825
M107
G1 E-0.75 F3000
M204 P1500 T1000
G1 Z0.7 F18000
; printing object part_2_holes.stl id:0 copy 0
M486 S0
; acceleration to travel
M204 P1500 T1500
G1 X114.947 Y95.285
; decel to extrusion
M204 P1500 T1000
G1 X130.136 Y99.221
; end travel
M204 P1000 T1500
G1 Z0.3
G1 E0.75 F1800
;TYPE:Internal perimeter
;WIDTH:0.84
M107
G1 X130.078 Y99.253 E0.00641
G1 X129.561 Y99.7 E0.06617
G1 X129.17 Y100.204 E0.06168
G1 X128.884 Y100.766 E0.06103
G1 X128.706 Y101.379 E0.06172
G1 X128.648 Y102.063 E0.06643
G1 X128.722 Y102.704 E0.06241
G1 X128.935 Y103.357 E0.06644
G1 X129.248 Y103.913 E0.06175
G1 X129.657 Y104.397 E0.0613
G1 X130.154 Y104.798 E0.06175
G1 X130.763 Y105.116 E0.06644
G1 X131.382 Y105.295 E0.0624
G1 X132.067 Y105.352 E0.06643
G1 X132.707 Y105.277 E0.0624
G1 X133.36 Y105.064 E0.06644
G1 X133.921 Y104.747 E0.06236
G1 X134.439 Y104.3 E0.06617
G1 X134.834 Y103.79 E0.06237
G1 X135.14 Y103.175 E0.06644
G1 X135.305 Y102.559 E0.06171
G1 X135.351 Y101.93 E0.06102
G1 X135.278 Y101.296 E0.06172
G1 X135.065 Y100.643 E0.06644
G1 X134.752 Y100.087 E0.06175
G1 X134.338 Y99.598 E0.06198
G1 X133.799 Y99.171 E0.06646
G1 X133.224 Y98.879 E0.06241
G1 X132.563 Y98.695 E0.06643
G1 X131.926 Y98.649 E0.06171
G1 X131.293 Y98.723 E0.06171
G1 X130.64 Y98.936 E0.06644
G1 X130.214 Y99.176 E0.04725
M107
M204 P1000 T1000
G1 X130.527 Y99.89 F18000
;TYPE:External perimeter
M107
G1 F1800
G1 X130.126 Y100.237 E0.05123
G1 X129.828 Y100.622 E0.04712
G1 X129.608 Y101.053 E0.04684
G1 X129.472 Y101.521 E0.04713
G1 X129.428 Y102.051 E0.05145
G1 X129.484 Y102.538 E0.04743
G1 X129.648 Y103.044 E0.05146
G1 X129.888 Y103.468 E0.04714
G1 X130.202 Y103.84 E0.04707
G1 X130.581 Y104.146 E0.04715
G1 X131.053 Y104.392 E0.05146
G1 X131.523 Y104.528 E0.04742
G1 X132.054 Y104.572 E0.05145
G1 X132.54 Y104.515 E0.04742
G1 X133.046 Y104.35 E0.05146
G1 X133.473 Y104.109 E0.0474
G1 X133.874 Y103.763 E0.05123
G1 X134.174 Y103.376 E0.04741
G1 X134.41 Y102.9 E0.05146
G1 X134.536 Y102.429 E0.04713
G1 X134.572 Y101.946 E0.04684
G1 X134.516 Y101.462 E0.04714
G1 X134.352 Y100.956 E0.05146
G1 X134.112 Y100.532 E0.04714
G1 X133.796 Y100.158 E0.04736
G1 X133.379 Y99.828 E0.05147
G1 X132.942 Y99.606 E0.04743
G1 X132.429 Y99.463 E0.05145
G1 X131.943 Y99.428 E0.04713
G1 X131.46 Y99.485 E0.04713
G1 X130.954 Y99.649 E0.05146
G1 X130.605 Y99.846 E0.0387
M107
;WIPE_START
M204 P1500 T1000
G1 X129.975 Y99.656 F18000
;WIPE_END
G1 E-0.75 F3000
G1 Z0.7 F18000
; acceleration to travel
M204 P1500 T1500
G1 X119.708 Y132.101
; decel to extrusion
M204 P1500 T1000
G1 X112.864 Y153.731
; end travel
M204 P1000 T1500
G1 Z0.3
G1 E0.75 F1800
;TYPE:Internal perimeter
M107
G1 X113.14 Y153.175 E0.06001
G1 X113.305 Y152.559 E0.06171
G1 X113.351 Y151.93 E0.06102
G1 X113.278 Y151.296 E0.06172
G1 X113.065 Y150.643 E0.06643
G1 X112.752 Y150.087 E0.06175
G1 X112.338 Y149.598 E0.06198
G1 X111.799 Y149.171 E0.06647
G1 X111.224 Y148.879 E0.0624
G1 X110.563 Y148.695 E0.06643
G1 X109.926 Y148.649 E0.06171
G1 X109.293 Y148.723 E0.06171
G1 X108.64 Y148.936 E0.06644
G1 X108.078 Y149.253 E0.06236
G1 X107.561 Y149.7 E0.06617
G1 X107.166 Y150.21 E0.06237
G1 X106.86 Y150.825 E0.06643
G1 X106.695 Y151.441 E0.06171
G1 X106.649 Y152.07 E0.06102
G1 X106.722 Y152.704 E0.06172
G1 X106.935 Y153.357 E0.06644
G1 X107.248 Y153.913 E0.06175
G1 X107.662 Y154.402 E0.06194
G1 X108.198 Y154.827 E0.06623
G1 X108.775 Y155.121 E0.06265
G1 X109.437 Y155.305 E0.06646
G1 X110.074 Y155.351 E0.06171
G1 X110.707 Y155.277 E0.06172
G1 X111.36 Y155.064 E0.06643
G1 X111.921 Y154.747 E0.06236
G1 X112.439 Y154.3 E0.06617
G1 X112.82 Y153.809 E0.06008
M107
M204 P1000 T1000
G1 X112.174 Y153.376 F18000
;TYPE:External perimeter
M107
G1 F1800
G1 X112.41 Y152.9 E0.05146
G1 X112.536 Y152.429 E0.04713
G1 X112.572 Y151.946 E0.04684
G1 X112.516 Y151.462 E0.04714
G1 X112.352 Y150.956 E0.05145
G1 X112.112 Y150.532 E0.04715
G1 X111.796 Y150.158 E0.04736
G1 X111.379 Y149.828 E0.05147
G1 X110.942 Y149.606 E0.04742
G1 X110.429 Y149.463 E0.05145
G1 X109.943 Y149.428 E0.04713
G1 X109.459 Y149.485 E0.04713
G1 X108.954 Y149.65 E0.05146
G1 X108.527 Y149.89 E0.0474
G1 X108.126 Y150.237 E0.05123
G1 X107.826 Y150.624 E0.04741
G1 X107.59 Y151.1 E0.05145
G1 X107.463 Y151.571 E0.04713
G1 X107.428 Y152.054 E0.04684
G1 X107.484 Y152.538 E0.04714
G1 X107.648 Y153.044 E0.05146
G1 X107.888 Y153.468 E0.04715
G1 X108.204 Y153.842 E0.04734
G1 X108.619 Y154.171 E0.05125
G1 X109.058 Y154.394 E0.04765
G1 X109.571 Y154.537 E0.05147
G1 X110.057 Y154.572 E0.04713
G1 X110.54 Y154.515 E0.04713
G1 X111.046 Y154.35 E0.05145
G1 X111.473 Y154.109 E0.0474
G1 X111.874 Y153.763 E0.05123
G1 X112.119 Y153.447 E0.0387
M107
;WIPE_START
M204 P1500 T1000
G1 X112.774 Y153.378 F18000
;WIPE_END
G1 E-0.75 F3000
G1 Z0.7 F18000
; acceleration to travel
M204 P1500 T1500
G1 X110.332 Y214.402
; decel to extrusion
M204 P1500 T1000
G1 X108.704 Y255.085
; end travel
M204 P1000 T1500
G1 Z0.3
G1 E0.75 F1800
;TYPE:Internal perimeter
M107
G1 X108.763 Y255.116 E0.00642
G1 X109.382 Y255.295 E0.0624
G1 X110.067 Y255.352 E0.06643
G1 X110.707 Y255.277 E0.0624
G1 X111.36 Y255.064 E0.06644
G1 X111.921 Y254.747 E0.06236
G1 X112.439 Y254.3 E0.06617
G1 X112.834 Y253.79 E0.06237
G1 X113.14 Y253.175 E0.06644
G1 X113.305 Y252.559 E0.06171
G1 X113.351 Y251.93 E0.06102
G1 X113.278 Y251.296 E0.06172
G1 X113.065 Y250.643 E0.06643
G1 X112.752 Y250.087 E0.06175
G1 X112.338 Y249.598 E0.06198
G1 X111.799 Y249.171 E0.06646
G1 X111.224 Y248.879 E0.0624
G1 X110.563 Y248.695 E0.06644
G1 X109.926 Y248.649 E0.06171
G1 X109.293 Y248.723 E0.06171
G1 X108.64 Y248.936 E0.06643
G1 X108.078 Y249.253 E0.06236
G1 X107.561 Y249.7 E0.06617
G1 X107.166 Y250.21 E0.06237
G1 X106.86 Y250.825 E0.06644
G1 X106.695 Y251.441 E0.06171
G1 X106.649 Y252.07 E0.06102
G1 X106.722 Y252.704 E0.06172
G1 X106.935 Y253.357 E0.06643
G1 X107.248 Y253.913 E0.06175
G1 X107.657 Y254.397 E0.06129
G1 X108.154 Y254.798 E0.06174
G1 X108.624 Y255.043 E0.05131
M107
M204 P1000 T1000
G1 X109.053 Y254.392 F18000
;TYPE:External perimeter
M107
G1 F1800
G1 X109.524 Y254.528 E0.04742
G1 X110.054 Y254.572 E0.05145
G1 X110.54 Y254.515 E0.04742
G1 X111.046 Y254.35 E0.05146
G1 X111.473 Y254.109 E0.04741
G1 X111.874 Y253.763 E0.05123
G1 X112.174 Y253.376 E0.04741
G1 X112.41 Y252.9 E0.05146
G1 X112.536 Y252.429 E0.04713
G1 X112.572 Y251.946 E0.04684
G1 X112.516 Y251.462 E0.04714
G1 X112.352 Y250.956 E0.05146
G1 X112.112 Y250.532 E0.04715
G1 X111.796 Y250.158 E0.04736
G1 X111.379 Y249.828 E0.05147
G1 X110.942 Y249.606 E0.04742
G1 X110.429 Y249.463 E0.05146
G1 X109.943 Y249.428 E0.04713
G1 X109.459 Y249.485 E0.04713
G1 X108.954 Y249.649 E0.05146
G1 X108.527 Y249.89 E0.04741
G1 X108.126 Y250.237 E0.05123
G1 X107.826 Y250.624 E0.04741
G1 X107.59 Y251.1 E0.05146
G1 X107.463 Y251.571 E0.04713
G1 X107.428 Y252.054 E0.04684
G1 X107.484 Y252.538 E0.04714
G1 X107.648 Y253.044 E0.05146
G1 X107.888 Y253.468 E0.04715
G1 X108.202 Y253.84 E0.04707
G1 X108.581 Y254.146 E0.04714
G1 X108.973 Y254.35 E0.04275
M107
;WIPE_START
M204 P1500 T1000
G1 X109.157 Y254.983 F18000
;WIPE_END
G1 E-0.75 F3000
G1 Z0.7 F18000
; acceleration to travel
M204 P1500 T1500
G1 X111.29 Y312.016
; decel to extrusion
M204 P1500 T1000
G1 X112.711 Y350.038
; end travel
M204 P1000 T1500
G1 Z0.3
G1 E0.75 F1800
;TYPE:Internal perimeter
M107
G1 X112.338 Y349.598 E0.05584
G1 X111.799 Y349.171 E0.06647
G1 X111.23 Y348.882 E0.06172
G1 X110.618 Y348.705 E0.06171
G1 X109.933 Y348.648 E0.06644
G1 X109.293 Y348.723 E0.06241
G1 X108.64 Y348.936 E0.06644
G1 X108.078 Y349.253 E0.06236
G1 X107.561 Y349.7 E0.06617
G1 X107.166 Y350.21 E0.06237
G1 X106.86 Y350.825 E0.06643
G1 X106.695 Y351.441 E0.06171
G1 X106.649 Y352.07 E0.06102
G1 X106.722 Y352.704 E0.06172
G1 X106.935 Y353.357 E0.06644
G1 X107.248 Y353.913 E0.06175
G1 X107.662 Y354.402 E0.06198
G1 X108.201 Y354.828 E0.06647
G1 X108.769 Y355.118 E0.06172
G1 X109.382 Y355.295 E0.06171
G1 X110.067 Y355.352 E0.06643
G1 X110.707 Y355.277 E0.06241
G1 X111.36 Y355.064 E0.06643
G1 X111.921 Y354.747 E0.06236
G1 X112.439 Y354.3 E0.06617
G1 X112.834 Y353.79 E0.06236
G1 X113.14 Y353.175 E0.06643
G1 X113.305 Y352.559 E0.06172
G1 X113.351 Y351.93 E0.06102
G1 X113.278 Y351.296 E0.06172
G1 X113.065 Y350.643 E0.06644
G1 X112.765 Y350.11 E0.0592
M107
M204 P1000 T1000
G1 X112.112 Y350.532 F18000
;TYPE:External perimeter
M107
G1 F1800
G1 X111.796 Y350.158 E0.04736
G1 X111.379 Y349.828 E0.05147
G1 X110.944 Y349.607 E0.04713
G1 X110.476 Y349.472 E0.04713
G1 X109.946 Y349.428 E0.05146
G1 X109.459 Y349.485 E0.04742
G1 X108.954 Y349.649 E0.05146
G1 X108.527 Y349.89 E0.0474
G1 X108.126 Y350.237 E0.05123
G1 X107.826 Y350.624 E0.04741
G1 X107.59 Y351.1 E0.05145
G1 X107.463 Y351.571 E0.04713
G1 X107.428 Y352.054 E0.04684
G1 X107.484 Y352.538 E0.04714
G1 X107.648 Y353.044 E0.05146
G1 X107.888 Y353.468 E0.04715
G1 X108.204 Y353.842 E0.04736
G1 X108.621 Y354.172 E0.05147
G1 X109.055 Y354.393 E0.04713
G1 X109.524 Y354.528 E0.04713
G1 X110.054 Y354.572 E0.05145
G1 X110.54 Y354.515 E0.04743
G1 X111.046 Y354.35 E0.05146
G1 X111.473 Y354.109 E0.0474
G1 X111.874 Y353.763 E0.05123
G1 X112.174 Y353.376 E0.0474
G1 X112.41 Y352.9 E0.05145
G1 X112.536 Y352.429 E0.04714
G1 X112.572 Y351.946 E0.04683
G1 X112.516 Y351.462 E0.04714
G1 X112.352 Y350.956 E0.05146
G1 X112.157 Y350.61 E0.03844
M107
;WIPE_START
M204 P1500 T1000
G1 X112.35 Y349.981 F18000
;WIPE_END
G1 E-0.75 F3000
G1 Z0.7 F18000
; acceleration to travel
M204 P1500 T1500
G1 X134.169 Y372.575
; decel to extrusion
M204 P1500 T1000
G1 X148.715 Y387.638
; end travel
M204 P1000 T1500
G1 Z0.3
G1 E0.75 F1800
;TYPE:Internal perimeter
M107
G1 X148.722 Y387.704 E0.00642
G1 X148.937 Y388.364 E0.06713
G1 X149.284 Y388.965 E0.06716
G1 X149.708 Y389.445 E0.06198
G1 X150.213 Y389.836 E0.06174
G1 X150.828 Y390.141 E0.06644
G1 X151.444 Y390.305 E0.06171
G1 X152.074 Y390.351 E0.06102
G1 X152.707 Y390.277 E0.06172
G1 X153.36 Y390.064 E0.06644
G1 X153.921 Y389.747 E0.06236
G1 X154.439 Y389.3 E0.06617
G1 X154.834 Y388.79 E0.06237
G1 X155.14 Y388.175 E0.06644
G1 X155.305 Y387.559 E0.06171
G1 X155.351 Y386.93 E0.06102
G1 X155.278 Y386.296 E0.06172
G1 X155.065 Y385.643 E0.06644
G1 X154.752 Y385.087 E0.06174
G1 X154.338 Y384.598 E0.06199
G1 X153.799 Y384.171 E0.06647
G1 X153.23 Y383.882 E0.06172
G1 X152.618 Y383.705 E0.06171
G1 X151.933 Y383.648 E0.06644
G1 X151.293 Y383.723 E0.0624
G1 X150.64 Y383.936 E0.06644
G1 X150.078 Y384.253 E0.06236
G1 X149.561 Y384.7 E0.06617
G1 X149.17 Y385.204 E0.06168
G1 X148.884 Y385.766 E0.06103
G1 X148.706 Y386.379 E0.06171
G1 X148.648 Y387.063 E0.06643
G1 X148.704 Y387.549 E0.04728
M107
M204 P1000 T1000
G1 X149.484 Y387.538 F18000
;TYPE:External perimeter
M107
G1 F1800
G1 X149.649 Y388.047 E0.05175
G1 X149.917 Y388.51 E0.05176
G1 X150.241 Y388.877 E0.04736
G1 X150.626 Y389.175 E0.04714
G1 X151.103 Y389.411 E0.05146
G1 X151.574 Y389.537 E0.04713
G1 X152.057 Y389.572 E0.04684
G1 X152.54 Y389.515 E0.04713
G1 X153.046 Y389.35 E0.05146
G1 X153.473 Y389.109 E0.0474
G1 X153.874 Y388.763 E0.05123
G1 X154.174 Y388.376 E0.04741
G1 X154.41 Y387.9 E0.05146
G1 X154.536 Y387.429 E0.04713
G1 X154.572 Y386.946 E0.04684
G1 X154.516 Y386.462 E0.04714
G1 X154.352 Y385.956 E0.05146
G1 X154.112 Y385.532 E0.04714
G1 X153.796 Y385.158 E0.04737
G1 X153.379 Y384.828 E0.05147
G1 X152.944 Y384.607 E0.04714
G1 X152.476 Y384.472 E0.04713
G1 X151.946 Y384.428 E0.05146
G1 X151.459 Y384.485 E0.04742
G1 X150.954 Y384.649 E0.05146
G1 X150.527 Y384.89 E0.04741
G1 X150.126 Y385.237 E0.05123
G1 X149.828 Y385.622 E0.04711
G1 X149.608 Y386.053 E0.04684
G1 X149.472 Y386.521 E0.04713
G1 X149.428 Y387.051 E0.05145
G1 X149.474 Y387.448 E0.03872
M107
;WIPE_START
M204 P1500 T1000
G1 X149.054 Y387.956 F18000
;WIPE_END
G1 E-0.75 F3000
G1 Z0.7 F18000
; acceleration to travel
M204 P1500 T1500
G1 X211.284 Y389.336
; decel to extrusion
M204 P1500 T1000
G1 X252.77 Y390.256
; end travel
M204 P1000 T1500
G1 Z0.3
G1 E0.75 F1800
;TYPE:Internal perimeter
M107
G1 X253.36 Y390.064 E0.06002
G1 X253.921 Y389.747 E0.06236
G1 X254.439 Y389.3 E0.06616
G1 X254.834 Y388.79 E0.06237
G1 X255.14 Y388.175 E0.06644
G1 X255.305 Y387.559 E0.06171
G1 X255.351 Y386.93 E0.06102
G1 X255.278 Y386.296 E0.06172
G1 X255.065 Y385.643 E0.06643
G1 X254.752 Y385.087 E0.06175
G1 X254.338 Y384.598 E0.06199
G1 X253.799 Y384.171 E0.06647
G1 X253.23 Y383.882 E0.06171
G1 X252.618 Y383.705 E0.06171
G1 X251.933 Y383.648 E0.06643
G1 X251.293 Y383.723 E0.0624
G1 X250.64 Y383.936 E0.06644
G1 X250.078 Y384.253 E0.06237
G1 X249.561 Y384.7 E0.06616
G1 X249.166 Y385.21 E0.06237
G1 X248.86 Y385.825 E0.06644
G1 X248.695 Y386.441 E0.06171
G1 X248.649 Y387.07 E0.06102
G1 X248.722 Y387.704 E0.06172
G1 X248.935 Y388.357 E0.06643
G1 X249.248 Y388.913 E0.06175
