; generated by SuperSlicer 2.5.59.8 on 2024-08-13 at 20:34:33 UTC


;
;

;
;
; TODO: check the size of the extruder and the y-bar clearance. Optimize & test supports.

; external perimeters extrusion width = 0.84mm
; perimeters extrusion width = 0.84mm
; infill extrusion width = 0.84mm
; solid infill extrusion width = 0.84mm
; top infill extrusion width = 0.84mm
; first layer extrusion width = 0.84mm

; object:{"name":"part_1_holes","id":"part_1_holes.stl id:0 copy 0","object_center":[252.756489,259.159620,0.000000],"boundingbox_center":[252.756489,259.159620,1.500000],"boundingbox_size":[312.000061,316.000031,3.000000]}
; Total objects to print: 1
M486 T1
; plater:{"center":[252.756489,259.159620,0.000000],"boundingbox_center":[252.756489,259.159620,1.500000],"boundingbox_size":[312.000061,316.000031,3.000000]}

M107
M140 S60 ; set bed temperature
G10 P0 R205 ; sets the standby temperature
G10 P0 S215 ; set temperature
;TYPE:Custom
; M190 S0
; M109 S0 ; uncomment to remove set&wait temp gcode added automatically after this start gcode
print_start EXTRUDER=215 BED=60 CHAMBER=15
M107
G21 ; set units to millimeters
G90 ; use absolute coordinates
M83 ; use relative distances for extrusion
T0
G10 P0 S215 ; set temperature
M116 ; wait for temperature to be reached
M190 S60 ; set bed temperature and wait for it to be reached
;LAYER_CHANGE
;Z:0.3
;HEIGHT:0.3
;BEFORE_LAYER_CHANGE
;0.3


G1 Z0.3 F18000
;AFTER_LAYER_CHANGE
;0.3
G92 E0
G1 E-0.75 F3000
G1 Z0.7 F18000
M204 P1000 T1000
G1 X130.672 Y130.672
G1 Z0.3
G1 E0.75 F1800
;TYPE:Skirt
;WIDTH:0.78
M107
G1 X93.47 Y167.873 E4.69585
G1 X92.463 Y169.353 E0.15976
G1 X92.067 Y171.26 E0.17379
G1 X92.067 Y417.06 E21.93913
G1 X92.346 Y418.668 E0.14569
G1 X93.359 Y420.331 E0.17379
G1 X94.95 Y421.453 E0.17379
G1 X96.856 Y421.849 E0.17379
G1 X408.657 Y421.849 E27.83003
G1 X410.265 Y421.571 E0.14569
G1 X411.928 Y420.557 E0.17379
G1 X413.05 Y418.966 E0.17379
G1 X413.446 Y417.06 E0.17379
G1 X413.446 Y101.26 E28.18705
G1 X413.167 Y99.651 E0.14569
G1 X412.154 Y97.988 E0.17379
G1 X410.563 Y96.866 E0.17379
G1 X408.657 Y96.471 E0.17379
G1 X166.856 Y96.471 E21.58211
G1 X165.098 Y96.805 E0.15976
G1 X163.47 Y97.873 E0.17379
G1 X130.735 Y130.608 E4.13202
M107
G1 X131.241 Y131.114 F18000
M107
G1 F1800
G1 X93.976 Y168.379 E4.70388
G1 X93.178 Y169.51 E0.1235
G1 X92.783 Y171.26 E0.16013
G1 X92.783 Y417.06 E21.93913
G1 X92.898 Y418.022 E0.08653
G1 X93.696 Y419.629 E0.16013
G1 X95.106 Y420.738 E0.16013
G1 X96.856 Y421.133 E0.16013
G1 X408.657 Y421.133 E27.83003
G1 X409.619 Y421.018 E0.08653
G1 X411.226 Y420.22 E0.16013
G1 X412.335 Y418.81 E0.16013
G1 X412.73 Y417.06 E0.16013
G1 X412.73 Y101.26 E28.18705
G1 X412.615 Y100.297 E0.08653
G1 X411.817 Y98.69 E0.16013
G1 X410.407 Y97.581 E0.16013
G1 X408.657 Y97.186 E0.16013
G1 X166.856 Y97.186 E21.58211
G1 X165.493 Y97.421 E0.1235
G1 X163.976 Y98.379 E0.16013
G1 X131.305 Y131.05 E4.12398
M107
G1 X131.811 Y131.556 F18000
M107
G1 F1800
G1 X94.482 Y168.885 E4.71191
G1 X93.893 Y169.681 E0.08841
G1 X93.499 Y171.26 E0.1452
G1 X93.499 Y417.06 E21.93913
G1 X94.07 Y418.934 E0.17489
G1 X95.278 Y420.023 E0.1452
G1 X96.856 Y420.417 E0.1452
G1 X408.657 Y420.417 E27.83003
G1 X410.531 Y419.846 E0.17489
G1 X411.62 Y418.638 E0.1452
G1 X412.014 Y417.06 E0.1452
G1 X412.014 Y101.26 E28.18705
G1 X411.443 Y99.385 E0.17489
G1 X410.235 Y98.296 E0.1452
G1 X408.657 Y97.902 E0.1452
G1 X166.856 Y97.902 E21.58211
G1 X165.877 Y98.048 E0.08841
G1 X164.482 Y98.885 E0.1452
G1 X131.875 Y131.493 E4.11595
M107
G1 E-0.75 F3000
M204 P1500 T1000
G1 Z0.7 F18000
; printing object part_1_holes.stl id:0 copy 0
M486 S0
; acceleration to travel
M204 P1500 T1500
G1 X169.685 Y117.625
; decel to extrusion
M204 P1500 T1000
G1 X194.893 Y108.38
; end travel
M204 P1000 T1500
G1 Z0.3
G1 E0.75 F1800
;TYPE:Internal perimeter
;WIDTH:0.84
M107
G1 X194.835 Y108.413 E0.00641
G1 X194.317 Y108.86 E0.06616
G1 X193.927 Y109.364 E0.06169
G1 X193.64 Y109.926 E0.06102
G1 X193.462 Y110.538 E0.06172
G1 X193.405 Y111.223 E0.06643
G1 X193.479 Y111.864 E0.06241
G1 X193.691 Y112.517 E0.06643
G1 X194.004 Y113.073 E0.06175
G1 X194.414 Y113.556 E0.06129
G1 X194.91 Y113.958 E0.06174
G1 X195.519 Y114.275 E0.06644
G1 X196.139 Y114.454 E0.0624
G1 X196.823 Y114.511 E0.06644
G1 X197.464 Y114.436 E0.0624
G1 X198.117 Y114.223 E0.06644
G1 X198.678 Y113.906 E0.06236
G1 X199.196 Y113.459 E0.06616
G1 X199.591 Y112.95 E0.06237
G1 X199.896 Y112.335 E0.06644
G1 X200.061 Y111.719 E0.06172
G1 X200.107 Y111.089 E0.06102
G1 X200.034 Y110.456 E0.06172
G1 X199.822 Y109.803 E0.06643
G1 X199.508 Y109.246 E0.06176
G1 X199.095 Y108.757 E0.06198
G1 X198.556 Y108.331 E0.06646
G1 X197.981 Y108.039 E0.0624
G1 X197.319 Y107.855 E0.06644
G1 X196.683 Y107.809 E0.06171
G1 X196.049 Y107.883 E0.06171
G1 X195.396 Y108.096 E0.06643
G1 X194.971 Y108.336 E0.04725
M107
M204 P1000 T1000
G1 X195.284 Y109.05 F18000
;TYPE:External perimeter
M107
G1 F1800
G1 X194.883 Y109.396 E0.05123
G1 X194.584 Y109.781 E0.04712
G1 X194.365 Y110.213 E0.04684
G1 X194.229 Y110.68 E0.04714
G1 X194.184 Y111.21 E0.05145
G1 X194.24 Y111.697 E0.04743
G1 X194.405 Y112.203 E0.05145
G1 X194.644 Y112.628 E0.04715
G1 X194.958 Y112.999 E0.04707
G1 X195.337 Y113.306 E0.04714
G1 X195.809 Y113.552 E0.05146
G1 X196.28 Y113.688 E0.04742
G1 X196.81 Y113.732 E0.05146
G1 X197.297 Y113.675 E0.04742
G1 X197.803 Y113.51 E0.05146
G1 X198.229 Y113.269 E0.0474
G1 X198.63 Y112.923 E0.05122
G1 X198.93 Y112.536 E0.04741
G1 X199.167 Y112.059 E0.05146
G1 X199.293 Y111.589 E0.04713
G1 X199.328 Y111.106 E0.04684
G1 X199.272 Y110.622 E0.04714
G1 X199.108 Y110.116 E0.05145
G1 X198.869 Y109.691 E0.04715
G1 X198.553 Y109.317 E0.04736
G1 X198.135 Y108.987 E0.05147
G1 X197.698 Y108.765 E0.04742
G1 X197.186 Y108.623 E0.05146
G1 X196.7 Y108.588 E0.04713
G1 X196.216 Y108.644 E0.04713
G1 X195.71 Y108.809 E0.05145
G1 X195.362 Y109.006 E0.0387
M107
;WIPE_START
M204 P1500 T1000
G1 X194.731 Y108.816 F18000
;WIPE_END
G1 E-0.75 F3000
G1 Z0.7 F18000
; acceleration to travel
M204 P1500 T1500
G1 X143.065 Y165.89
; decel to extrusion
M204 P1500 T1000
G1 X108.62 Y203.939
; end travel
M204 P1000 T1500
G1 Z0.3
G1 E0.75 F1800
;TYPE:Internal perimeter
M107
G1 X108.678 Y203.906 E0.00641
G1 X109.196 Y203.459 E0.06616
G1 X109.586 Y202.956 E0.06168
G1 X109.873 Y202.393 E0.06103
G1 X110.051 Y201.781 E0.06172
G1 X110.109 Y201.089 E0.06712
G1 X110.022 Y200.401 E0.06713
G1 X109.818 Y199.796 E0.06172
G1 X109.508 Y199.246 E0.06106
G1 X109.095 Y198.757 E0.06199
G1 X108.556 Y198.331 E0.06646
G1 X107.987 Y198.042 E0.06171
G1 X107.374 Y197.865 E0.06172
G1 X106.69 Y197.808 E0.06643
G1 X106.049 Y197.883 E0.0624
G1 X105.396 Y198.096 E0.06643
G1 X104.835 Y198.413 E0.06236
G1 X104.317 Y198.86 E0.06617
G1 X103.927 Y199.364 E0.06168
G1 X103.637 Y199.932 E0.06172
G1 X103.452 Y200.594 E0.06643
G1 X103.406 Y201.23 E0.06171
G1 X103.479 Y201.864 E0.06172
G1 X103.693 Y202.523 E0.06712
G1 X104.04 Y203.125 E0.06716
G1 X104.464 Y203.605 E0.06198
G1 X104.964 Y203.991 E0.06106
G1 X105.526 Y204.277 E0.06102
G1 X106.139 Y204.454 E0.06172
G1 X106.823 Y204.511 E0.06644
G1 X107.464 Y204.436 E0.0624
G1 X108.117 Y204.223 E0.06644
G1 X108.542 Y203.983 E0.04725
M107
M204 P1000 T1000
G1 X108.229 Y203.269 F18000
;TYPE:External perimeter
M107
G1 F1800
G1 X108.63 Y202.923 E0.05123
G1 X108.929 Y202.538 E0.04712
G1 X109.148 Y202.107 E0.04684
G1 X109.284 Y201.639 E0.04713
G1 X109.329 Y201.106 E0.05175
G1 X109.262 Y200.575 E0.05175
G1 X109.107 Y200.113 E0.04713
G1 X108.869 Y199.691 E0.04685
G1 X108.553 Y199.317 E0.04737
G1 X108.135 Y198.987 E0.05147
G1 X107.701 Y198.767 E0.04713
G1 X107.233 Y198.631 E0.04713
G1 X106.703 Y198.587 E0.05146
G1 X106.216 Y198.644 E0.04742
G1 X105.71 Y198.809 E0.05146
G1 X105.284 Y199.05 E0.0474
G1 X104.883 Y199.396 E0.05123
G1 X104.584 Y199.781 E0.04712
G1 X104.363 Y200.215 E0.04714
G1 X104.22 Y200.728 E0.05145
G1 X104.184 Y201.213 E0.04713
G1 X104.24 Y201.697 E0.04714
G1 X104.406 Y202.206 E0.05175
G1 X104.673 Y202.67 E0.05177
G1 X104.997 Y203.037 E0.04736
G1 X105.38 Y203.333 E0.04685
G1 X105.812 Y203.552 E0.04684
G1 X106.28 Y203.688 E0.04713
G1 X106.81 Y203.732 E0.05146
G1 X107.297 Y203.675 E0.04742
G1 X107.803 Y203.51 E0.05146
G1 X108.151 Y203.313 E0.0387
M107
;WIPE_START
M204 P1500 T1000
G1 X108.782 Y203.503 F18000
;WIPE_END
G1 E-0.75 F3000
G1 Z0.7 F18000
; acceleration to travel
M204 P1500 T1500
G1 X107.864 Y290.111
; decel to extrusion
M204 P1500 T1000
G1 X107.253 Y347.85
; end travel
M204 P1000 T1500
G1 Z0.3
G1 E0.75 F1800
;TYPE:Internal perimeter
M107
G1 X106.676 Y347.808 E0.05598
G1 X105.994 Y347.895 E0.06643
G1 X105.39 Y348.099 E0.06172
G1 X104.835 Y348.413 E0.06167
G1 X104.317 Y348.86 E0.06617
G1 X103.927 Y349.364 E0.06168
G1 X103.637 Y349.932 E0.06171
G1 X103.452 Y350.594 E0.06644
G1 X103.406 Y351.23 E0.06171
G1 X103.479 Y351.863 E0.06172
G1 X103.691 Y352.517 E0.06644
G1 X104.004 Y353.073 E0.06175
G1 X104.414 Y353.556 E0.0613
G1 X104.91 Y353.958 E0.06174
G1 X105.525 Y354.278 E0.06712
G1 X106.194 Y354.464 E0.06712
G1 X106.837 Y354.511 E0.0624
G1 X107.518 Y354.424 E0.06643
G1 X108.123 Y354.22 E0.06171
G1 X108.678 Y353.906 E0.06167
G1 X109.196 Y353.459 E0.06617
G1 X109.586 Y352.955 E0.06168
G1 X109.873 Y352.393 E0.06102
G1 X110.051 Y351.781 E0.06172
G1 X110.109 Y351.089 E0.06712
G1 X110.022 Y350.401 E0.06712
G1 X109.818 Y349.796 E0.06172
G1 X109.508 Y349.246 E0.06107
G1 X109.099 Y348.763 E0.06129
G1 X108.603 Y348.362 E0.06174
G1 X107.988 Y348.041 E0.06713
G1 X107.342 Y347.861 E0.06484
M107
M204 P1000 T1000
G1 X107.186 Y348.623 F18000
;TYPE:External perimeter
M107
G1 F1800
G1 X106.697 Y348.587 E0.04743
G1 X106.169 Y348.655 E0.05145
G1 X105.708 Y348.811 E0.04714
G1 X105.284 Y349.05 E0.04711
G1 X104.883 Y349.396 E0.05123
G1 X104.584 Y349.781 E0.04712
G1 X104.363 Y350.215 E0.04713
G1 X104.22 Y350.728 E0.05146
G1 X104.184 Y351.213 E0.04713
G1 X104.24 Y351.697 E0.04713
G1 X104.405 Y352.203 E0.05146
G1 X104.644 Y352.628 E0.04715
G1 X104.958 Y352.999 E0.04707
G1 X105.337 Y353.306 E0.04714
G1 X105.812 Y353.553 E0.05175
G1 X106.327 Y353.696 E0.05175
G1 X106.816 Y353.732 E0.04743
G1 X107.344 Y353.665 E0.05145
G1 X107.805 Y353.509 E0.04713
G1 X108.229 Y353.269 E0.04711
G1 X108.63 Y352.923 E0.05123
G1 X108.929 Y352.538 E0.04712
G1 X109.148 Y352.107 E0.04684
G1 X109.284 Y351.639 E0.04714
G1 X109.329 Y351.106 E0.05174
G1 X109.262 Y350.575 E0.05175
G1 X109.107 Y350.113 E0.04713
G1 X108.869 Y349.691 E0.04686
G1 X108.555 Y349.32 E0.04707
G1 X108.176 Y349.014 E0.04715
G1 X107.701 Y348.766 E0.05175
G1 X107.273 Y348.647 E0.04304
M107
;WIPE_START
M204 P1500 T1000
G1 X106.96 Y348.067 F18000
;WIPE_END
G1 E-0.75 F3000
G1 Z0.7 F18000
; acceleration to travel
M204 P1500 T1500
G1 X128.884 Y377.383
; decel to extrusion
M204 P1500 T1000
G1 X143.499 Y396.927
; end travel
M204 P1000 T1500
G1 Z0.3
G1 E0.75 F1800
;TYPE:Internal perimeter
M107
G1 X143.691 Y397.517 E0.06001
G1 X144.004 Y398.073 E0.06175
G1 X144.418 Y398.562 E0.06199
G1 X144.957 Y398.988 E0.06647
G1 X145.526 Y399.277 E0.06171
G1 X146.139 Y399.454 E0.06171
G1 X146.823 Y399.511 E0.06644
G1 X147.464 Y399.436 E0.0624
G1 X148.117 Y399.224 E0.06644
G1 X148.678 Y398.906 E0.06236
G1 X149.196 Y398.459 E0.06616
G1 X149.591 Y397.95 E0.06237
G1 X149.896 Y397.335 E0.06643
G1 X150.061 Y396.718 E0.06172
G1 X150.107 Y396.089 E0.06101
G1 X150.034 Y395.456 E0.06172
G1 X149.822 Y394.803 E0.06644
G1 X149.508 Y394.246 E0.06175
G1 X149.095 Y393.757 E0.06198
G1 X148.556 Y393.331 E0.06647
G1 X147.987 Y393.042 E0.06171
G1 X147.374 Y392.865 E0.06172
G1 X146.69 Y392.808 E0.06643
G1 X146.049 Y392.883 E0.0624
G1 X145.396 Y393.096 E0.06643
G1 X144.835 Y393.413 E0.06236
G1 X144.317 Y393.86 E0.06617
G1 X143.927 Y394.364 E0.06167
G1 X143.64 Y394.926 E0.06103
G1 X143.462 Y395.538 E0.06172
G1 X143.405 Y396.223 E0.06642
G1 X143.476 Y396.84 E0.06013
M107
M204 P1000 T1000
G1 X144.24 Y396.697 F18000
;TYPE:External perimeter
M107
G1 F1800
G1 X144.405 Y397.203 E0.05145
G1 X144.644 Y397.628 E0.04715
G1 X144.96 Y398.002 E0.04736
G1 X145.378 Y398.332 E0.05147
G1 X145.812 Y398.552 E0.04713
G1 X146.28 Y398.688 E0.04713
G1 X146.81 Y398.732 E0.05146
G1 X147.297 Y398.675 E0.04742
G1 X147.803 Y398.51 E0.05146
G1 X148.229 Y398.269 E0.04741
G1 X148.63 Y397.923 E0.05123
G1 X148.93 Y397.536 E0.04741
G1 X149.167 Y397.059 E0.05145
G1 X149.293 Y396.589 E0.04714
G1 X149.328 Y396.106 E0.04683
G1 X149.272 Y395.622 E0.04714
G1 X149.108 Y395.116 E0.05146
G1 X148.869 Y394.691 E0.04715
G1 X148.553 Y394.318 E0.04736
G1 X148.135 Y393.987 E0.05147
G1 X147.701 Y393.767 E0.04713
G1 X147.233 Y393.631 E0.04713
G1 X146.703 Y393.587 E0.05146
G1 X146.216 Y393.644 E0.04742
G1 X145.71 Y393.809 E0.05146
G1 X145.284 Y394.05 E0.0474
G1 X144.883 Y394.396 E0.05123
G1 X144.584 Y394.781 E0.04711
G1 X144.365 Y395.213 E0.04684
G1 X144.229 Y395.68 E0.04714
G1 X144.184 Y396.21 E0.05145
G1 X144.23 Y396.608 E0.03872
M107
;WIPE_START
M204 P1500 T1000
G1 X143.81 Y397.116 F18000
;WIPE_END
G1 E-0.75 F3000
G1 Z0.7 F18000
; acceleration to travel
M204 P1500 T1500
G1 X207.532 Y396.082
; decel to extrusion
M204 P1500 T1000
G1 X250.013 Y395.393
; end travel
M204 P1000 T1500
G1 Z0.3
G1 E0.75 F1800
;TYPE:Internal perimeter
M107
G1 X249.822 Y394.803 E0.06001
G1 X249.508 Y394.247 E0.06174
G1 X249.095 Y393.757 E0.06199
G1 X248.556 Y393.331 E0.06647
G1 X247.987 Y393.042 E0.06171
G1 X247.374 Y392.865 E0.06171
G1 X246.69 Y392.808 E0.06644
G1 X246.049 Y392.883 E0.0624
G1 X245.396 Y393.096 E0.06643
G1 X244.835 Y393.413 E0.06237
G1 X244.317 Y393.86 E0.06616
G1 X243.927 Y394.364 E0.06167
G1 X243.64 Y394.926 E0.06103
G1 X243.462 Y395.538 E0.06172
G1 X243.405 Y396.223 E0.06643
G1 X243.479 Y396.864 E0.06241
G1 X243.691 Y397.517 E0.06643
G1 X244.004 Y398.073 E0.06175
G1 X244.418 Y398.562 E0.06199
G1 X244.957 Y398.988 E0.06646
G1 X245.526 Y399.277 E0.06171
G1 X246.139 Y399.454 E0.06171
G1 X246.823 Y399.511 E0.06644
G1 X247.464 Y399.436 E0.0624
G1 X248.117 Y399.223 E0.06644
G1 X248.678 Y398.906 E0.06237
G1 X249.195 Y398.459 E0.06616
G1 X249.586 Y397.955 E0.06168
G1 X249.873 Y397.393 E0.06103
G1 X250.051 Y396.781 E0.06171
G1 X250.108 Y396.097 E0.06643
G1 X250.037 Y395.479 E0.06013
M107
M204 P1000 T1000
G1 X249.272 Y395.622 F18000
;TYPE:External perimeter
M107
G1 F1800
G1 X249.108 Y395.116 E0.05145
G1 X248.869 Y394.691 E0.04714
G1 X248.553 Y394.317 E0.04737
G1 X248.135 Y393.987 E0.05147
G1 X247.701 Y393.767 E0.04713
G1 X247.233 Y393.631 E0.04713
G1 X246.703 Y393.587 E0.05146
G1 X246.216 Y393.644 E0.04742
G1 X245.71 Y393.809 E0.05145
G1 X245.284 Y394.05 E0.04741
G1 X244.883 Y394.396 E0.05122
G1 X244.584 Y394.781 E0.04711
G1 X244.365 Y395.213 E0.04684
G1 X244.229 Y395.68 E0.04714
G1 X244.184 Y396.21 E0.05145
G1 X244.24 Y396.698 E0.04743
G1 X244.405 Y397.203 E0.05145
G1 X244.644 Y397.628 E0.04715
G1 X244.96 Y398.002 E0.04736
G1 X245.378 Y398.332 E0.05146
G1 X245.812 Y398.552 E0.04713
G1 X246.28 Y398.688 E0.04713
G1 X246.81 Y398.732 E0.05146
G1 X247.297 Y398.675 E0.04742
G1 X247.803 Y398.51 E0.05146
G1 X248.229 Y398.269 E0.04741
G1 X248.63 Y397.923 E0.05122
G1 X248.929 Y397.538 E0.04712
G1 X249.148 Y397.107 E0.04684
G1 X249.284 Y396.639 E0.04713
G1 X249.329 Y396.109 E0.05145
G1 X249.283 Y395.711 E0.03872
M107
;WIPE_START
M204 P1500 T1000
G1 X249.703 Y395.203 F18000
;WIPE_END
G1 E-0.75 F3000
G1 Z0.7 F18000
; acceleration to travel
M204 P1500 T1500
G1 X308.32 Y397.748
; decel to extrusion
M204 P1500 T1000
G1 X347.398 Y399.444
; end travel
M204 P1000 T1500
G1 Z0.3
G1 E0.75 F1800
;TYPE:Internal perimeter
M107
G1 X347.464 Y399.436 E0.00642
G1 X348.117 Y399.223 E0.06644
G1 X348.678 Y398.906 E0.06236
G1 X349.196 Y398.459 E0.06616
G1 X349.586 Y397.956 E0.06168
G1 X349.873 Y397.393 E0.06104
G1 X350.051 Y396.781 E0.06171
G1 X350.108 Y396.097 E0.06642
G1 X350.034 Y395.456 E0.06241
G1 X349.822 Y394.803 E0.06644
G1 X349.508 Y394.246 E0.06175
G1 X349.095 Y393.757 E0.06199
G1 X348.556 Y393.331 E0.06647
G1 X347.987 Y393.042 E0.06171
G1 X347.374 Y392.865 E0.06172
G1 X346.69 Y392.808 E0.06644
G1 X346.049 Y392.883 E0.0624
G1 X345.396 Y393.096 E0.06644
G1 X344.835 Y393.413 E0.06237
G1 X344.317 Y393.86 E0.06616
G1 X343.927 Y394.364 E0.06167
