; HEADER_BLOCK_START
; generated by OrcaSlicer 2.2.0 on 2024-12-10 at 10:50:24
; total layer number: 121
; filament_density: 1.27,1.24,1.24,1.24,1.24
; filament_diameter: 1.75,1.75,1.75,1.75,1.75
; max_z_height: 24.20
; HEADER_BLOCK_END

; THUMBNAIL_BLOCK_START

;
; THUMBNAIL_BLOCK_END

; THUMBNAIL_BLOCK_START

;
; THUMBNAIL_BLOCK_END

; external perimeters extrusion width = 0.42mm
; perimeters extrusion width = 0.45mm
; infill extrusion width = 0.45mm
; solid infill extrusion width = 0.42mm
; top infill extrusion width = 0.42mm
; support material extrusion width = 0.42mm
; first layer extrusion width = 0.50mm

; EXECUTABLE_BLOCK_START
EXCLUDE_OBJECT_DEFINE NAME=ebb_mount.stl_id_0_copy_0 CENTER=175.663,177.526 POLYGON=[[148.463,149.067],[150.044,149],[150.146,148.996],[202.134,148.996],[202.214,148.998],[202.292,149.004],[202.366,149.013],[202.434,149.026],[202.495,149.042],[202.547,149.061],[202.588,149.082],[202.619,149.105],[202.638,149.129],[202.644,149.154],[202.863,151.556],[202.863,176.556],[189.363,206.056],[165.863,206.056],[154.863,174.556],[148.463,153.367],[148.463,149.067]]
M73 P0 R40
;TYPE:Custom
;START
M140 S60         ; set bed final temp
M190 S60         ; wait for bed final temp






G90
G21
M83 ; use relative distances for extrusion
; TESTING
T2



OFFSET_T2
M117 SET FILAMENT SENSOR ON 
SET_FILAMENT_SENSOR SENSOR=encoder_t2 ENABLE=1
;_FORCE_RESUME_FAN_SPEED
; filament start gcode
M109 S220 T2 ; set nozzle temperature and wait for it to be reached
M106 S0
;LAYER_CHANGE
;Z:0.2
;HEIGHT:0.2
;BEFORE_LAYER_CHANGE
;0.2
G92 E0

OFFSET_T2


G1 E-.8 F1800
;AFTER_LAYER_CHANGE
;0.2
;AFTER_LAYER_CHANGE
;0.2

OFFSET_T2

;_SET_FAN_SPEED_CHANGING_LAYER
SET_VELOCITY_LIMIT ACCEL=500 ACCEL_TO_DECEL=250
; printing object ebb_mount.stl id:0 copy 0
EXCLUDE_OBJECT_START NAME=ebb_mount.stl_id_0_copy_0
G1 Z.6 F45000
G1 X179.195 Y149.828
G1 Z.6
G1 Z.2
G1 E.8 F1800
;Change extrusion role G-code

OFFSET_T2


;TYPE:Support
;WIDTH:0.5
G1 F3000
G3 X177.86 Y149.922 I-.332 J4.809 E1.07821
G3 X179.126 Y149.825 I.899 J3.431 E.04753
G1 E-.56 F1800
;WIPE_START
G1 F3000
G1 X178.129 Y149.901 E-.24
;WIPE_END
G1 Z.6 F45000
G1 X177.778 Y150.381 Z.6
G1 Z.2
G1 E.8 F1800
G1 F3000
G3 X179.528 Y150.255 I1.234 J4.92 E.06565
G1 E-.56 F1800
;WIPE_START
G1 F3000
G1 X178.53 Y150.327 E-.24
;WIPE_END
G1 Z.6 F45000
G1 X179.718 Y158.964 Z.6
G1 Z.2
G1 E.8 F1800
G1 F3000
G3 X178.737 Y159.044 I-.71 J-2.663 E.03685
G1 E-.56 F1800
;WIPE_START
G1 F3000
G1 X179.718 Y158.964 E-.24
;WIPE_END
G1 Z.6 F45000
G1 X180.522 Y158.735 Z.6
G1 Z.2
G1 E.8 F1800
G1 F3000
G1 X177.328 Y158.735 E.11897
G3 X176.387 Y158.228 I2.22 J-5.241 E.03989
G1 X181.468 Y158.228 E.18927
G2 X182.067 Y157.72 I-1.101 J-1.903 E.02939
G1 X175.789 Y157.72 E.23381
G3 X175.35 Y157.212 I1.179 J-1.464 E.02515
G1 X182.494 Y157.212 E.2661
G2 X182.816 Y156.704 I-1.239 J-1.141 E.02252
G1 X175.046 Y156.704 E.2894
G3 X174.821 Y156.196 I1.286 J-.874 E.0208
G1 X183.06 Y156.196 E.30689
G2 X183.203 Y155.688 I-1.329 J-.648 E.01976
G1 X174.653 Y155.688 E.31846
G1 X174.561 Y155.18 E.01923
G1 X183.299 Y155.18 E.32546
G1 X183.345 Y154.673 E.01899
G1 X174.533 Y154.673 E.32819
G3 X174.546 Y154.165 I1.405 J-.219 E.01902
G1 X183.306 Y154.165 E.32629
G2 X183.226 Y153.657 I-1.44 J-.032 E.01925
G1 X174.638 Y153.657 E.31986
G3 X174.79 Y153.149 I1.474 J.164 E.01985
G1 X183.086 Y153.149 E.309
G2 X182.856 Y152.641 I-1.515 J.381 E.02088
G1 X174.997 Y152.641 E.29271
G1 X175.301 Y152.133 E.02204
G1 X182.554 Y152.133 E.27017
G2 X182.153 Y151.625 I-1.6 J.852 E.02423
G1 X175.717 Y151.625 E.23971
G3 X176.283 Y151.117 I1.682 J1.305 E.02848
G1 X181.593 Y151.117 E.19778
G2 X180.715 Y150.61 I-1.839 J2.167 E.03799
G1 X177.123 Y150.61 E.13378
G1 E-.56 F1800
;WIPE_START
G1 F3000
G1 X178.123 Y150.61 E-.24
;WIPE_END
G1 Z.6 F45000
G1 X197.887 Y142.694 Z.6
G1 Z.2
G1 E.8 F1800
G1 F3000
G3 X202.486 Y148.306 I-.306 J4.941 E.30332
G1 X205.088 Y148.306 E.09692
G1 X206.113 Y149.332 E.054
G1 X206.113 Y178.781 E1.09689
G1 X205.088 Y179.806 E.054
G1 X192.613 Y179.806 E.46464
G1 X192.613 Y208.281 E1.06058
G1 X191.588 Y209.306 E.054
G1 X163.638 Y209.306 E1.04102
G1 X162.613 Y208.281 E.054
G1 X162.613 Y177.806 E1.13507
G1 X152.638 Y177.806 E.37153
G1 X151.613 Y176.781 E.054
G1 X151.613 Y153.885 E.8528
G3 X155.422 Y147.724 I-.804 J-4.755 E.8234
G1 X155.955 Y148.306 E.02939
G1 X172.088 Y148.306 E.6009
G1 X173.113 Y149.332 E.054
G1 X173.113 Y164.306 E.55776
G1 X184.613 Y164.306 E.42833
G1 X184.613 Y149.332 E.55776
G1 X185.638 Y148.306 E.054
G1 X192.985 Y148.306 E.27367
G3 X197.818 Y142.691 I4.745 J-.804 E.31492
G1 E-.56 F1800
;WIPE_START
G1 F3000
G1 X196.822 Y142.778 E-.24
;WIPE_END
G1 Z.6 F45000
G1 X196.515 Y143.271 Z.6
G1 Z.2
G1 E.8 F1800
G1 F3000
G3 X198.321 Y143.125 I1.281 J4.612 E.0679
G1 E-.56 F1800
;WIPE_START
G1 F3000
G1 X197.324 Y143.206 E-.24
;WIPE_END
G1 Z.6 F45000
G1 X149.872 Y144.795 Z.6
G1 Z.2
G1 E.8 F1800
G1 F3000
G3 X151.406 Y144.729 I1.054 J6.716 E.05731
G1 E-.56 F1800
;WIPE_START
G1 F3000
G1 X150.407 Y144.772 E-.24
;WIPE_END
G1 Z.6 F45000
G1 X195.883 Y143.499 Z.6
G1 Z.2
G1 E.8 F1800
G1 F3000
G1 X199.557 Y143.499 E.13682
G3 X200.419 Y144.007 I-.969 J2.632 E.03749
G1 X195.055 Y144.007 E.19981
G2 X194.496 Y144.515 I1.121 J1.794 E.02827
G1 X200.97 Y144.515 E.24112
G3 X201.365 Y145.023 I-1.203 J1.342 E.02409
G1 X194.085 Y145.023 E.27113
G1 X193.781 Y145.531 E.02204
G1 X201.661 Y145.531 E.2935
G3 X201.887 Y146.039 I-1.286 J.877 E.02082
G1 X193.579 Y146.039 E.30947
G2 X193.431 Y146.547 I1.326 J.661 E.01981
G1 X202.028 Y146.547 E.32021
G3 X202.104 Y147.055 I-1.361 J.465 E.01923
G1 X193.338 Y147.055 E.3265
G2 X193.329 Y147.562 I1.395 J.279 E.01902
G1 X202.139 Y147.562 E.32813
G1 X202.094 Y148.07 E.01899
G1 X193.361 Y148.07 E.32527
G1 X193.412 Y148.353 E.01071
G1 E-.56 F1800
;WIPE_START
G1 F3000
G1 X193.361 Y148.07 E-.06902
G1 X194.073 Y148.07 E-.17098
;WIPE_END
G1 Z.6 F45000
G1 X155.491 Y148.409 Z.6
G1 Z.2
G1 E.8 F1800
G1 F3000
G1 X155.181 Y148.07 E.01712
G1 X146.531 Y148.07 E.32219
G3 X146.694 Y147.562 I1.481 J.197 E.01998
G1 X154.951 Y147.562 E.30752
G2 X154.708 Y147.055 I-1.52 J.415 E.02108
G1 X146.915 Y147.055 E.29025
G1 X147.219 Y146.547 E.02204
G1 X154.391 Y146.547 E.26716
G2 X153.971 Y146.039 I-1.61 J.905 E.02469
G1 X147.652 Y146.039 E.23534
G3 X148.241 Y145.531 I1.694 J1.37 E.02913
G1 X153.382 Y145.531 E.19148
G2 X152.453 Y145.023 I-1.864 J2.306 E.03965
G1 X149.145 Y145.023 E.12323
G1 E-.56 F1800
;WIPE_START
G1 F3000
G1 X150.145 Y145.023 E-.24
;WIPE_END
G1 Z.6 F45000
G1 X185.808 Y148.718 Z.6
G1 Z.2
G1 E.8 F1800
G1 F3000
G1 X193.478 Y148.718 E.28566
G1 X193.453 Y148.578 E.00529
G1 X202.048 Y148.578 E.32016
G1 X202.036 Y148.718 E.00523
G1 X204.917 Y148.718 E.10733
G1 X205.285 Y149.086 E.01939
G1 X185.44 Y149.086 E.73916
G1 X185.024 Y149.594 E.02445
G1 X205.701 Y149.594 E.77015
M73 P1 R40
M73 P1 R40
G1 X205.701 Y150.102 E.01892
G1 X185.024 Y150.102 E.77015
G1 X185.024 Y150.61 E.01892
G1 X205.701 Y150.61 E.77015
G1 X205.701 Y151.117 E.01892
G1 X185.024 Y151.117 E.77015
G1 X185.024 Y151.625 E.01892
G1 X205.701 Y151.625 E.77015
G1 X205.701 Y152.133 E.01892
G1 X185.024 Y152.133 E.77015
G1 X185.024 Y152.641 E.01892
G1 X205.701 Y152.641 E.77015
G1 X205.701 Y153.149 E.01892
G1 X185.024 Y153.149 E.77015
G1 X185.024 Y153.657 E.01892
G1 X205.701 Y153.657 E.77015
G1 X205.701 Y154.165 E.01892
G1 X185.024 Y154.165 E.77015
G1 X185.024 Y154.673 E.01892
G1 X205.701 Y154.673 E.77015
G1 X205.701 Y155.18 E.01892
G1 X185.024 Y155.18 E.77015
G1 X185.024 Y155.688 E.01892
G1 X205.701 Y155.688 E.77015
G1 X205.701 Y156.196 E.01892
G1 X185.024 Y156.196 E.77015
G1 X185.024 Y156.704 E.01892
G1 X205.701 Y156.704 E.77015
G1 X205.701 Y157.212 E.01892
G1 X185.024 Y157.212 E.77015
G1 X185.024 Y157.72 E.01892
G1 X205.701 Y157.72 E.77015
G1 X205.701 Y158.228 E.01892
G1 X185.024 Y158.228 E.77015
G1 X185.024 Y158.735 E.01892
G1 X205.701 Y158.735 E.77015
G1 X205.701 Y159.243 E.01892
G1 X185.024 Y159.243 E.77015
G1 X185.024 Y159.751 E.01892
G1 X205.701 Y159.751 E.77015
G1 X205.701 Y160.259 E.01892
G1 X185.024 Y160.259 E.77015
G1 X185.024 Y160.767 E.01892
G1 X205.701 Y160.767 E.77015
G1 X205.701 Y161.275 E.01892
G1 X185.024 Y161.275 E.77015
G1 X185.024 Y161.783 E.01892
G1 X205.701 Y161.783 E.77015
G1 X205.701 Y162.291 E.01892
G1 X185.024 Y162.291 E.77015
G1 X185.024 Y162.798 E.01892
G1 X205.701 Y162.798 E.77015
G1 X205.701 Y163.306 E.01892
G1 X185.024 Y163.306 E.77015
G1 X185.024 Y163.814 E.01892
G1 X205.701 Y163.814 E.77015
G1 X205.701 Y164.322 E.01892
G1 X185.024 Y164.322 E.77015
G1 E-.56 F1800
;WIPE_START
G1 F3000
G1 X186.024 Y164.322 E-.24
;WIPE_END
G1 Z.6 F45000
G1 X146.49 Y148.295 Z.6
G1 Z.2
G1 E.8 F1800
G1 F3000
G1 X146.439 Y148.578 E.01071
G1 X171.917 Y148.718 E.949
G1 X172.285 Y149.086 E.01939
G1 X146.415 Y149.086 E.96358
G2 X146.431 Y149.594 I1.408 J.208 E.01903
G1 X172.701 Y149.594 E.97846
G1 X172.701 Y150.102 E.01892
G1 X146.524 Y150.102 E.97503
G2 X146.679 Y150.61 I1.477 J-.175 E.01989
G1 X172.701 Y150.61 E.96922
G1 X172.701 Y151.117 E.01892
G1 X146.891 Y151.117 E.96133
G1 X147.195 Y151.625 E.02203
G1 X172.701 Y151.625 E.95003
G1 X172.701 Y152.133 E.01892
G1 X147.617 Y152.133 E.93429
G2 X148.191 Y152.641 I1.686 J-1.328 E.0287
G1 X172.701 Y152.641 E.91291
G1 X172.701 Y153.149 E.01892
G1 X149.044 Y153.149 E.88116
G1 E-.56 F1800
;WIPE_START
G1 F3000
G1 X150.044 Y153.149 E-.24
;WIPE_END
G1 Z.6 F45000
G1 X152.024 Y153.657 Z.6
G1 Z.2
G1 E.8 F1800
G1 F3000
G1 X172.701 Y153.657 E.77015
G1 X172.701 Y154.165 E.01892
G1 X152.024 Y154.165 E.77015
G1 X152.024 Y154.673 E.01892
G1 X172.701 Y154.673 E.77015
G1 X172.701 Y155.18 E.01892
G1 X152.024 Y155.18 E.77015
G1 X152.024 Y155.688 E.01892
M73 P2 R40
M73 P2 R40
G1 X172.701 Y155.688 E.77015
G1 X172.701 Y156.196 E.01892
G1 X152.024 Y156.196 E.77015
G1 X152.024 Y156.704 E.01892
G1 X172.701 Y156.704 E.77015
G1 X172.701 Y157.212 E.01892
G1 X152.024 Y157.212 E.77015
G1 X152.024 Y157.72 E.01892
G1 X172.701 Y157.72 E.77015
G1 X172.701 Y158.228 E.01892
G1 X152.024 Y158.228 E.77015
G1 X152.024 Y158.735 E.01892
G1 X172.701 Y158.735 E.77015
G1 X172.701 Y159.243 E.01892
G1 X152.024 Y159.243 E.77015
G1 X152.024 Y159.751 E.01892
G1 X172.701 Y159.751 E.77015
G1 X172.701 Y160.259 E.01892
G1 X152.024 Y160.259 E.77015
G1 X152.024 Y160.767 E.01892
G1 X172.701 Y160.767 E.77015
G1 X172.701 Y161.275 E.01892
G1 X152.024 Y161.275 E.77015
G1 X152.024 Y161.783 E.01892
G1 X172.701 Y161.783 E.77015
G1 X172.701 Y162.291 E.01892
G1 X152.024 Y162.291 E.77015
G1 X152.024 Y162.798 E.01892
G1 X172.701 Y162.798 E.77015
G1 X172.701 Y163.306 E.01892
G1 X152.024 Y163.306 E.77015
G1 X152.024 Y163.814 E.01892
G1 X172.701 Y163.814 E.77015
G1 X172.701 Y164.322 E.01892
G1 X152.024 Y164.322 E.77015
G1 X152.024 Y164.83 E.01892
G1 X205.701 Y164.83 E1.99927
M73 P2 R39
M73 P2 R39
G1 X205.701 Y165.338 E.01892
G1 X152.024 Y165.338 E1.99927
G1 X152.024 Y165.846 E.01892
G1 X205.701 Y165.846 E1.99927
G1 X205.701 Y166.353 E.01892
G1 X152.024 Y166.353 E1.99927
G1 X152.024 Y166.861 E.01892
G1 X205.701 Y166.861 E1.99927
G1 X205.701 Y167.369 E.01892
G1 X152.024 Y167.369 E1.99927
G1 X152.024 Y167.877 E.01892
G1 X205.701 Y167.877 E1.99927
G1 X205.701 Y168.385 E.01892
G1 X152.024 Y168.385 E1.99927
G1 X152.024 Y168.893 E.01892
G1 X205.701 Y168.893 E1.99927
G1 X205.701 Y169.401 E.01892
G1 X152.024 Y169.401 E1.99927
G1 X152.024 Y169.908 E.01892
G1 X205.701 Y169.908 E1.99927
G1 X205.701 Y170.416 E.01892
G1 X152.024 Y170.416 E1.99927
G1 X152.024 Y170.924 E.01892
G1 X205.701 Y170.924 E1.99927
M73 P3 R39
M73 P3 R39
G1 X205.701 Y171.432 E.01892
G1 X152.024 Y171.432 E1.99927
G1 X152.024 Y171.94 E.01892
G1 X205.701 Y171.94 E1.99927
G1 X205.701 Y172.448 E.01892
G1 X152.024 Y172.448 E1.99927
G1 X152.024 Y172.956 E.01892
G1 X205.701 Y172.956 E1.99927
G1 X205.701 Y173.464 E.01892
G1 X152.024 Y173.464 E1.99927
G1 X152.024 Y173.971 E.01892
G1 X205.701 Y173.971 E1.99927
G1 X205.701 Y174.479 E.01892
G1 X152.024 Y174.479 E1.99927
G1 X152.024 Y174.987 E.01892
G1 X205.701 Y174.987 E1.99927
G1 X205.701 Y175.495 E.01892
G1 X152.024 Y175.495 E1.99927
G1 X152.024 Y176.003 E.01892
G1 X205.701 Y176.003 E1.99927
G1 X205.701 Y176.511 E.01892
G1 X152.024 Y176.511 E1.99927
G1 X152.432 Y177.019 E.02426
G1 X205.701 Y177.019 E1.98409
G1 X205.701 Y177.526 E.01892
G1 X163.024 Y177.526 E1.58957
G1 X163.024 Y177.395 E.00489
G1 X152.808 Y177.395 E.3805
G1 E-.56 F1800
;WIPE_START
G1 F3000
G1 X153.808 Y177.395 E-.24
;WIPE_END
G1 Z.6 F45000
G1 X204.606 Y179.395 Z.6
G1 Z.2
G1 E.8 F1800
G1 F3000
G2 X205.262 Y179.05 I.155 J-.5 E.03066
G1 X163.024 Y179.05 E1.57321
G1 X163.024 Y178.542 E.01892
G1 X205.701 Y178.542 E1.58957
G1 X205.701 Y178.034 E.01892
G1 X163.024 Y178.034 E1.58957
G1 X163.024 Y177.755 E.0104
G1 E-.56 F1800
;WIPE_START
G1 F3000
G1 X163.024 Y178.034 E-.06704
G1 X163.745 Y178.034 E-.17296
;WIPE_END
G1 Z.6 F45000
G1 X163.024 Y179.279 Z.6
G1 Z.2
G1 E.8 F1800
G1 F3000
G1 X163.024 Y179.558 E.0104
G1 X192.201 Y179.558 E1.08674
G1 X192.201 Y180.066 E.01892
G1 X163.024 Y180.066 E1.08674
G1 X163.024 Y180.574 E.01892
G1 X192.201 Y180.574 E1.08674
G1 X192.201 Y181.082 E.01892
G1 X163.024 Y181.082 E1.08674
G1 X163.024 Y181.589 E.01892
G1 X192.201 Y181.589 E1.08674
G1 X192.201 Y182.097 E.01892
G1 X163.024 Y182.097 E1.08674
G1 X163.024 Y182.605 E.01892
G1 X192.201 Y182.605 E1.08674
G1 X192.201 Y183.113 E.01892
G1 X163.024 Y183.113 E1.08674
M73 P4 R39
M73 P4 R39
G1 X163.024 Y183.621 E.01892
G1 X192.201 Y183.621 E1.08674
G1 X192.201 Y184.129 E.01892
G1 X163.024 Y184.129 E1.08674
G1 X163.024 Y184.637 E.01892
G1 X192.201 Y184.637 E1.08674
G1 X192.201 Y185.144 E.01892
G1 X163.024 Y185.144 E1.08674
G1 X163.024 Y185.652 E.01892
G1 X192.201 Y185.652 E1.08674
G1 X192.201 Y186.16 E.01892
G1 X163.024 Y186.16 E1.08674
G1 X163.024 Y186.668 E.01892
G1 X192.201 Y186.668 E1.08674
G1 X192.201 Y187.176 E.01892
G1 X163.024 Y187.176 E1.08674
G1 X163.024 Y187.684 E.01892
G1 X192.201 Y187.684 E1.08674
G1 X192.201 Y188.192 E.01892
G1 X163.024 Y188.192 E1.08674
G1 X163.024 Y188.7 E.01892
G1 X192.201 Y188.7 E1.08674
G1 X192.201 Y189.207 E.01892
G1 X163.024 Y189.207 E1.08674
G1 X163.024 Y189.715 E.01892
G1 X192.201 Y189.715 E1.08674
G1 X192.201 Y190.223 E.01892
G1 X163.024 Y190.223 E1.08674
G1 X163.024 Y190.731 E.01892
G1 X192.201 Y190.731 E1.08674
G1 X192.201 Y191.239 E.01892
G1 X163.024 Y191.239 E1.08674
G1 X163.024 Y191.747 E.01892
G1 X192.201 Y191.747 E1.08674
G1 X192.201 Y192.255 E.01892
G1 X163.024 Y192.255 E1.08674
G1 X163.024 Y192.762 E.01892
G1 X192.201 Y192.762 E1.08674
G1 X192.201 Y193.27 E.01892
G1 X163.024 Y193.27 E1.08674
G1 X163.024 Y193.778 E.01892
G1 X192.201 Y193.778 E1.08674
G1 X192.201 Y194.286 E.01892
G1 X163.024 Y194.286 E1.08674
G1 X163.024 Y194.794 E.01892
G1 X192.201 Y194.794 E1.08674
G1 X192.201 Y195.302 E.01892
G1 X163.024 Y195.302 E1.08674
G1 X163.024 Y195.81 E.01892
G1 X192.201 Y195.81 E1.08674
G1 X192.201 Y196.318 E.01892
G1 X163.024 Y196.318 E1.08674
G1 X163.024 Y196.825 E.01892
G1 X192.201 Y196.825 E1.08674
G1 X192.201 Y197.333 E.01892
G1 X163.024 Y197.333 E1.08674
G1 X163.024 Y197.841 E.01892
G1 X192.201 Y197.841 E1.08674
G1 X192.201 Y198.349 E.01892
G1 X163.024 Y198.349 E1.08674
M73 P4 R38
M73 P4 R38
G1 X163.024 Y198.857 E.01892
G1 X192.201 Y198.857 E1.08674
G1 X192.201 Y199.365 E.01892
G1 X163.024 Y199.365 E1.08674
G1 X163.024 Y199.873 E.01892
G1 X192.201 Y199.873 E1.08674
G1 X192.201 Y200.38 E.01892
G1 X163.024 Y200.38 E1.08674
G1 X163.024 Y200.888 E.01892
G1 X192.201 Y200.888 E1.08674
G1 X192.201 Y201.396 E.01892
G1 X163.024 Y201.396 E1.08674
M73 P5 R38
M73 P5 R38
G1 X163.024 Y201.904 E.01892
G1 X192.201 Y201.904 E1.08674
G1 X192.201 Y202.412 E.01892
G1 X163.024 Y202.412 E1.08674
G1 X163.024 Y202.92 E.01892
G1 X192.201 Y202.92 E1.08674
G1 X192.201 Y203.428 E.01892
G1 X163.024 Y203.428 E1.08674
G1 X163.024 Y203.936 E.01892
G1 X192.201 Y203.936 E1.08674
G1 X192.201 Y204.443 E.01892
G1 X163.024 Y204.443 E1.08674
G1 X163.024 Y204.951 E.01892
G1 X192.201 Y204.951 E1.08674
G1 X192.201 Y205.459 E.01892
G1 X163.024 Y205.459 E1.08674
G1 X163.024 Y205.967 E.01892
G1 X192.201 Y205.967 E1.08674
