; HEADER_BLOCK_START
; generated by OrcaSlicer 2.2.0 on 2024-11-09 at 10:16:36
; total layer number: 4
; filament_density: 1.27,1.24,1.24,1.24,1.24
; filament_diameter: 1.75,1.75,1.75,1.75,1.75
; max_z_height: 0.80
; HEADER_BLOCK_END

; THUMBNAIL_BLOCK_START

;
; THUMBNAIL_BLOCK_END

; THUMBNAIL_BLOCK_START

;
; THUMBNAIL_BLOCK_END

; external perimeters extrusion width = 0.40mm
; perimeters extrusion width = 0.44mm
; infill extrusion width = 0.44mm
; solid infill extrusion width = 0.48mm
; top infill extrusion width = 0.38mm
; first layer extrusion width = 0.48mm

; external perimeters extrusion width = 0.40mm
; perimeters extrusion width = 0.44mm
; infill extrusion width = 0.44mm
; solid infill extrusion width = 0.48mm
; top infill extrusion width = 0.38mm
; first layer extrusion width = 0.48mm

; EXECUTABLE_BLOCK_START
EXCLUDE_OBJECT_DEFINE NAME=comp.stl_id_0_copy_0 CENTER=173.504,176.426 POLYGON=[[140.404,143.326],[206.604,143.326],[206.604,161.726],[158.804,209.526],[140.404,209.526],[140.404,143.326]]
M73 P0 R8
;TYPE:Custom
M140 S35         ; set bed final temp
M190 S35         ; wait for bed final temp



G90
G21
M83 ; use relative distances for extrusion
; TESTING
T1



OFFSET_T1

;_FORCE_RESUME_FAN_SPEED
; filament start gcode
M109 S240 T1 ; set nozzle temperature and wait for it to be reached
G1 Z.2 F21000
M106 S0
;LAYER_CHANGE
;Z:0.2
;HEIGHT:0.2
;BEFORE_LAYER_CHANGE
;0.2
G92 E0

OFFSET_T1


;AFTER_LAYER_CHANGE
;0.2

OFFSET_T1


;_SET_FAN_SPEED_CHANGING_LAYER
SET_VELOCITY_LIMIT ACCEL=500 ACCEL_TO_DECEL=250
G1 E-.4 F1800
G1 Z.6 F21000
G1 X224.5 Y250.5
G1 Z.6
G1 Z.2
G1 E.4 F1800
;HEIGHT:0.2
;TYPE:Prime tower
;WIDTH:0.5
G1  X224.500 Y256.750  E0.2375 F2100
G1  X165.500  E2.2424
G1  Y250.500  E0.2375
G1  X224.500  E2.2424
M73 P1 R8
G1  Y256.750 
M73 P1 R8
G1  X223.500 
;--------------------
; CP EMPTY GRID START
; layer #1
G1  Y256.250  E0.0190
G1  X166.000  E2.1854
G1  Y255.725  E0.0200
G1  X224.000  E2.2044
G1  Y255.200  E0.0200
G1  X166.000  E2.2044
M73 P2 R8
G1  Y254.675  E0.0200
M73 P2 R8
G1  X224.000  E2.2044
G1  Y254.150  E0.0200
G1  X166.000  E2.2044
G1  Y253.625  E0.0200
G1  X224.000  E2.2044
M73 P3 R8
G1  Y253.100  E0.0200
M73 P3 R8
G1  X166.000  E2.2044
M73 P3 R7
G1  Y252.575  E0.0200
M73 P3 R7
G1  X224.000  E2.2044
G1  Y252.050  E0.0200
M73 P4 R7
G1  X166.000  E2.2044
M73 P4 R7
G1  Y251.525  E0.0200
G1  X224.000  E2.2044
G1  Y251.000  E0.0200
G1  X166.000  E2.2044
M73 P5 R7
G1  Y250.500  E0.0190
M73 P5 R7
; CP EMPTY GRID END
;------------------






G1  X165.000 Y250.000  
G1  X225.000  E2.2804
G1  Y257.250  E0.2755
G1  X165.000  E2.2804
G1  Y250.000  E0.2755
G1  X164.543 Y249.543  
G1  X225.457  E2.3151
M73 P6 R7
G1  Y257.707  E0.3103
M73 P6 R7
G1  X164.543  E2.3151
G1  Y249.543  E0.3103
G1  X164.086 Y249.086  
G1  X225.914  E2.3499
M73 P7 R7
G1  Y258.164  E0.3450
M73 P7 R7
G1  X164.086  E2.3499
G1  Y249.086  E0.3450
G1  X163.629 Y248.629  
G1  X226.371  E2.3846
G1  Y258.621  E0.3798
G1  X163.629  E2.3846
M73 P8 R7
G1  Y248.629  E0.3798
M73 P8 R7
G1  X163.172 Y248.172  
G1  X226.828  E2.4194
G1  Y259.078  E0.4145
G1  X163.172  E2.4194
M73 P9 R7
G1  Y248.172  E0.4145
M73 P9 R7
G1  X162.715 Y247.715  
G1  X227.285  E2.4541
G1  Y259.535  E0.4493
G1  X162.715  E2.4541
M73 P10 R7
G1  Y247.715  E0.4493
M73 P10 R7
G1  X162.258 Y247.258  
G1  X227.742  E2.4888
G1  Y259.992  E0.4840
G1  X162.258  E2.4888
M73 P11 R7
G1  Y247.258  E0.4840
M73 P11 R7
G1  X161.800 Y246.800  
G1  X228.200  E2.5236
G1  Y260.450  E0.5188
G1  X161.800  E2.5236
M73 P12 R7
G1  Y246.800  E0.5188
M73 P12 R7

; printing object comp.stl id:0 copy 0
G1 E-.28 F1800
;WIPE_START
G1 F3600
G1 X161.8 Y247.8 E-.12
;WIPE_END
EXCLUDE_OBJECT_START NAME=comp.stl_id_0_copy_0
G1 Z.6 F21000
G1 X158.651 Y160.628 Z.6
G1 Z.2
G1 E.4 F1800
;TYPE:Inner wall
;WIDTH:0.479999
;HEIGHT:0.2
G1 F2196.399
G1 X158.515 Y160.645 E.00498
G1 X158.198 Y160.781 E.01254
G1 X157.906 Y161.052 E.01447
G1 X157.748 Y161.352 E.01232
G1 X157.69 Y161.704 E.01298
G1 X157.69 Y208.412 E1.6975
G1 X141.518 Y208.412 E.58773
G1 X141.518 Y144.44 E2.32494
M73 P13 R7
G1 X205.49 Y144.44 E2.32494
M73 P13 R7
G1 X205.49 Y160.612 E.58773
G1 X158.783 Y160.612 E1.6975
G1 X158.691 Y160.623 E.00336
G1 X158.75 Y161.049 F21000
G1 F2196.399
G1 X158.661 Y161.049 E.00323
G1 X158.354 Y161.209 E.01258
G1 X158.181 Y161.444 E.0106
G1 X158.127 Y161.704 E.00966
G1 X158.127 Y208.849 E1.71338
M73 P14 R7
G1 X141.081 Y208.849 E.6195
M73 P14 R7
G1 X141.081 Y144.003 E2.35671
G1 X205.927 Y144.003 E2.35671
G1 X205.927 Y161.049 E.6195
M73 P15 R7
G1 X158.79 Y161.049 E1.71313
M73 P15 R7
G1 X158.783 Y161.486 F21000
;TYPE:Outer wall
G1 F2196.399
G1 X158.628 Y161.55 E.00608
G1 X158.564 Y161.704 E.00608
G1 X158.564 Y209.286 E1.72927
G1 X140.644 Y209.286 E.65127
M73 P15 R6
G1 X140.644 Y143.566 E2.38848
M73 P15 R6
M73 P16 R6
G1 X206.364 Y143.566 E2.38848
M73 P16 R6
G1 X206.364 Y161.486 E.65127
G1 X158.823 Y161.486 E1.72781
G1 E-.28 F1800
;WIPE_START
G1 F2196.399
G1 X158.628 Y161.55 E-.02457
G1 X158.564 Y161.704 E-.02007
G1 X158.564 Y162.332 E-.07535
;WIPE_END
G1 Z.6 F21000
G1 X204.474 Y144.571 Z.6
G1 Z.2
G1 E.4 F1800
;TYPE:Bottom surface
;WIDTH:0.480592
G1 F2193.423
G1 X205.162 Y145.259 E.03542
G1 X205.162 Y145.878 E.02253
G1 X204.052 Y144.768 E.05715
M73 P17 R6
G1 X203.433 Y144.768 E.02253
M73 P17 R6
G1 X205.162 Y146.497 E.089
G1 X205.162 Y147.116 E.02253
G1 X202.814 Y144.768 E.12086
G1 X202.195 Y144.768 E.02253
G1 X205.162 Y147.735 E.15272
G1 X205.162 Y148.354 E.02253
G1 X201.576 Y144.768 E.18457
G1 X200.957 Y144.768 E.02253
G1 X205.162 Y148.973 E.21643
G1 X205.162 Y149.592 E.02253
G1 X200.338 Y144.768 E.24828
G1 X199.719 Y144.768 E.02253
G1 X205.162 Y150.211 E.28014
G1 X205.162 Y150.83 E.02253
G1 X199.1 Y144.768 E.312
G1 X198.481 Y144.768 E.02253
G1 X205.162 Y151.449 E.34385
G1 X205.162 Y152.068 E.02253
G1 X197.862 Y144.768 E.37571
G1 X197.243 Y144.768 E.02253
G1 X205.162 Y152.687 E.40756
G1 X205.162 Y153.306 E.02253
G1 X196.624 Y144.768 E.43942
G1 X196.005 Y144.768 E.02253
G1 X205.162 Y153.925 E.47128
G1 X205.162 Y154.544 E.02253
G1 X195.386 Y144.768 E.50313
G1 X194.767 Y144.768 E.02253
G1 X205.162 Y155.163 E.53499
G1 X205.162 Y155.782 E.02253
G1 X194.148 Y144.768 E.56685
M73 P18 R6
G1 X193.53 Y144.768 E.02253
M73 P18 R6
G1 X205.162 Y156.401 E.5987
G1 X205.162 Y157.02 E.02253
G1 X192.911 Y144.768 E.63056
G1 X192.292 Y144.768 E.02253
G1 X205.162 Y157.639 E.66241
G1 X205.162 Y158.257 E.02253
G1 X191.673 Y144.768 E.69427
G1 X191.054 Y144.768 E.02253
G1 X205.162 Y158.876 E.72613
G1 X205.162 Y159.495 E.02253
G1 X190.435 Y144.768 E.75798
G1 X189.816 Y144.768 E.02253
G1 X205.162 Y160.114 E.78984
G1 X205.162 Y160.284 E.00617
G1 X204.713 Y160.284 E.01636
G1 X189.197 Y144.768 E.79856
M73 P19 R6
G1 X188.578 Y144.768 E.02253
M73 P19 R6
G1 X204.094 Y160.284 E.79856
G1 X203.475 Y160.284 E.02253
G1 X187.959 Y144.768 E.79856
G1 X187.34 Y144.768 E.02253
G1 X202.856 Y160.284 E.79856
G1 X202.237 Y160.284 E.02253
G1 X186.721 Y144.768 E.79856
G1 X186.102 Y144.768 E.02253
G1 X201.618 Y160.284 E.79856
G1 X200.999 Y160.284 E.02253
G1 X185.483 Y144.768 E.79856
G1 X184.864 Y144.768 E.02253
G1 X200.38 Y160.284 E.79856
G1 X199.761 Y160.284 E.02253
G1 X184.245 Y144.768 E.79856
M73 P20 R6
G1 X183.626 Y144.768 E.02253
M73 P20 R6
G1 X199.142 Y160.284 E.79856
G1 X198.523 Y160.284 E.02253
G1 X183.007 Y144.768 E.79856
G1 X182.388 Y144.768 E.02253
G1 X197.904 Y160.284 E.79856
G1 X197.285 Y160.284 E.02253
G1 X181.769 Y144.768 E.79856
G1 X181.15 Y144.768 E.02253
G1 X196.666 Y160.284 E.79856
G1 X196.047 Y160.284 E.02253
G1 X180.531 Y144.768 E.79856
G1 X179.912 Y144.768 E.02253
G1 X195.428 Y160.284 E.79856
M73 P21 R6
G1 X194.809 Y160.284 E.02253
M73 P21 R6
G1 X179.293 Y144.768 E.79856
G1 X178.674 Y144.768 E.02253
G1 X194.191 Y160.284 E.79856
G1 X193.572 Y160.284 E.02253
G1 X178.055 Y144.768 E.79856
G1 X177.437 Y144.768 E.02253
G1 X192.953 Y160.284 E.79856
G1 X192.334 Y160.284 E.02253
G1 X176.818 Y144.768 E.79856
G1 X176.199 Y144.768 E.02253
G1 X191.715 Y160.284 E.79856
G1 X191.096 Y160.284 E.02253
G1 X175.58 Y144.768 E.79856
M73 P22 R6
G1 X174.961 Y144.768 E.02253
M73 P22 R6
G1 X190.477 Y160.284 E.79856
G1 X189.858 Y160.284 E.02253
G1 X174.342 Y144.768 E.79856
G1 X173.723 Y144.768 E.02253
G1 X189.239 Y160.284 E.79856
G1 X188.62 Y160.284 E.02253
G1 X173.104 Y144.768 E.79856
G1 X172.485 Y144.768 E.02253
G1 X188.001 Y160.284 E.79856
G1 X187.382 Y160.284 E.02253
G1 X171.866 Y144.768 E.79856
G1 X171.247 Y144.768 E.02253
G1 X186.763 Y160.284 E.79856
G1 X186.144 Y160.284 E.02253
G1 X170.628 Y144.768 E.79856
M73 P23 R6
G1 X170.009 Y144.768 E.02253
M73 P23 R6
G1 X185.525 Y160.284 E.79856
G1 X184.906 Y160.284 E.02253
G1 X169.39 Y144.768 E.79856
G1 X168.771 Y144.768 E.02253
G1 X184.287 Y160.284 E.79856
G1 X183.668 Y160.284 E.02253
G1 X168.152 Y144.768 E.79856
G1 X167.533 Y144.768 E.02253
G1 X183.049 Y160.284 E.79856
G1 X182.43 Y160.284 E.02253
G1 X166.914 Y144.768 E.79856
G1 X166.295 Y144.768 E.02253
G1 X181.811 Y160.284 E.79856
M73 P24 R6
G1 X181.192 Y160.284 E.02253
M73 P24 R6
G1 X165.676 Y144.768 E.79856
G1 X165.057 Y144.768 E.02253
G1 X180.573 Y160.284 E.79856
G1 X179.954 Y160.284 E.02253
G1 X164.438 Y144.768 E.79856
G1 X163.819 Y144.768 E.02253
G1 X179.335 Y160.284 E.79856
G1 X178.716 Y160.284 E.02253
G1 X163.2 Y144.768 E.79856
G1 X162.581 Y144.768 E.02253
G1 X178.098 Y160.284 E.79856
G1 X177.479 Y160.284 E.02253
G1 X161.962 Y144.768 E.79856
M73 P25 R6
G1 X161.344 Y144.768 E.02253
M73 P25 R6
G1 X176.86 Y160.284 E.79856
G1 X176.241 Y160.284 E.02253
G1 X160.725 Y144.768 E.79856
G1 X160.106 Y144.768 E.02253
G1 X175.622 Y160.284 E.79856
G1 X175.003 Y160.284 E.02253
G1 X159.487 Y144.768 E.79856
G1 X158.868 Y144.768 E.02253
G1 X174.384 Y160.284 E.79856
G1 X173.765 Y160.284 E.02253
G1 X158.249 Y144.768 E.79856
G1 X157.63 Y144.768 E.02253
G1 X173.146 Y160.284 E.79856
G1 X172.527 Y160.284 E.02253
G1 X157.011 Y144.768 E.79856
M73 P26 R6
G1 X156.392 Y144.768 E.02253
M73 P26 R6
G1 X171.908 Y160.284 E.79856
G1 X171.289 Y160.284 E.02253
G1 X155.773 Y144.768 E.79856
G1 X155.154 Y144.768 E.02253
G1 X170.67 Y160.284 E.79856
G1 X170.051 Y160.284 E.02253
G1 X154.535 Y144.768 E.79856
G1 X153.916 Y144.768 E.02253
G1 X169.432 Y160.284 E.79856
G1 X168.813 Y160.284 E.02253
G1 X153.297 Y144.768 E.79856
G1 X152.678 Y144.768 E.02253
G1 X168.194 Y160.284 E.79856
M73 P27 R6
G1 X167.575 Y160.284 E.02253
M73 P27 R6
G1 X152.059 Y144.768 E.79856
G1 X151.44 Y144.768 E.02253
G1 X166.956 Y160.284 E.79856
G1 X166.337 Y160.284 E.02253
G1 X150.821 Y144.768 E.79856
G1 X150.202 Y144.768 E.02253
G1 X165.718 Y160.284 E.79856
G1 X165.099 Y160.284 E.02253
G1 X149.583 Y144.768 E.79856
M73 P27 R5
G1 X148.964 Y144.768 E.02253
M73 P27 R5
G1 X164.48 Y160.284 E.79856
G1 X163.861 Y160.284 E.02253
G1 X148.345 Y144.768 E.79856
M73 P28 R5
G1 X147.726 Y144.768 E.02253
M73 P28 R5
G1 X163.242 Y160.284 E.79856
G1 X162.623 Y160.284 E.02253
G1 X147.107 Y144.768 E.79856
G1 X146.488 Y144.768 E.02253
G1 X162.005 Y160.284 E.79856
G1 X161.386 Y160.284 E.02253
G1 X145.869 Y144.768 E.79856
G1 X145.251 Y144.768 E.02253
G1 X160.767 Y160.284 E.79856
G1 X160.148 Y160.284 E.02253
G1 X144.632 Y144.768 E.79856
G1 X144.013 Y144.768 E.02253
G1 X159.529 Y160.284 E.79856
G1 X158.91 Y160.284 E.02253
G1 X143.394 Y144.768 E.79856
M73 P29 R5
G1 X142.775 Y144.768 E.02253
M73 P29 R5
G1 X158.358 Y160.351 E.80202
G1 X158.118 Y160.449 E.00943
G1 X157.946 Y160.558 E.00742
G1 X142.156 Y144.768 E.81265
G1 X141.846 Y144.768 E.01126
G1 X141.846 Y145.077 E.01126
G1 X157.641 Y160.872 E.81292
G1 X157.527 Y161.039 E.00737
G1 X157.433 Y161.283 E.0095
G1 X141.846 Y145.696 E.8022
G1 X141.846 Y146.315 E.02253
G1 X157.362 Y161.831 E.79856
G1 X157.362 Y162.45 E.02253
G1 X141.846 Y146.934 E.79856
G1 X141.846 Y147.553 E.02253
G1 X157.362 Y163.069 E.79856
M73 P30 R5
G1 X157.362 Y163.688 E.02253
M73 P30 R5
G1 X141.846 Y148.172 E.79856
G1 X141.846 Y148.791 E.02253
G1 X157.362 Y164.307 E.79856
G1 X157.362 Y164.926 E.02253
G1 X141.846 Y149.41 E.79856
G1 X141.846 Y150.029 E.02253
G1 X157.362 Y165.545 E.79856
G1 X157.362 Y166.164 E.02253
G1 X141.846 Y150.648 E.79856
G1 X141.846 Y151.267 E.02253
G1 X157.362 Y166.783 E.79856
G1 X157.362 Y167.402 E.02253
G1 X141.846 Y151.886 E.79856
M73 P31 R5
G1 X141.846 Y152.505 E.02253
M73 P31 R5
G1 X157.362 Y168.021 E.79856
G1 X157.362 Y168.64 E.02253
G1 X141.846 Y153.124 E.79856
G1 X141.846 Y153.743 E.02253
G1 X157.362 Y169.259 E.79856
G1 X157.362 Y169.878 E.02253
G1 X141.846 Y154.362 E.79856
G1 X141.846 Y154.981 E.02253
G1 X157.362 Y170.497 E.79856
G1 X157.362 Y171.116 E.02253
G1 X141.846 Y155.6 E.79856
G1 X141.846 Y156.219 E.02253
G1 X157.362 Y171.735 E.79856
G1 X157.362 Y172.354 E.02253
G1 X141.846 Y156.838 E.79856
M73 P32 R5
G1 X141.846 Y157.457 E.02253
M73 P32 R5
G1 X157.362 Y172.973 E.79856
G1 X157.362 Y173.592 E.02253
G1 X141.846 Y158.076 E.79856
G1 X141.846 Y158.694 E.02253
G1 X157.362 Y174.211 E.79856
G1 X157.362 Y174.83 E.02253
G1 X141.846 Y159.313 E.79856
G1 X141.846 Y159.932 E.02253
G1 X157.362 Y175.448 E.79856
G1 X157.362 Y176.067 E.02253
G1 X141.846 Y160.551 E.79856
G1 X141.846 Y161.17 E.02253
G1 X157.362 Y176.686 E.79856
M73 P33 R5
G1 X157.362 Y177.305 E.02253
M73 P33 R5
G1 X141.846 Y161.789 E.79856
G1 X141.846 Y162.408 E.02253
G1 X157.362 Y177.924 E.79856
G1 X157.362 Y178.543 E.02253
G1 X141.846 Y163.027 E.79856
G1 X141.846 Y163.646 E.02253
G1 X157.362 Y179.162 E.79856
G1 X157.362 Y179.781 E.02253
G1 X141.846 Y164.265 E.79856
G1 X141.846 Y164.884 E.02253
G1 X157.362 Y180.4 E.79856
G1 X157.362 Y181.019 E.02253
G1 X141.846 Y165.503 E.79856
G1 X141.846 Y166.122 E.02253
M73 P34 R5
G1 X157.362 Y181.638 E.79856
M73 P34 R5
G1 X157.362 Y182.257 E.02253
G1 X141.846 Y166.741 E.79856
G1 X141.846 Y167.36 E.02253
G1 X157.362 Y182.876 E.79856
G1 X157.362 Y183.495 E.02253
G1 X141.846 Y167.979 E.79856
G1 X141.846 Y168.598 E.02253
G1 X157.362 Y184.114 E.79856
G1 X157.362 Y184.733 E.02253
G1 X141.846 Y169.217 E.79856
G1 X141.846 Y169.836 E.02253
G1 X157.362 Y185.352 E.79856
G1 X157.362 Y185.971 E.02253
G1 X141.846 Y170.455 E.79856
M73 P35 R5
G1 X141.846 Y171.074 E.02253
M73 P35 R5
G1 X157.362 Y186.59 E.79856
G1 X157.362 Y187.209 E.02253
G1 X141.846 Y171.693 E.79856
G1 X141.846 Y172.312 E.02253
G1 X157.362 Y187.828 E.79856
G1 X157.362 Y188.447 E.02253
G1 X141.846 Y172.931 E.79856
G1 X141.846 Y173.55 E.02253
G1 X157.362 Y189.066 E.79856
G1 X157.362 Y189.685 E.02253
G1 X141.846 Y174.169 E.79856
G1 X141.846 Y174.787 E.02253
G1 X157.362 Y190.304 E.79856
M73 P36 R5
G1 X157.362 Y190.923 E.02253
M73 P36 R5
G1 X141.846 Y175.406 E.79856
G1 X141.846 Y176.025 E.02253
G1 X157.362 Y191.541 E.79856
G1 X157.362 Y192.16 E.02253
G1 X141.846 Y176.644 E.79856
G1 X141.846 Y177.263 E.02253
G1 X157.362 Y192.779 E.79856
G1 X157.362 Y193.398 E.02253
G1 X141.846 Y177.882 E.79856
G1 X141.846 Y178.501 E.02253
G1 X157.362 Y194.017 E.79856
G1 X157.362 Y194.636 E.02253
G1 X141.846 Y179.12 E.79856
G1 X141.846 Y179.739 E.02253
G1 X157.362 Y195.255 E.79856
M73 P37 R5
G1 X157.362 Y195.874 E.02253
M73 P37 R5
G1 X141.846 Y180.358 E.79856
G1 X141.846 Y180.977 E.02253
G1 X157.362 Y196.493 E.79856
G1 X157.362 Y197.112 E.02253
G1 X141.846 Y181.596 E.79856
G1 X141.846 Y182.215 E.02253
G1 X157.362 Y197.731 E.79856
G1 X157.362 Y198.35 E.02253
G1 X141.846 Y182.834 E.79856
G1 X141.846 Y183.453 E.02253
G1 X157.362 Y198.969 E.79856
G1 X157.362 Y199.588 E.02253
G1 X141.846 Y184.072 E.79856
M73 P38 R5
G1 X141.846 Y184.691 E.02253
M73 P38 R5
G1 X157.362 Y200.207 E.79856
G1 X157.362 Y200.826 E.02253
G1 X141.846 Y185.31 E.79856
G1 X141.846 Y185.929 E.02253
G1 X157.362 Y201.445 E.79856
G1 X157.362 Y202.064 E.02253
G1 X141.846 Y186.548 E.79856
G1 X141.846 Y187.167 E.02253
G1 X157.362 Y202.683 E.79856
G1 X157.362 Y203.302 E.02253
G1 X141.846 Y187.786 E.79856
G1 X141.846 Y188.405 E.02253
G1 X157.362 Y203.921 E.79856
M73 P39 R5
G1 X157.362 Y204.54 E.02253
M73 P39 R5
G1 X141.846 Y189.024 E.79856
G1 X141.846 Y189.643 E.02253
G1 X157.362 Y205.159 E.79856
G1 X157.362 Y205.778 E.02253
G1 X141.846 Y190.262 E.79856
G1 X141.846 Y190.88 E.02253
G1 X157.362 Y206.397 E.79856
