; HEADER_BLOCK_START
; generated by OrcaSlicer 2.2.0 on 2024-11-08 at 06:02:34
; total layer number: 4
; filament_density: 1.27,1.24,1.24,1.24,1.24
; filament_diameter: 1.75,1.75,1.75,1.75,1.75
; max_z_height: 0.80
; HEADER_BLOCK_END

; THUMBNAIL_BLOCK_START

;
; THUMBNAIL_BLOCK_END

; THUMBNAIL_BLOCK_START

;
; THUMBNAIL_BLOCK_END

; external perimeters extrusion width = 0.40mm
; perimeters extrusion width = 0.44mm
; infill extrusion width = 0.44mm
; solid infill extrusion width = 0.48mm
; top infill extrusion width = 0.38mm
; first layer extrusion width = 0.48mm

; external perimeters extrusion width = 0.40mm
; perimeters extrusion width = 0.44mm
; infill extrusion width = 0.44mm
; solid infill extrusion width = 0.48mm
; top infill extrusion width = 0.38mm
; first layer extrusion width = 0.48mm

; EXECUTABLE_BLOCK_START
EXCLUDE_OBJECT_DEFINE NAME=comp.stl_id_0_copy_0 CENTER=175,175 POLYGON=[[141.9,141.9],[208.1,141.9],[208.1,160.3],[160.3,208.1],[141.9,208.1],[141.9,141.9]]
M73 P0 R8
;TYPE:Custom
M140 S35         ; set bed final temp
M190 S35         ; wait for bed final temp



G90
G21
M83 ; use relative distances for extrusion
T1
; filament start gcode
M109 S240 T1 ; set nozzle temperature and wait for it to be reached
G1 Z.2 F21000
M106 S0
;LAYER_CHANGE
;Z:0.2
;HEIGHT:0.2
;BEFORE_LAYER_CHANGE
;0.2
G92 E0

;AFTER_LAYER_CHANGE
;0.2
;_SET_FAN_SPEED_CHANGING_LAYER
SET_VELOCITY_LIMIT ACCEL=500 ACCEL_TO_DECEL=250
G1 E-.4 F1800
G1 Z.6 F21000
G1 X224.5 Y250.5
G1 Z.6
G1 Z.2
G1 E.4 F1800
;HEIGHT:0.2
;TYPE:Prime tower
;WIDTH:0.5
G1  X224.500 Y256.750  E0.2375 F2100
G1  X165.500  E2.2424
G1  Y250.500  E0.2375
G1  X224.500  E2.2424
M73 P1 R8
G1  Y256.750 
M73 P1 R8
G1  X223.500 
;--------------------
; CP EMPTY GRID START
; layer #1
G1  Y256.250  E0.0190
G1  X166.000  E2.1854
G1  Y255.725  E0.0200
G1  X224.000  E2.2044
G1  Y255.200  E0.0200
G1  X166.000  E2.2044
M73 P2 R8
G1  Y254.675  E0.0200
M73 P2 R8
G1  X224.000  E2.2044
G1  Y254.150  E0.0200
G1  X166.000  E2.2044
G1  Y253.625  E0.0200
G1  X224.000  E2.2044
M73 P3 R8
G1  Y253.100  E0.0200
M73 P3 R8
G1  X166.000  E2.2044
M73 P3 R7
G1  Y252.575  E0.0200
M73 P3 R7
G1  X224.000  E2.2044
G1  Y252.050  E0.0200
M73 P4 R7
G1  X166.000  E2.2044
M73 P4 R7
G1  Y251.525  E0.0200
G1  X224.000  E2.2044
G1  Y251.000  E0.0200
G1  X166.000  E2.2044
M73 P5 R7
G1  Y250.500  E0.0190
M73 P5 R7
; CP EMPTY GRID END
;------------------






G1  X165.000 Y250.000  
G1  X225.000  E2.2804
G1  Y257.250  E0.2755
G1  X165.000  E2.2804
G1  Y250.000  E0.2755
G1  X164.543 Y249.543  
G1  X225.457  E2.3151
M73 P6 R7
G1  Y257.707  E0.3103
M73 P6 R7
G1  X164.543  E2.3151
G1  Y249.543  E0.3103
G1  X164.086 Y249.086  
G1  X225.914  E2.3499
M73 P7 R7
G1  Y258.164  E0.3450
M73 P7 R7
G1  X164.086  E2.3499
G1  Y249.086  E0.3450
G1  X163.629 Y248.629  
G1  X226.371  E2.3846
G1  Y258.621  E0.3798
G1  X163.629  E2.3846
M73 P8 R7
G1  Y248.629  E0.3798
M73 P8 R7
G1  X163.172 Y248.172  
G1  X226.828  E2.4194
G1  Y259.078  E0.4145
G1  X163.172  E2.4194
M73 P9 R7
G1  Y248.172  E0.4145
M73 P9 R7
G1  X162.715 Y247.715  
G1  X227.285  E2.4541
G1  Y259.535  E0.4493
G1  X162.715  E2.4541
M73 P10 R7
G1  Y247.715  E0.4493
M73 P10 R7
G1  X162.258 Y247.258  
G1  X227.742  E2.4888
G1  Y259.992  E0.4840
G1  X162.258  E2.4888
M73 P11 R7
G1  Y247.258  E0.4840
M73 P11 R7
G1  X161.800 Y246.800  
G1  X228.200  E2.5236
G1  Y260.450  E0.5188
G1  X161.800  E2.5236
M73 P12 R7
G1  Y246.800  E0.5188
M73 P12 R7

; printing object comp.stl id:0 copy 0
G1 E-.28 F1800
;WIPE_START
G1 F3600
G1 X161.8 Y247.8 E-.12
;WIPE_END
EXCLUDE_OBJECT_START NAME=comp.stl_id_0_copy_0
G1 Z.6 F21000
G1 X160.147 Y159.202 Z.6
G1 Z.2
G1 E.4 F1800
;TYPE:Inner wall
;WIDTH:0.479999
;HEIGHT:0.2
G1 F2196.399
G1 X160.011 Y159.219 E.00498
G1 X159.694 Y159.355 E.01254
G1 X159.402 Y159.626 E.01447
G1 X159.244 Y159.926 E.01232
G1 X159.186 Y160.279 E.01298
G1 X159.186 Y206.986 E1.6975
G1 X143.014 Y206.986 E.58773
G1 X143.014 Y143.014 E2.32494
M73 P13 R7
G1 X206.986 Y143.014 E2.32494
M73 P13 R7
G1 X206.986 Y159.186 E.58773
G1 X160.279 Y159.186 E1.6975
G1 X160.187 Y159.197 E.00336
G1 X160.245 Y159.623 F21000
G1 F2196.399
G1 X160.156 Y159.623 E.00323
G1 X159.849 Y159.783 E.01258
G1 X159.677 Y160.018 E.0106
G1 X159.623 Y160.279 E.00966
G1 X159.623 Y207.423 E1.71338
M73 P14 R7
G1 X142.577 Y207.423 E.6195
M73 P14 R7
G1 X142.577 Y142.577 E2.35671
G1 X207.423 Y142.577 E2.35671
G1 X207.423 Y159.623 E.6195
M73 P15 R7
G1 X160.285 Y159.623 E1.71313
M73 P15 R7
G1 X160.279 Y160.06 F21000
;TYPE:Outer wall
G1 F2196.399
G1 X160.124 Y160.124 E.00608
G1 X160.06 Y160.279 E.00608
G1 X160.06 Y207.86 E1.72927
M73 P15 R6
G1 X142.14 Y207.86 E.65127
M73 P15 R6
G1 X142.14 Y142.14 E2.38848
M73 P16 R6
G1 X207.86 Y142.14 E2.38848
M73 P16 R6
G1 X207.86 Y160.06 E.65127
G1 X160.319 Y160.06 E1.72781
G1 E-.28 F1800
;WIPE_START
G1 F2196.399
G1 X160.124 Y160.124 E-.02457
G1 X160.06 Y160.279 E-.02007
G1 X160.06 Y160.906 E-.07535
;WIPE_END
G1 Z.6 F21000
G1 X205.97 Y143.145 Z.6
G1 Z.2
G1 E.4 F1800
;TYPE:Bottom surface
;WIDTH:0.480592
G1 F2193.423
G1 X206.658 Y143.833 E.03542
G1 X206.658 Y144.452 E.02253
G1 X205.548 Y143.342 E.05715
M73 P17 R6
G1 X204.929 Y143.342 E.02253
M73 P17 R6
G1 X206.658 Y145.071 E.089
G1 X206.658 Y145.69 E.02253
G1 X204.31 Y143.342 E.12086
G1 X203.691 Y143.342 E.02253
G1 X206.658 Y146.309 E.15272
G1 X206.658 Y146.928 E.02253
G1 X203.072 Y143.342 E.18457
G1 X202.453 Y143.342 E.02253
G1 X206.658 Y147.547 E.21643
G1 X206.658 Y148.166 E.02253
G1 X201.834 Y143.342 E.24828
G1 X201.215 Y143.342 E.02253
G1 X206.658 Y148.785 E.28014
G1 X206.658 Y149.404 E.02253
G1 X200.596 Y143.342 E.312
G1 X199.977 Y143.342 E.02253
G1 X206.658 Y150.023 E.34385
G1 X206.658 Y150.642 E.02253
G1 X199.358 Y143.342 E.37571
G1 X198.739 Y143.342 E.02253
G1 X206.658 Y151.261 E.40756
G1 X206.658 Y151.88 E.02253
G1 X198.12 Y143.342 E.43942
G1 X197.501 Y143.342 E.02253
G1 X206.658 Y152.499 E.47128
G1 X206.658 Y153.118 E.02253
G1 X196.882 Y143.342 E.50313
G1 X196.263 Y143.342 E.02253
G1 X206.658 Y153.737 E.53499
G1 X206.658 Y154.356 E.02253
G1 X195.644 Y143.342 E.56685
M73 P18 R6
G1 X195.025 Y143.342 E.02253
M73 P18 R6
G1 X206.658 Y154.975 E.5987
G1 X206.658 Y155.594 E.02253
G1 X194.406 Y143.342 E.63056
G1 X193.787 Y143.342 E.02253
G1 X206.658 Y156.213 E.66241
G1 X206.658 Y156.832 E.02253
G1 X193.168 Y143.342 E.69427
G1 X192.549 Y143.342 E.02253
G1 X206.658 Y157.451 E.72613
G1 X206.658 Y158.07 E.02253
G1 X191.93 Y143.342 E.75798
G1 X191.312 Y143.342 E.02253
G1 X206.658 Y158.688 E.78984
G1 X206.658 Y158.858 E.00617
G1 X206.209 Y158.858 E.01636
G1 X190.693 Y143.342 E.79856
M73 P19 R6
G1 X190.074 Y143.342 E.02253
M73 P19 R6
G1 X205.59 Y158.858 E.79856
G1 X204.971 Y158.858 E.02253
G1 X189.455 Y143.342 E.79856
G1 X188.836 Y143.342 E.02253
G1 X204.352 Y158.858 E.79856
G1 X203.733 Y158.858 E.02253
G1 X188.217 Y143.342 E.79856
G1 X187.598 Y143.342 E.02253
G1 X203.114 Y158.858 E.79856
G1 X202.495 Y158.858 E.02253
G1 X186.979 Y143.342 E.79856
G1 X186.36 Y143.342 E.02253
G1 X201.876 Y158.858 E.79856
G1 X201.257 Y158.858 E.02253
G1 X185.741 Y143.342 E.79856
M73 P20 R6
G1 X185.122 Y143.342 E.02253
M73 P20 R6
G1 X200.638 Y158.858 E.79856
G1 X200.019 Y158.858 E.02253
G1 X184.503 Y143.342 E.79856
G1 X183.884 Y143.342 E.02253
G1 X199.4 Y158.858 E.79856
G1 X198.781 Y158.858 E.02253
G1 X183.265 Y143.342 E.79856
G1 X182.646 Y143.342 E.02253
G1 X198.162 Y158.858 E.79856
G1 X197.543 Y158.858 E.02253
G1 X182.027 Y143.342 E.79856
G1 X181.408 Y143.342 E.02253
G1 X196.924 Y158.858 E.79856
M73 P21 R6
G1 X196.305 Y158.858 E.02253
M73 P21 R6
G1 X180.789 Y143.342 E.79856
G1 X180.17 Y143.342 E.02253
G1 X195.686 Y158.858 E.79856
G1 X195.067 Y158.858 E.02253
G1 X179.551 Y143.342 E.79856
G1 X178.932 Y143.342 E.02253
G1 X194.448 Y158.858 E.79856
G1 X193.829 Y158.858 E.02253
G1 X178.313 Y143.342 E.79856
G1 X177.694 Y143.342 E.02253
G1 X193.21 Y158.858 E.79856
G1 X192.591 Y158.858 E.02253
G1 X177.075 Y143.342 E.79856
M73 P22 R6
G1 X176.456 Y143.342 E.02253
M73 P22 R6
G1 X191.973 Y158.858 E.79856
G1 X191.354 Y158.858 E.02253
G1 X175.837 Y143.342 E.79856
G1 X175.219 Y143.342 E.02253
G1 X190.735 Y158.858 E.79856
G1 X190.116 Y158.858 E.02253
G1 X174.6 Y143.342 E.79856
G1 X173.981 Y143.342 E.02253
G1 X189.497 Y158.858 E.79856
G1 X188.878 Y158.858 E.02253
G1 X173.362 Y143.342 E.79856
G1 X172.743 Y143.342 E.02253
G1 X188.259 Y158.858 E.79856
G1 X187.64 Y158.858 E.02253
G1 X172.124 Y143.342 E.79856
M73 P23 R6
G1 X171.505 Y143.342 E.02253
M73 P23 R6
G1 X187.021 Y158.858 E.79856
G1 X186.402 Y158.858 E.02253
G1 X170.886 Y143.342 E.79856
G1 X170.267 Y143.342 E.02253
G1 X185.783 Y158.858 E.79856
G1 X185.164 Y158.858 E.02253
G1 X169.648 Y143.342 E.79856
G1 X169.029 Y143.342 E.02253
G1 X184.545 Y158.858 E.79856
G1 X183.926 Y158.858 E.02253
G1 X168.41 Y143.342 E.79856
G1 X167.791 Y143.342 E.02253
G1 X183.307 Y158.858 E.79856
M73 P24 R6
G1 X182.688 Y158.858 E.02253
M73 P24 R6
G1 X167.172 Y143.342 E.79856
G1 X166.553 Y143.342 E.02253
G1 X182.069 Y158.858 E.79856
G1 X181.45 Y158.858 E.02253
G1 X165.934 Y143.342 E.79856
G1 X165.315 Y143.342 E.02253
G1 X180.831 Y158.858 E.79856
G1 X180.212 Y158.858 E.02253
G1 X164.696 Y143.342 E.79856
G1 X164.077 Y143.342 E.02253
G1 X179.593 Y158.858 E.79856
G1 X178.974 Y158.858 E.02253
G1 X163.458 Y143.342 E.79856
M73 P25 R6
G1 X162.839 Y143.342 E.02253
M73 P25 R6
G1 X178.355 Y158.858 E.79856
G1 X177.736 Y158.858 E.02253
G1 X162.22 Y143.342 E.79856
G1 X161.601 Y143.342 E.02253
G1 X177.117 Y158.858 E.79856
G1 X176.498 Y158.858 E.02253
G1 X160.982 Y143.342 E.79856
G1 X160.363 Y143.342 E.02253
G1 X175.88 Y158.858 E.79856
G1 X175.261 Y158.858 E.02253
G1 X159.744 Y143.342 E.79856
G1 X159.126 Y143.342 E.02253
G1 X174.642 Y158.858 E.79856
G1 X174.023 Y158.858 E.02253
G1 X158.507 Y143.342 E.79856
M73 P26 R6
G1 X157.888 Y143.342 E.02253
M73 P26 R6
G1 X173.404 Y158.858 E.79856
G1 X172.785 Y158.858 E.02253
G1 X157.269 Y143.342 E.79856
G1 X156.65 Y143.342 E.02253
G1 X172.166 Y158.858 E.79856
G1 X171.547 Y158.858 E.02253
G1 X156.031 Y143.342 E.79856
G1 X155.412 Y143.342 E.02253
G1 X170.928 Y158.858 E.79856
G1 X170.309 Y158.858 E.02253
G1 X154.793 Y143.342 E.79856
G1 X154.174 Y143.342 E.02253
G1 X169.69 Y158.858 E.79856
M73 P27 R6
G1 X169.071 Y158.858 E.02253
M73 P27 R6
G1 X153.555 Y143.342 E.79856
G1 X152.936 Y143.342 E.02253
G1 X168.452 Y158.858 E.79856
G1 X167.833 Y158.858 E.02253
G1 X152.317 Y143.342 E.79856
G1 X151.698 Y143.342 E.02253
G1 X167.214 Y158.858 E.79856
G1 X166.595 Y158.858 E.02253
G1 X151.079 Y143.342 E.79856
M73 P27 R5
G1 X150.46 Y143.342 E.02253
M73 P27 R5
G1 X165.976 Y158.858 E.79856
G1 X165.357 Y158.858 E.02253
G1 X149.841 Y143.342 E.79856
M73 P28 R5
G1 X149.222 Y143.342 E.02253
M73 P28 R5
G1 X164.738 Y158.858 E.79856
G1 X164.119 Y158.858 E.02253
G1 X148.603 Y143.342 E.79856
G1 X147.984 Y143.342 E.02253
G1 X163.5 Y158.858 E.79856
G1 X162.881 Y158.858 E.02253
G1 X147.365 Y143.342 E.79856
G1 X146.746 Y143.342 E.02253
G1 X162.262 Y158.858 E.79856
G1 X161.643 Y158.858 E.02253
G1 X146.127 Y143.342 E.79856
G1 X145.508 Y143.342 E.02253
G1 X161.024 Y158.858 E.79856
G1 X160.405 Y158.858 E.02253
G1 X144.889 Y143.342 E.79856
M73 P29 R5
G1 X144.27 Y143.342 E.02253
M73 P29 R5
G1 X159.854 Y158.925 E.80202
G1 X159.614 Y159.023 E.00943
G1 X159.441 Y159.132 E.00742
G1 X143.651 Y143.342 E.81265
G1 X143.342 Y143.342 E.01126
G1 X143.342 Y143.651 E.01126
G1 X159.137 Y159.446 E.81292
G1 X159.022 Y159.614 E.00737
G1 X158.929 Y159.857 E.0095
G1 X143.342 Y144.27 E.8022
G1 X143.342 Y144.889 E.02253
G1 X158.858 Y160.405 E.79856
G1 X158.858 Y161.024 E.02253
G1 X143.342 Y145.508 E.79856
G1 X143.342 Y146.127 E.02253
G1 X158.858 Y161.643 E.79856
M73 P30 R5
G1 X158.858 Y162.262 E.02253
M73 P30 R5
G1 X143.342 Y146.746 E.79856
G1 X143.342 Y147.365 E.02253
G1 X158.858 Y162.881 E.79856
G1 X158.858 Y163.5 E.02253
G1 X143.342 Y147.984 E.79856
G1 X143.342 Y148.603 E.02253
G1 X158.858 Y164.119 E.79856
G1 X158.858 Y164.738 E.02253
G1 X143.342 Y149.222 E.79856
G1 X143.342 Y149.841 E.02253
G1 X158.858 Y165.357 E.79856
G1 X158.858 Y165.976 E.02253
G1 X143.342 Y150.46 E.79856
M73 P31 R5
G1 X143.342 Y151.079 E.02253
M73 P31 R5
G1 X158.858 Y166.595 E.79856
G1 X158.858 Y167.214 E.02253
G1 X143.342 Y151.698 E.79856
G1 X143.342 Y152.317 E.02253
G1 X158.858 Y167.833 E.79856
G1 X158.858 Y168.452 E.02253
G1 X143.342 Y152.936 E.79856
G1 X143.342 Y153.555 E.02253
G1 X158.858 Y169.071 E.79856
G1 X158.858 Y169.69 E.02253
G1 X143.342 Y154.174 E.79856
G1 X143.342 Y154.793 E.02253
G1 X158.858 Y170.309 E.79856
G1 X158.858 Y170.928 E.02253
G1 X143.342 Y155.412 E.79856
M73 P32 R5
G1 X143.342 Y156.031 E.02253
M73 P32 R5
G1 X158.858 Y171.547 E.79856
G1 X158.858 Y172.166 E.02253
G1 X143.342 Y156.65 E.79856
G1 X143.342 Y157.269 E.02253
G1 X158.858 Y172.785 E.79856
G1 X158.858 Y173.404 E.02253
G1 X143.342 Y157.888 E.79856
G1 X143.342 Y158.507 E.02253
G1 X158.858 Y174.023 E.79856
G1 X158.858 Y174.642 E.02253
G1 X143.342 Y159.125 E.79856
G1 X143.342 Y159.744 E.02253
G1 X158.858 Y175.26 E.79856
M73 P33 R5
G1 X158.858 Y175.879 E.02253
M73 P33 R5
G1 X143.342 Y160.363 E.79856
G1 X143.342 Y160.982 E.02253
G1 X158.858 Y176.498 E.79856
G1 X158.858 Y177.117 E.02253
G1 X143.342 Y161.601 E.79856
G1 X143.342 Y162.22 E.02253
G1 X158.858 Y177.736 E.79856
G1 X158.858 Y178.355 E.02253
G1 X143.342 Y162.839 E.79856
G1 X143.342 Y163.458 E.02253
G1 X158.858 Y178.974 E.79856
G1 X158.858 Y179.593 E.02253
G1 X143.342 Y164.077 E.79856
G1 X143.342 Y164.696 E.02253
M73 P34 R5
G1 X158.858 Y180.212 E.79856
M73 P34 R5
G1 X158.858 Y180.831 E.02253
G1 X143.342 Y165.315 E.79856
G1 X143.342 Y165.934 E.02253
G1 X158.858 Y181.45 E.79856
G1 X158.858 Y182.069 E.02253
G1 X143.342 Y166.553 E.79856
G1 X143.342 Y167.172 E.02253
G1 X158.858 Y182.688 E.79856
G1 X158.858 Y183.307 E.02253
G1 X143.342 Y167.791 E.79856
G1 X143.342 Y168.41 E.02253
G1 X158.858 Y183.926 E.79856
G1 X158.858 Y184.545 E.02253
G1 X143.342 Y169.029 E.79856
M73 P35 R5
G1 X143.342 Y169.648 E.02253
M73 P35 R5
G1 X158.858 Y185.164 E.79856
G1 X158.858 Y185.783 E.02253
G1 X143.342 Y170.267 E.79856
G1 X143.342 Y170.886 E.02253
G1 X158.858 Y186.402 E.79856
G1 X158.858 Y187.021 E.02253
G1 X143.342 Y171.505 E.79856
G1 X143.342 Y172.124 E.02253
G1 X158.858 Y187.64 E.79856
G1 X158.858 Y188.259 E.02253
G1 X143.342 Y172.743 E.79856
G1 X143.342 Y173.362 E.02253
G1 X158.858 Y188.878 E.79856
M73 P36 R5
G1 X158.858 Y189.497 E.02253
M73 P36 R5
G1 X143.342 Y173.981 E.79856
G1 X143.342 Y174.6 E.02253
G1 X158.858 Y190.116 E.79856
G1 X158.858 Y190.735 E.02253
G1 X143.342 Y175.218 E.79856
G1 X143.342 Y175.837 E.02253
G1 X158.858 Y191.353 E.79856
G1 X158.858 Y191.972 E.02253
G1 X143.342 Y176.456 E.79856
G1 X143.342 Y177.075 E.02253
G1 X158.858 Y192.591 E.79856
G1 X158.858 Y193.21 E.02253
G1 X143.342 Y177.694 E.79856
G1 X143.342 Y178.313 E.02253
G1 X158.858 Y193.829 E.79856
M73 P37 R5
G1 X158.858 Y194.448 E.02253
M73 P37 R5
G1 X143.342 Y178.932 E.79856
G1 X143.342 Y179.551 E.02253
G1 X158.858 Y195.067 E.79856
G1 X158.858 Y195.686 E.02253
G1 X143.342 Y180.17 E.79856
G1 X143.342 Y180.789 E.02253
G1 X158.858 Y196.305 E.79856
G1 X158.858 Y196.924 E.02253
G1 X143.342 Y181.408 E.79856
G1 X143.342 Y182.027 E.02253
G1 X158.858 Y197.543 E.79856
G1 X158.858 Y198.162 E.02253
G1 X143.342 Y182.646 E.79856
M73 P38 R5
G1 X143.342 Y183.265 E.02253
M73 P38 R5
G1 X158.858 Y198.781 E.79856
G1 X158.858 Y199.4 E.02253
G1 X143.342 Y183.884 E.79856
G1 X143.342 Y184.503 E.02253
G1 X158.858 Y200.019 E.79856
G1 X158.858 Y200.638 E.02253
G1 X143.342 Y185.122 E.79856
G1 X143.342 Y185.741 E.02253
G1 X158.858 Y201.257 E.79856
G1 X158.858 Y201.876 E.02253
G1 X143.342 Y186.36 E.79856
G1 X143.342 Y186.979 E.02253
G1 X158.858 Y202.495 E.79856
M73 P39 R5
G1 X158.858 Y203.114 E.02253
M73 P39 R5
G1 X143.342 Y187.598 E.79856
G1 X143.342 Y188.217 E.02253
G1 X158.858 Y203.733 E.79856
G1 X158.858 Y204.352 E.02253
G1 X143.342 Y188.836 E.79856
G1 X143.342 Y189.455 E.02253
G1 X158.858 Y204.971 E.79856
G1 X158.858 Y205.59 E.02253
G1 X143.342 Y190.074 E.79856
G1 X143.342 Y190.693 E.02253
G1 X158.858 Y206.209 E.79856
M73 P39 R4
