; generated by SuperSlicer 2.5.59.8 on 2024-12-24 at 17:00:36 UTC


;
;

;
;
; TODO: check the size of the extruder and the y-bar clearance. Optimize & test supports.

; external perimeters extrusion width = 0.84mm
; perimeters extrusion width = 0.84mm
; infill extrusion width = 0.84mm
; solid infill extrusion width = 0.84mm
; top infill extrusion width = 0.84mm
; first layer extrusion width = 0.84mm

; object:{"name":"base_test","id":"base_test.stl id:0 copy 0","object_center":[250.000000,250.000000,0.000000],"boundingbox_center":[250.000000,250.000000,2.000000],"boundingbox_size":[50.000000,50.000000,4.000000]}
; Total objects to print: 1
M486 T1
; plater:{"center":[250.000000,250.000000,0.000000],"boundingbox_center":[250.000000,250.000000,2.000000],"boundingbox_size":[50.000000,50.000000,4.000000]}

M107
M140 S55 ; set bed temperature
G10 P0 R205 ; sets the standby temperature
;TYPE:Custom
; M190 S0
; M109 S0 ; uncomment to remove set&wait temp gcode added automatically after this start gcode
print_start EXTRUDER=215 BED=55 CHAMBER=15
M109 S215
M107
G21 ; set units to millimeters
G90 ; use absolute coordinates
M83 ; use relative distances for extrusion
M190 S55 ; set bed temperature and wait for it to be reached
;LAYER_CHANGE
;Z:0.3
;HEIGHT:0.3
;BEFORE_LAYER_CHANGE
;0.3


G1 Z0.3 F18000
;AFTER_LAYER_CHANGE
;0.3
G92 E0
G1 E-0.75 F3000
G1 Z0.7 F18000
M204 P1000 T1000
G1 X222.53 Y221.939
G1 Z0.3
G1 E0.75 F1800
;TYPE:Skirt
;WIDTH:0.78
M107
G1 X221.422 Y223.35 E0.16013
G1 X221.027 Y225.1 E0.16013
G1 X221.027 Y274.9 E4.44495
G1 X221.142 Y275.863 E0.08653
G1 X221.939 Y277.47 E0.16013
G1 X223.35 Y278.578 E0.16013
G1 X225.1 Y278.973 E0.16013
G1 X274.9 Y278.973 E4.44495
G1 X275.863 Y278.858 E0.08653
G1 X277.47 Y278.061 E0.16013
G1 X278.578 Y276.65 E0.16013
G1 X278.973 Y274.9 E0.16013
G1 X278.973 Y225.1 E4.44495
G1 X278.858 Y224.137 E0.08653
G1 X278.061 Y222.53 E0.16013
G1 X276.65 Y221.422 E0.16013
G1 X274.9 Y221.027 E0.16013
G1 X225.1 Y221.027 E4.44495
G1 X224.137 Y221.142 E0.08653
G1 X222.611 Y221.899 E0.1521
M107
G1 X223.156 Y222.391 F18000
M107
G1 F1800
G1 X222.136 Y223.522 E0.1359
G1 X221.742 Y225.1 E0.1452
G1 X221.742 Y274.9 E4.44495
G1 X222.314 Y276.774 E0.17489
G1 X223.522 Y277.864 E0.1452
G1 X225.1 Y278.258 E0.1452
G1 X274.9 Y278.258 E4.44495
G1 X276.774 Y277.686 E0.17489
G1 X277.864 Y276.478 E0.1452
G1 X278.258 Y274.9 E0.1452
G1 X278.258 Y225.1 E4.44495
G1 X277.686 Y223.226 E0.17489
G1 X276.478 Y222.136 E0.1452
G1 X274.9 Y221.742 E0.1452
G1 X225.1 Y221.742 E4.44495
G1 X223.226 Y222.314 E0.17489
G1 X223.216 Y222.324 E0.00127
M107
G1 E-0.75 F3000
M204 P1500 T1000
G1 Z0.7 F18000
; printing object base_test.stl id:0 copy 0
M486 S0
; acceleration to travel
M204 P1500 T1500
G1 X225.064 Y224.707
; decel to extrusion
M204 P1500 T1000
G1 X226.296 Y226.296
; end travel
M204 P1000 T1500
G1 Z0.3
G1 E0.75 F1800
;TYPE:Internal perimeter
;WIDTH:0.84
M107
G1 X273.704 Y226.296 E4.5863
G1 X273.704 Y273.704 E4.5863
G1 X226.296 Y273.704 E4.5863
G1 X226.296 Y226.386 E4.5776
M107
M204 P1000 T1000
G1 X225.52 Y225.52 F18000
;TYPE:External perimeter
M107
G1 F1800
G1 X274.48 Y225.52 E4.73637
G1 X274.48 Y274.48 E4.73637
G1 X225.52 Y274.48 E4.73637
G1 X225.52 Y225.61 E4.72766
M107
;WIPE_START
M204 P1500 T1000
G1 X226.04 Y225.82 F18000
;WIPE_END
G1 E-0.75 F3000
G1 Z0.7 F18000
; acceleration to travel
M204 P1500 T1500
G1 X253.535 Y226.268
; decel to extrusion
M204 P1500 T1000
G1 X271.865 Y226.567
; end travel
M204 P1000 T1500
G1 Z0.3
G1 E0.75 F1800
;TYPE:Solid infill
;WIDTH:0.828189
M107
G1 X273.099 Y227.801 E0.16649
G1 X273.099 Y228.898 E0.10462
G1 X271.102 Y226.901 E0.26946
G1 X270.005 Y226.901 E0.10462
G1 X273.099 Y229.995 E0.41742
G1 X273.099 Y231.092 E0.10462
G1 X268.908 Y226.901 E0.56538
G1 X267.811 Y226.901 E0.10462
G1 X273.099 Y232.189 E0.71333
G1 X273.099 Y233.286 E0.10462
G1 X266.714 Y226.901 E0.86129
G1 X265.617 Y226.901 E0.10462
G1 X273.099 Y234.383 E1.00924
G1 X273.099 Y235.48 E0.10462
G1 X264.52 Y226.901 E1.1572
G1 X263.423 Y226.901 E0.10462
G1 X273.099 Y236.577 E1.30516
G1 X273.099 Y237.673 E0.10462
G1 X262.327 Y226.901 E1.45311
G1 X261.23 Y226.901 E0.10462
G1 X273.099 Y238.77 E1.60107
G1 X273.099 Y239.867 E0.10462
G1 X260.133 Y226.901 E1.74902
G1 X259.036 Y226.901 E0.10462
G1 X273.099 Y240.964 E1.89698
G1 X273.099 Y242.061 E0.10462
G1 X257.939 Y226.901 E2.04494
G1 X256.842 Y226.901 E0.10462
G1 X273.099 Y243.158 E2.19289
G1 X273.099 Y244.255 E0.10462
G1 X255.745 Y226.901 E2.34085
G1 X254.648 Y226.901 E0.10462
G1 X273.099 Y245.352 E2.4888
G1 X273.099 Y246.449 E0.10462
G1 X253.551 Y226.901 E2.63676
G1 X252.455 Y226.901 E0.10462
G1 X273.099 Y247.545 E2.78472
G1 X273.099 Y248.642 E0.10462
G1 X251.358 Y226.901 E2.93267
G1 X250.261 Y226.901 E0.10462
G1 X273.099 Y249.739 E3.08063
G1 X273.099 Y250.836 E0.10462
G1 X249.164 Y226.901 E3.22858
G1 X248.067 Y226.901 E0.10462
G1 X273.099 Y251.933 E3.37654
G1 X273.099 Y253.03 E0.10462
G1 X246.97 Y226.901 E3.5245
G1 X245.873 Y226.901 E0.10462
G1 X273.099 Y254.127 E3.67245
G1 X273.099 Y255.224 E0.10462
G1 X244.776 Y226.901 E3.82041
G1 X243.679 Y226.901 E0.10462
G1 X273.099 Y256.321 E3.96837
G1 X273.099 Y257.417 E0.10462
G1 X242.583 Y226.901 E4.11632
G1 X241.486 Y226.901 E0.10462
G1 X273.099 Y258.514 E4.26428
G1 X273.099 Y259.611 E0.10462
G1 X240.389 Y226.901 E4.41223
G1 X239.292 Y226.901 E0.10462
G1 X273.099 Y260.708 E4.56019
G1 X273.099 Y261.805 E0.10462
G1 X238.195 Y226.901 E4.70815
G1 X237.098 Y226.901 E0.10462
G1 X273.099 Y262.902 E4.8561
G1 X273.099 Y263.999 E0.10462
G1 X236.001 Y226.901 E5.00406
G1 X234.904 Y226.901 E0.10462
G1 X273.099 Y265.096 E5.15201
G1 X273.099 Y266.193 E0.10462
G1 X233.807 Y226.901 E5.29997
G1 X232.711 Y226.901 E0.10462
G1 X273.099 Y267.289 E5.44793
G1 X273.099 Y268.386 E0.10462
G1 X231.614 Y226.901 E5.59588
G1 X230.517 Y226.901 E0.10462
G1 X273.099 Y269.483 E5.74384
G1 X273.099 Y270.58 E0.10462
G1 X229.42 Y226.901 E5.89179
G1 X228.323 Y226.901 E0.10462
G1 X273.099 Y271.677 E6.03975
G1 X273.099 Y272.774 E0.10462
G1 X227.226 Y226.901 E6.18771
G1 X226.901 Y226.901 E0.03105
G1 X226.901 Y227.672 E0.07357
G1 X272.328 Y273.099 E6.12756
G1 X271.231 Y273.099 E0.10462
G1 X226.901 Y228.769 E5.9796
G1 X226.901 Y229.866 E0.10462
G1 X270.134 Y273.099 E5.83165
G1 X269.037 Y273.099 E0.10462
G1 X226.901 Y230.963 E5.68369
G1 X226.901 Y232.06 E0.10462
G1 X267.94 Y273.099 E5.53574
G1 X266.844 Y273.099 E0.10462
G1 X226.901 Y233.156 E5.38778
G1 X226.901 Y234.253 E0.10462
G1 X265.747 Y273.099 E5.23982
G1 X264.65 Y273.099 E0.10462
G1 X226.901 Y235.35 E5.09187
G1 X226.901 Y236.447 E0.10462
G1 X263.553 Y273.099 E4.94391
G1 X262.456 Y273.099 E0.10462
G1 X226.901 Y237.544 E4.79596
G1 X226.901 Y238.641 E0.10462
G1 X261.359 Y273.099 E4.648
G1 X260.262 Y273.099 E0.10462
G1 X226.901 Y239.738 E4.50004
G1 X226.901 Y240.835 E0.10462
G1 X259.165 Y273.099 E4.35209
G1 X258.068 Y273.099 E0.10462
G1 X226.901 Y241.932 E4.20413
G1 X226.901 Y243.028 E0.10462
G1 X256.972 Y273.099 E4.05618
G1 X255.875 Y273.099 E0.10462
G1 X226.901 Y244.125 E3.90822
G1 X226.901 Y245.222 E0.10462
G1 X254.778 Y273.099 E3.76026
G1 X253.681 Y273.099 E0.10462
G1 X226.901 Y246.319 E3.61231
G1 X226.901 Y247.416 E0.10462
G1 X252.584 Y273.099 E3.46435
G1 X251.487 Y273.099 E0.10462
G1 X226.901 Y248.513 E3.3164
G1 X226.901 Y249.61 E0.10462
G1 X250.39 Y273.099 E3.16844
G1 X249.293 Y273.099 E0.10462
G1 X226.901 Y250.707 E3.02048
G1 X226.901 Y251.804 E0.10462
G1 X248.196 Y273.099 E2.87253
G1 X247.1 Y273.099 E0.10462
G1 X226.901 Y252.9 E2.72457
G1 X226.901 Y253.997 E0.10462
G1 X246.003 Y273.099 E2.57662
G1 X244.906 Y273.099 E0.10462
G1 X226.901 Y255.094 E2.42866
G1 X226.901 Y256.191 E0.10462
G1 X243.809 Y273.099 E2.2807
G1 X242.712 Y273.099 E0.10462
G1 X226.901 Y257.288 E2.13275
G1 X226.901 Y258.385 E0.10462
G1 X241.615 Y273.099 E1.98479
G1 X240.518 Y273.099 E0.10462
G1 X226.901 Y259.482 E1.83684
G1 X226.901 Y260.579 E0.10462
G1 X239.421 Y273.099 E1.68888
G1 X238.324 Y273.099 E0.10462
G1 X226.901 Y261.676 E1.54092
G1 X226.901 Y262.772 E0.10462
G1 X237.228 Y273.099 E1.39297
G1 X236.131 Y273.099 E0.10462
G1 X226.901 Y263.869 E1.24501
G1 X226.901 Y264.966 E0.10462
G1 X235.034 Y273.099 E1.09705
G1 X233.937 Y273.099 E0.10462
G1 X226.901 Y266.063 E0.9491
G1 X226.901 Y267.16 E0.10462
G1 X232.84 Y273.099 E0.80114
G1 X231.743 Y273.099 E0.10462
G1 X226.901 Y268.257 E0.65319
G1 X226.901 Y269.354 E0.10462
G1 X230.646 Y273.099 E0.50523
G1 X229.549 Y273.099 E0.10462
G1 X226.901 Y270.451 E0.35727
G1 X226.901 Y271.548 E0.10462
G1 X228.452 Y273.099 E0.20932
G1 X227.355 Y273.099 E0.10462
G1 X226.567 Y272.311 E0.10635
M107
M106 S84.15
;LAYER_CHANGE
;Z:0.7
;HEIGHT:0.4
;BEFORE_LAYER_CHANGE
;0.7


; stop printing object base_test.stl id:0 copy 0
M486 S-1
M204 P1500 T1500
G1 Z0.7 F18000
;AFTER_LAYER_CHANGE
;0.7
G92 E0
G10 P0 S205 ; set temperature
; printing object base_test.stl id:0 copy 0
M486 S0
G1 X225.958 Y274.042
;TYPE:Internal perimeter
;WIDTH:0.715841
M106 S84.15
G1 F3095.238
G1 X225.958 Y225.958 E5.03775
G1 X274.042 Y225.958 E5.03775
G1 X274.042 Y274.042 E5.03775
G1 X226.048 Y274.042 E5.02832
M106 S84.15
G1 X225.343 Y274.657 F18000
;TYPE:External perimeter
;WIDTH:0.685841
M106 S84.15
G1 F2400
G1 X225.343 Y225.343 E4.92059
G1 X274.657 Y225.343 E4.92059
G1 X274.657 Y274.657 E4.92059
G1 X225.433 Y274.657 E4.91161
M106 S84.15
;WIPE_START
G1 X225.643 Y274.137 F18000
;WIPE_END
G1 X272.542 Y273.816
;TYPE:Solid infill
;WIDTH:0.708152
M106 S84.15
G1 F3128.8429
G1 X273.545 Y272.813 E0.14696
G1 X273.545 Y271.922 E0.09234
G1 X271.922 Y273.545 E0.23784
G1 X271.031 Y273.545 E0.09234
G1 X273.545 Y271.031 E0.36843
G1 X273.545 Y270.14 E0.09234
G1 X270.14 Y273.545 E0.49902
G1 X269.249 Y273.545 E0.09234
G1 X273.545 Y269.249 E0.62962
G1 X273.545 Y268.358 E0.09234
G1 X268.358 Y273.545 E0.76021
G1 X267.467 Y273.545 E0.09234
G1 X273.545 Y267.467 E0.8908
G1 X273.545 Y266.576 E0.09234
G1 X266.576 Y273.545 E1.02139
G1 X265.685 Y273.545 E0.09234
G1 X273.545 Y265.685 E1.15198
G1 X273.545 Y264.794 E0.09234
G1 X264.794 Y273.545 E1.28257
G1 X263.903 Y273.545 E0.09234
G1 X273.545 Y263.903 E1.41316
G1 X273.545 Y263.013 E0.09234
G1 X263.013 Y273.545 E1.54376
G1 X262.122 Y273.545 E0.09234
G1 X273.545 Y262.122 E1.67435
G1 X273.545 Y261.231 E0.09234
G1 X261.231 Y273.545 E1.80494
G1 X260.34 Y273.545 E0.09234
G1 X273.545 Y260.34 E1.93553
G1 X273.545 Y259.449 E0.09234
G1 X259.449 Y273.545 E2.06612
G1 X258.558 Y273.545 E0.09234
G1 X273.545 Y258.558 E2.19671
G1 X273.545 Y257.667 E0.09234
G1 X257.667 Y273.545 E2.3273
G1 X256.776 Y273.545 E0.09234
G1 X273.545 Y256.776 E2.4579
G1 X273.545 Y255.885 E0.09234
G1 X255.885 Y273.545 E2.58849
G1 X254.994 Y273.545 E0.09234
G1 X273.545 Y254.994 E2.71908
G1 X273.545 Y254.103 E0.09234
G1 X254.103 Y273.545 E2.84967
G1 X253.212 Y273.545 E0.09234
G1 X273.545 Y253.212 E2.98026
G1 X273.545 Y252.321 E0.09234
G1 X252.321 Y273.545 E3.11085
G1 X251.43 Y273.545 E0.09234
G1 X273.545 Y251.43 E3.24144
G1 X273.545 Y250.539 E0.09234
G1 X250.539 Y273.545 E3.37204
G1 X249.648 Y273.545 E0.09234
G1 X273.545 Y249.648 E3.50263
G1 X273.545 Y248.757 E0.09234
G1 X248.757 Y273.545 E3.63322
G1 X247.866 Y273.545 E0.09234
G1 X273.545 Y247.866 E3.76381
G1 X273.545 Y246.975 E0.09234
G1 X246.975 Y273.545 E3.8944
G1 X246.084 Y273.545 E0.09234
G1 X273.545 Y246.084 E4.02499
G1 X273.545 Y245.193 E0.09234
G1 X245.193 Y273.545 E4.15558
G1 X244.302 Y273.545 E0.09234
G1 X273.545 Y244.302 E4.28618
G1 X273.545 Y243.412 E0.09234
G1 X243.412 Y273.545 E4.41677
G1 X242.521 Y273.545 E0.09234
G1 X273.545 Y242.521 E4.54736
G1 X273.545 Y241.63 E0.09234
G1 X241.63 Y273.545 E4.67795
G1 X240.739 Y273.545 E0.09234
G1 X273.545 Y240.739 E4.80854
G1 X273.545 Y239.848 E0.09234
G1 X239.848 Y273.545 E4.93913
G1 X238.957 Y273.545 E0.09234
G1 X273.545 Y238.957 E5.06972
G1 X273.545 Y238.066 E0.09234
G1 X238.066 Y273.545 E5.20032
G1 X237.175 Y273.545 E0.09234
G1 X273.545 Y237.175 E5.33091
G1 X273.545 Y236.284 E0.09234
G1 X236.284 Y273.545 E5.4615
G1 X235.393 Y273.545 E0.09234
G1 X273.545 Y235.393 E5.59209
G1 X273.545 Y234.502 E0.09234
G1 X234.502 Y273.545 E5.72268
G1 X233.611 Y273.545 E0.09234
G1 X273.545 Y233.611 E5.85327
G1 X273.545 Y232.72 E0.09234
G1 X232.72 Y273.545 E5.98386
G1 X231.829 Y273.545 E0.09234
G1 X273.545 Y231.829 E6.11446
G1 X273.545 Y230.938 E0.09234
G1 X230.938 Y273.545 E6.24505
G1 X230.047 Y273.545 E0.09234
G1 X273.545 Y230.047 E6.37564
G1 X273.545 Y229.156 E0.09234
G1 X229.156 Y273.545 E6.50623
G1 X228.265 Y273.545 E0.09234
G1 X273.545 Y228.265 E6.63682
G1 X273.545 Y227.374 E0.09234
G1 X227.374 Y273.545 E6.76741
G1 X226.483 Y273.545 E0.09234
G1 X273.545 Y226.483 E6.898
G1 X273.545 Y226.455 E0.00292
G1 X272.682 Y226.455 E0.08943
G1 X226.455 Y272.682 E6.77566
G1 X226.455 Y271.791 E0.09234
G1 X271.791 Y226.455 E6.64507
G1 X270.9 Y226.455 E0.09234
G1 X226.455 Y270.9 E6.51447
G1 X226.455 Y270.009 E0.09234
G1 X270.009 Y226.455 E6.38388
G1 X269.118 Y226.455 E0.09234
G1 X226.455 Y269.118 E6.25329
G1 X226.455 Y268.227 E0.09234
G1 X268.227 Y226.455 E6.1227
G1 X267.336 Y226.455 E0.09234
G1 X226.455 Y267.336 E5.99211
G1 X226.455 Y266.445 E0.09234
G1 X266.445 Y226.455 E5.86152
G1 X265.554 Y226.455 E0.09234
G1 X226.455 Y265.554 E5.73093
G1 X226.455 Y264.663 E0.09234
G1 X264.663 Y226.455 E5.60033
G1 X263.772 Y226.455 E0.09234
G1 X226.455 Y263.772 E5.46974
G1 X226.455 Y262.881 E0.09234
G1 X262.881 Y226.455 E5.33915
G1 X261.99 Y226.455 E0.09234
G1 X226.455 Y261.99 E5.20856
G1 X226.455 Y261.099 E0.09234
G1 X261.099 Y226.455 E5.07797
G1 X260.209 Y226.455 E0.09234
G1 X226.455 Y260.209 E4.94738
G1 X226.455 Y259.318 E0.09234
G1 X259.318 Y226.455 E4.81679
G1 X258.427 Y226.455 E0.09234
G1 X226.455 Y258.427 E4.68619
G1 X226.455 Y257.536 E0.09234
G1 X257.536 Y226.455 E4.5556
G1 X256.645 Y226.455 E0.09234
G1 X226.455 Y256.645 E4.42501
G1 X226.455 Y255.754 E0.09234
G1 X255.754 Y226.455 E4.29442
G1 X254.863 Y226.455 E0.09234
G1 X226.455 Y254.863 E4.16383
G1 X226.455 Y253.972 E0.09234
G1 X253.972 Y226.455 E4.03324
G1 X253.081 Y226.455 E0.09234
G1 X226.455 Y253.081 E3.90265
G1 X226.455 Y252.19 E0.09234
G1 X252.19 Y226.455 E3.77205
G1 X251.299 Y226.455 E0.09234
G1 X226.455 Y251.299 E3.64146
G1 X226.455 Y250.408 E0.09234
G1 X250.408 Y226.455 E3.51087
G1 X249.517 Y226.455 E0.09234
G1 X226.455 Y249.517 E3.38028
G1 X226.455 Y248.626 E0.09234
G1 X248.626 Y226.455 E3.24969
G1 X247.735 Y226.455 E0.09234
G1 X226.455 Y247.735 E3.1191
G1 X226.455 Y246.844 E0.09234
G1 X246.844 Y226.455 E2.9885
G1 X245.953 Y226.455 E0.09234
G1 X226.455 Y245.953 E2.85791
G1 X226.455 Y245.062 E0.09234
G1 X245.062 Y226.455 E2.72732
G1 X244.171 Y226.455 E0.09234
G1 X226.455 Y244.171 E2.59673
G1 X226.455 Y243.28 E0.09234
G1 X243.28 Y226.455 E2.46614
G1 X242.389 Y226.455 E0.09234
G1 X226.455 Y242.389 E2.33555
G1 X226.455 Y241.499 E0.09234
G1 X241.499 Y226.455 E2.20496
G1 X240.608 Y226.455 E0.09234
G1 X226.455 Y240.608 E2.07436
G1 X226.455 Y239.717 E0.09234
G1 X239.717 Y226.455 E1.94377
G1 X238.826 Y226.455 E0.09234
G1 X226.455 Y238.826 E1.81318
G1 X226.455 Y237.935 E0.09234
G1 X237.935 Y226.455 E1.68259
G1 X237.044 Y226.455 E0.09234
G1 X226.455 Y237.044 E1.552
G1 X226.455 Y236.153 E0.09234
G1 X236.153 Y226.455 E1.42141
G1 X235.262 Y226.455 E0.09234
G1 X226.455 Y235.262 E1.29082
G1 X226.455 Y234.371 E0.09234
G1 X234.371 Y226.455 E1.16022
G1 X233.48 Y226.455 E0.09234
G1 X226.455 Y233.48 E1.02963
G1 X226.455 Y232.589 E0.09234
G1 X232.589 Y226.455 E0.89904
G1 X231.698 Y226.455 E0.09234
G1 X226.455 Y231.698 E0.76845
G1 X226.455 Y230.807 E0.09234
G1 X230.807 Y226.455 E0.63786
G1 X229.916 Y226.455 E0.09234
G1 X226.455 Y229.916 E0.50727
G1 X226.455 Y229.025 E0.09234
G1 X229.025 Y226.455 E0.37668
G1 X228.134 Y226.455 E0.09234
G1 X226.455 Y228.134 E0.24608
G1 X226.455 Y227.243 E0.09234
G1 X227.514 Y226.184 E0.1552
M106 S84.15
M106 S168.3
;LAYER_CHANGE
;Z:1.1
;HEIGHT:0.4
;BEFORE_LAYER_CHANGE
;1.1


; stop printing object base_test.stl id:0 copy 0
M486 S-1
G1 Z1.1 F18000
;AFTER_LAYER_CHANGE
;1.1
G92 E0
; printing object base_test.stl id:0 copy 0
M486 S0
G1 X225.958 Y225.958
;TYPE:Internal perimeter
;WIDTH:0.715841
M106 S168.3
G1 F3095.238
