postprocess.py insert
postprocess.py insert
postprocess.py insert
; generated by PrusaSlicer 2.7.4+MacOS-arm64 on 2024-09-06 at 15:34:56 UTC


;
;

;
;
; 

; external perimeters extrusion width = 0.68mm
; perimeters extrusion width = 0.68mm
; infill extrusion width = 0.68mm
; solid infill extrusion width = 0.68mm
; top infill extrusion width = 0.55mm
; support material extrusion width = 0.68mm
; first layer extrusion width = 0.68mm


; printing object column_test.stl id:0 copy 0
; stop printing object column_test.stl id:0 copy 0

 ; set temperature
 ; set temperature
;TYPE:Custom
; Heat the bed first
;M140 S50
M190 S50 ; wait for bed temp


SET_PRINT_STATUS_START
G92 E0

; Set Temperatures for other tools apart from T0
 SET_TOOL_FOR_PRINT T=0 R=150 S=215 
 SET_TOOL_FOR_PRINT T=1 R=150 S=215  


 ; set temperature and wait for it to be reached
 ; set temperature and wait for it to be reached
G21 ; set units to millimeters
G90 ; use absolute coordinates
M83 ; use relative distances for extrusion
SETFILAMENTSENSOR_OFF T=0
SET_TOOLCHANGE_IN_PROGRESS_ON
M568 P0 A2 ;Heat Next Extruder


 M109 T0 S215 


G92 E0 ; Reset extruder position before retraction
G1 E-20 F1800 ; Retract filament by 20mm
G92 E0 ; Reset extruder position again after retraction

postprocess.py insert
M117 Tool changer T0 Layer -1

T0
G90
G1 X300 Y330 F3000
G1 Z3 F500
G1 E18 F1800 ; Extrude most of the retracted filament
G1 E10 F300 ; Slowly extrude the last 2mm to prime the nozzle
SETFILAMENTSENSOR_ON T=0
G1 E20 F300
G92 E0
G1 X300 Y300 F3000
G90
G1 Z0 F500
;TIMELAPSE_TAKE_FRAME
SET_TOOLCHANGE_IN_PROGRESS_OFF
 ; set temperature and wait for it to be reached
M107 ; disable fan
;LAYER_CHANGE
;Z:0.32
;HEIGHT:0.32
; printing object column_test.stl id:0 copy 0
G1 E-.7 F2100 ; retract
; stop printing object column_test.stl id:0 copy 0
G1 Z1.82 F1800 ; lift
G1 X163.602 Y93.205 F24000 ; move to first layer point
G1 Z.32 F1800 ; move to first layer point
G1 E.7 F1500 ;  ; unretract
M204 S1500 ; adjust acceleration
;TYPE:Skirt/Brim
;WIDTH:0.68
G1 F2700
G1 X165.401 Y91.388 E.20796 ; skirt
G1 X167.671 Y90.212 E.20793 ; skirt
G1 X170.272 Y89.789 E.21432 ; skirt
G1 X190.272 Y89.789 E1.62663 ; skirt
G1 X192.798 Y90.187 E.20798 ; skirt
G1 X195.08 Y91.341 E.20798 ; skirt
G1 X196.897 Y93.141 E.20802 ; skirt
G1 X198.073 Y95.411 E.20793 ; skirt
G1 X198.495 Y98.012 E.21431 ; skirt
G1 X198.495 Y118.012 E1.62663 ; skirt
G1 X198.097 Y120.538 E.20798 ; skirt
G1 X196.943 Y122.82 E.20798 ; skirt
G1 X195.144 Y124.636 E.2079 ; skirt
G1 X192.873 Y125.812 E.208 ; skirt
G1 X190.272 Y126.235 E.21432 ; skirt
G1 X170.272 Y126.235 E1.62663 ; skirt
G1 X167.747 Y125.837 E.2079 ; skirt
G1 X165.465 Y124.683 E.20798 ; skirt
G1 X163.648 Y122.884 E.20796 ; skirt
G1 X162.472 Y120.613 E.208 ; skirt
G1 X162.05 Y118.012 E.21431 ; skirt
G1 X162.05 Y98.012 E1.62663 ; skirt
G1 X162.447 Y95.486 E.20796 ; skirt
G1 X163.561 Y93.285 E.20063 ; skirt
M204 S5000 ; adjust acceleration
M204 S8000 ; adjust acceleration
G1 X163.561 Y93.285 F24000 ; move to first skirt point
G1 X164.119 Y93.581 ; move to first skirt point
M204 S1500 ; adjust acceleration
G1 F2700
G1 X164.209 Y93.411 E.01564 ; skirt
G1 X165.993 Y91.718 E.20003 ; skirt
G1 X168.223 Y90.682 E.19999 ; skirt
G1 X170.272 Y90.401 E.16821 ; skirt
G1 X190.272 Y90.401 E1.62663 ; skirt
G1 X192.7 Y90.798 E.20009 ; skirt
G1 X194.873 Y91.949 E.19999 ; skirt
G1 X196.567 Y93.732 E.20003 ; skirt
G1 X197.603 Y95.963 E.20006 ; skirt
G1 X197.884 Y98.012 E.16821 ; skirt
G1 X197.884 Y118.012 E1.62663 ; skirt
G1 X197.486 Y120.439 E.20003 ; skirt
G1 X196.336 Y122.613 E.20003 ; skirt
G1 X194.552 Y124.306 E.20003 ; skirt
G1 X192.321 Y125.342 E.20006 ; skirt
G1 X190.272 Y125.623 E.16821 ; skirt
G1 X170.272 Y125.623 E1.62663 ; skirt
G1 X167.845 Y125.226 E.20001 ; skirt
G1 X165.671 Y124.075 E.20007 ; skirt
G1 X163.978 Y122.292 E.19997 ; skirt
G1 X162.942 Y120.061 E.20006 ; skirt
G1 X162.661 Y118.012 E.16821 ; skirt
G1 X162.661 Y98.012 E1.62663 ; skirt
G1 X163.058 Y95.585 E.20001 ; skirt
G1 X164.077 Y93.66 E.17715 ; skirt
M204 S5000 ; adjust acceleration
;WIPE_START
G1 F19200
G1 X164.119 Y93.581 E-.0093 ; wipe and retract
G1 X164.209 Y93.411 E-.01999 ; wipe and retract
G1 X165.993 Y91.718 E-.25555 ; wipe and retract
G1 X168.223 Y90.682 E-.2555 ; wipe and retract
G1 X169.746 Y90.473 E-.15966 ; wipe and retract
;WIPE_END
M204 S8000 ; adjust acceleration
G1 X189.121 Y116.861 Z.891 F24000 ; move to first perimeter point
G1 Z.32 F1800 ; move to first perimeter point
G1 E.7 F1500 ;  ; unretract
; printing object column_test.stl id:0 copy 0
M204 S1500 ; adjust acceleration
;TYPE:Perimeter
;WIDTH:0.68
G1 F2700
G1 X171.424 Y116.861 E1.43932 ; perimeter
G1 X171.424 Y99.163 E1.4394 ; perimeter
G1 X189.121 Y99.163 E1.43932 ; perimeter
G1 X189.121 Y108.012 E.7197 ; perimeter
G1 X189.121 Y116.771 E.71238 ; perimeter
M204 S5000 ; adjust acceleration
M204 S8000 ; adjust acceleration
G1 X189.121 Y116.771 F24000 ; move to first perimeter point
G1 X189.732 Y117.472 ; move to first perimeter point
M204 S1500 ; adjust acceleration
;TYPE:External perimeter
G1 F2700
G1 X170.812 Y117.472 E1.53879 ; perimeter
G1 X170.812 Y98.552 E1.53879 ; perimeter
G1 X189.732 Y98.552 E1.53879 ; perimeter
G1 X189.732 Y108.012 E.76939 ; perimeter
G1 X189.732 Y117.382 E.76207 ; perimeter
M204 S5000 ; adjust acceleration
;WIPE_START
G1 F19200
G1 X189.732 Y117.472 E-.00935 ; wipe and retract
G1 X183.085 Y117.472 E-.69065 ; wipe and retract
;WIPE_END
M204 S8000 ; adjust acceleration
G1 X187.609 Y99.408 Z.645 F24000 ; move to first infill point
G1 Z.32 F1800 ; move to first infill point
G1 E.7 F1500 ;  ; unretract
M204 S1500 ; adjust acceleration
;TYPE:Solid infill
;WIDTH:0.694894
G1 F2700
G1 X188.601 Y100.4 E.11688 ; infill
G1 X188.601 Y101.286 E.07382 ; infill
G1 X186.999 Y99.683 E.18881 ; infill
G1 X186.113 Y99.683 E.07382 ; infill
G1 X188.601 Y102.171 E.29314 ; infill
G1 X188.601 Y103.057 E.07382 ; infill
G1 X185.227 Y99.683 E.39753 ; infill
G1 X184.342 Y99.683 E.07373 ; infill
G1 X188.601 Y103.943 E.50186 ; infill
G1 X188.601 Y104.828 E.07373 ; infill
G1 X183.456 Y99.683 E.60619 ; infill
G1 X182.571 Y99.683 E.07373 ; infill
G1 X188.601 Y105.714 E.71053 ; infill
G1 X188.601 Y106.599 E.07373 ; infill
G1 X181.685 Y99.683 E.81486 ; infill
G1 X180.799 Y99.683 E.07382 ; infill
G1 X188.601 Y107.485 E.91925 ; infill
G1 X188.601 Y108.371 E.07382 ; infill
G1 X179.914 Y99.683 E1.02358 ; infill
G1 X179.028 Y99.683 E.07382 ; infill
G1 X188.601 Y109.256 E1.12791 ; infill
G1 X188.601 Y110.142 E.07382 ; infill
G1 X178.143 Y99.683 E1.23224 ; infill
G1 X177.257 Y99.683 E.07382 ; infill
G1 X188.601 Y111.028 E1.33663 ; infill
G1 X188.601 Y111.913 E.07373 ; infill
G1 X176.371 Y99.683 E1.44096 ; infill
G1 X175.486 Y99.683 E.07373 ; infill
G1 X188.601 Y112.799 E1.5453 ; infill
G1 X188.601 Y113.684 E.07373 ; infill
G1 X174.6 Y99.683 E1.64963 ; infill
G1 X173.715 Y99.683 E.07373 ; infill
G1 X188.601 Y114.57 E1.75396 ; infill
G1 X188.601 Y115.456 E.07382 ; infill
G1 X172.829 Y99.683 E1.85835 ; infill
G1 X171.943 Y99.683 E.07382 ; infill
G1 X188.601 Y116.341 E1.96268 ; infill
G1 X187.716 Y116.341 E.07373 ; infill
G1 X171.943 Y100.569 E1.85835 ; infill
G1 X171.943 Y101.454 E.07373 ; infill
G1 X186.83 Y116.341 E1.75402 ; infill
G1 X185.945 Y116.341 E.07373 ; infill
G1 X171.943 Y102.34 E1.64969 ; infill
G1 X171.943 Y103.226 E.07382 ; infill
G1 X185.059 Y116.341 E1.5453 ; infill
G1 X184.173 Y116.341 E.07382 ; infill
G1 X171.943 Y104.111 E1.44096 ; infill
G1 X171.943 Y104.997 E.07382 ; infill
G1 X183.288 Y116.341 E1.33663 ; infill
G1 X182.402 Y116.341 E.07382 ; infill
G1 X171.943 Y105.882 E1.2323 ; infill
G1 X171.943 Y106.768 E.07382 ; infill
G1 X181.517 Y116.341 E1.12797 ; infill
G1 X180.631 Y116.341 E.07382 ; infill
G1 X171.943 Y107.654 E1.02358 ; infill
G1 X171.943 Y108.539 E.07373 ; infill
G1 X179.745 Y116.341 E.91925 ; infill
G1 X178.86 Y116.341 E.07373 ; infill
G1 X171.943 Y109.425 E.81492 ; infill
G1 X171.943 Y110.31 E.07373 ; infill
G1 X177.974 Y116.341 E.71058 ; infill
G1 X177.088 Y116.341 E.07382 ; infill
G1 X171.943 Y111.196 E.60619 ; infill
G1 X171.943 Y112.082 E.07382 ; infill
G1 X176.203 Y116.341 E.50186 ; infill
G1 X175.317 Y116.341 E.07382 ; infill
G1 X171.943 Y112.967 E.39753 ; infill
G1 X171.943 Y113.853 E.07382 ; infill
G1 X174.432 Y116.341 E.2932 ; infill
G1 X173.546 Y116.341 E.07382 ; infill
G1 X171.943 Y114.738 E.18887 ; infill
G1 X171.943 Y115.624 E.07382 ; infill
G1 X172.936 Y116.616 E.11694 ; infill
M204 S5000 ; adjust acceleration
M106 S127.5 ; enable fan
;LAYER_CHANGE
;Z:0.64
;HEIGHT:0.32
;BEFORE_LAYER_CHANGE
G92 E0.0
;0.64


  M568 P0 R150 S205 
  M568 P1 R150 S205 
 
 
 

RSCS_LAYER_CHECK LAYER=1
;WIPE_START
G1 F19200
G1 X171.943 Y115.624 E-.14584 ; wipe and retract
G1 X171.943 Y114.738 E-.09206 ; wipe and retract
G1 X173.546 Y116.341 E-.23555 ; wipe and retract
G1 X174.432 Y116.341 E-.09206 ; wipe and retract
G1 X173.517 Y115.426 E-.13449 ; wipe and retract
;WIPE_END
G1 X173.517 Y115.426 Z.32 F24000 ; layer change
G1 X189.321 Y117.061 Z.64 ; layer change
;AFTER_LAYER_CHANGE
;0.64
;TIMELAPSE_TAKE_FRAME
 ; set temperature
G1 X189.321 Y117.061 ; move to first layer point
G1 Z.64 F1800 ; move to first layer point
G1 E.7 F1500 ;  ; unretract
M204 S3500 ; adjust acceleration
;TYPE:Perimeter
;WIDTH:0.68
G1 F2905
G1 X171.224 Y117.061 E1.47185 ; perimeter
G1 X171.224 Y98.963 E1.47193 ; perimeter
G1 X189.321 Y98.963 E1.47185 ; perimeter
G1 X189.321 Y108.012 E.73597 ; perimeter
G1 X189.321 Y116.971 E.72865 ; perimeter
M204 S5000 ; adjust acceleration
M204 S8000 ; adjust acceleration
G1 X189.321 Y116.971 F24000 ; move to first perimeter point
G1 X189.932 Y117.672 ; move to first perimeter point
M204 S2000 ; adjust acceleration
;TYPE:External perimeter
G1 F2905
G1 X170.612 Y117.672 E1.57132 ; perimeter
G1 X170.612 Y116.652 E.08296 ; perimeter
G1 X170.612 Y98.352 E1.48836 ; perimeter
G1 X188.912 Y98.352 E1.48836 ; perimeter
G1 X189.932 Y98.352 E.08296 ; perimeter
G1 X189.932 Y108.012 E.78566 ; perimeter
G1 X189.932 Y117.582 E.77834 ; perimeter
M204 S5000 ; adjust acceleration
M204 S8000 ; adjust acceleration
G1 X189.932 Y117.582 F24000 ; move to first infill point
G1 X171.909 Y99.533 ; move to first infill point
M204 S3500 ; adjust acceleration
;TYPE:Solid infill
;WIDTH:0.828325
G1 F2905
G2 X171.885 Y99.624 I-.087 J.025 E.04782 ; infill
;WIDTH:0.68
G1 X171.743 Y100.601 E.0803 ; infill
G1 X172.861 Y99.483 E.12859 ; infill
G1 X173.726 Y99.483 E.07035 ; infill
G1 X171.743 Y101.465 E.22803 ; infill
G1 X171.743 Y102.33 E.07035 ; infill
G1 X174.59 Y99.483 E.32746 ; infill
G1 X175.455 Y99.483 E.07035 ; infill
G1 X171.743 Y103.194 E.4269 ; infill
G1 X171.743 Y104.059 E.07035 ; infill
G1 X176.319 Y99.483 E.52633 ; infill
G1 X177.184 Y99.483 E.07035 ; infill
G1 X171.743 Y104.924 E.62582 ; infill
G1 X171.743 Y105.788 E.07027 ; infill
G1 X178.048 Y99.483 E.7252 ; infill
G1 X178.913 Y99.483 E.07035 ; infill
G1 X171.743 Y106.653 E.82469 ; infill
G1 X171.743 Y107.517 E.07027 ; infill
G1 X179.777 Y99.483 E.92407 ; infill
G1 X180.642 Y99.483 E.07035 ; infill
G1 X171.743 Y108.382 E1.02356 ; infill
G1 X171.743 Y109.246 E.07027 ; infill
G1 X181.507 Y99.483 E1.123 ; infill
G1 X182.371 Y99.483 E.07027 ; infill
G1 X171.743 Y110.111 E1.22243 ; infill
G1 X171.743 Y110.975 E.07027 ; infill
G1 X183.236 Y99.483 E1.32186 ; infill
G1 X184.1 Y99.483 E.07027 ; infill
G1 X171.743 Y111.84 E1.4213 ; infill
G1 X171.743 Y112.704 E.07027 ; infill
G1 X184.965 Y99.483 E1.52073 ; infill
G1 X185.829 Y99.483 E.07027 ; infill
G1 X171.743 Y113.569 E1.62017 ; infill
G1 X171.743 Y114.434 E.07035 ; infill
G1 X186.694 Y99.483 E1.71966 ; infill
G1 X187.558 Y99.483 E.07027 ; infill
G1 X171.743 Y115.298 E1.81904 ; infill
M204 S5000 ; adjust acceleration
M204 S8000 ; adjust acceleration
G1 X171.743 Y115.298 F24000 ; move to first infill point
G1 X171.676 Y116.654 ; move to first infill point
M204 S3500 ; adjust acceleration
;WIDTH:0.578673
G1 F2905
G2 X171.659 Y116.715 I-.059 J.017 E.02154 ; infill
;WIDTH:0.612448
G1 X171.687 Y116.531 E.01346 ; infill
;WIDTH:0.646224
G1 X171.715 Y116.347 E.0143 ; infill
;WIDTH:0.68
G1 X171.743 Y116.163 E.01514 ; infill
G1 X188.423 Y99.483 E1.91853 ; infill
G1 X188.801 Y99.969 E.05008 ; infill
G1 X172.229 Y116.541 E1.90611 ; infill
G1 X173.094 Y116.541 E.07035 ; infill
G1 X188.801 Y100.834 E1.80662 ; infill
G1 X188.801 Y101.698 E.07027 ; infill
G1 X173.959 Y116.541 E1.70718 ; infill
G1 X174.823 Y116.541 E.07027 ; infill
G1 X188.801 Y102.563 E1.60775 ; infill
G1 X188.801 Y103.427 E.07027 ; infill
G1 X175.688 Y116.541 E1.50831 ; infill
G1 X176.552 Y116.541 E.07027 ; infill
G1 X188.801 Y104.292 E1.40888 ; infill
G1 X188.801 Y105.156 E.07027 ; infill
G1 X177.417 Y116.541 E1.30944 ; infill
G1 X178.281 Y116.541 E.07027 ; infill
G1 X188.801 Y106.021 E1.21001 ; infill
G1 X188.801 Y106.885 E.07027 ; infill
G1 X179.146 Y116.541 E1.11057 ; infill
G1 X180.01 Y116.541 E.07027 ; infill
G1 X188.801 Y107.75 E1.01114 ; infill
G1 X188.801 Y108.615 E.07035 ; infill
G1 X180.875 Y116.541 E.91165 ; infill
G1 X181.739 Y116.541 E.07027 ; infill
G1 X188.801 Y109.479 E.81227 ; infill
G1 X188.801 Y110.344 E.07035 ; infill
G1 X182.604 Y116.541 E.71278 ; infill
G1 X183.469 Y116.541 E.07035 ; infill
G1 X188.801 Y111.208 E.61334 ; infill
G1 X188.801 Y112.073 E.07035 ; infill
G1 X184.333 Y116.541 E.51391 ; infill
G1 X185.198 Y116.541 E.07035 ; infill
G1 X188.801 Y112.937 E.41447 ; infill
G1 X188.801 Y113.802 E.07035 ; infill
G1 X186.062 Y116.541 E.31504 ; infill
G1 X186.927 Y116.541 E.07035 ; infill
G1 X188.801 Y114.666 E.2156 ; infill
G1 X189.124 Y115.28 E.05643 ; infill
;WIDTH:0.578673
G2 X189.107 Y115.341 I-.059 J.017 E.02154 ; infill
;WIDTH:0.612448
G1 X189.005 Y115.405 E.00871 ; infill
;WIDTH:0.646224
G1 X188.903 Y115.468 E.00921 ; infill
;WIDTH:0.68
G1 X188.801 Y115.531 E.00975 ; infill
G1 X187.791 Y116.541 E.11617 ; infill
G1 X187.728 Y116.643 E.00975 ; infill
;WIDTH:0.646224
G1 X187.665 Y116.745 E.00921 ; infill
;WIDTH:0.612448
G1 X187.602 Y116.847 E.00867 ; infill
;WIDTH:0.578673
G3 X187.618 Y116.786 I-.042 J-.044 E.02156 ; infill
M204 S5000 ; adjust acceleration
M204 S8000 ; adjust acceleration
G1 X187.618 Y116.786 F24000 ; move to first infill point
G1 X188.82 Y116.56 ; move to first infill point
M204 S3500 ; adjust acceleration
;WIDTH:0.765303
G1 F2905
G3 X188.843 Y116.476 I-.057 J-.06 E.04013 ; infill
M204 S5000 ; adjust acceleration
M106 S255 ; enable fan
;LAYER_CHANGE
;Z:0.96
;HEIGHT:0.32
;BEFORE_LAYER_CHANGE
G92 E0.0
;0.96


RSCS_LAYER_CHECK LAYER=2
G1 X188.843 Y116.476 Z.64 F24000 ; layer change
G1 X189.321 Y117.061 Z.96 F5730.531 ; layer change
;AFTER_LAYER_CHANGE
;0.96
;TIMELAPSE_TAKE_FRAME
G1 X189.321 Y117.061 F24000 ; move to first layer point
G1 Z.96 F1800 ; move to first layer point

M204 S3500 ; adjust acceleration
;TYPE:Perimeter
;WIDTH:0.68
G1 X171.224 Y117.061 E1.47185 ; perimeter
G1 X171.224 Y98.963 E1.47193 ; perimeter
G1 X189.321 Y98.963 E1.47185 ; perimeter
G1 X189.321 Y108.012 E.73597 ; perimeter
G1 X189.321 Y116.971 E.72865 ; perimeter
M204 S5000 ; adjust acceleration
M204 S8000 ; adjust acceleration
G1 X189.321 Y116.971 F24000 ; move to first perimeter point
G1 X189.932 Y117.672 ; move to first perimeter point
M204 S2000 ; adjust acceleration
;TYPE:External perimeter
G1 F1800
G1 X170.612 Y117.672 E1.57132 ; perimeter
G1 X170.612 Y98.352 E1.57132 ; perimeter
G1 X189.932 Y98.352 E1.57132 ; perimeter
G1 X189.932 Y108.012 E.78566 ; perimeter
G1 X189.932 Y117.582 E.77834 ; perimeter
M204 S5000 ; adjust acceleration
M204 S8000 ; adjust acceleration
G1 X189.932 Y117.582 F24000 ; move to first infill point
G1 X188.801 Y116.541 ; move to first infill point
M204 S5000 ; adjust acceleration
;TYPE:Internal infill
;WIDTH:0.68
G1 F1800
G1 X171.743 Y99.483 E1.96201 ; infill
M204 S8000 ; adjust acceleration
G1 X171.743 Y99.483 F24000 ; move to first infill point
G1 X171.743 Y116.541 ; move to first infill point
M204 S5000 ; adjust acceleration
G1 F1800
G1 X188.801 Y99.483 E1.96201 ; infill
;LAYER_CHANGE
;Z:1.28
;HEIGHT:0.32
