; HEADER_BLOCK_START
; generated by OrcaSlicer 2.2.0 on 2024-12-06 at 09:26:05
; total layer number: 15
; filament_density: 1.27,1.24,1.24,1.24,1.24
; filament_diameter: 1.75,1.75,1.75,1.75,1.75
; max_z_height: 3.00
; HEADER_BLOCK_END

; THUMBNAIL_BLOCK_START

;
; THUMBNAIL_BLOCK_END

; THUMBNAIL_BLOCK_START

;
; THUMBNAIL_BLOCK_END

; external perimeters extrusion width = 0.42mm
; perimeters extrusion width = 0.45mm
; infill extrusion width = 0.45mm
; solid infill extrusion width = 0.42mm
; top infill extrusion width = 0.42mm
; support material extrusion width = 0.42mm
; first layer extrusion width = 0.50mm

; external perimeters extrusion width = 0.42mm
; perimeters extrusion width = 0.45mm
; infill extrusion width = 0.45mm
; solid infill extrusion width = 0.42mm
; top infill extrusion width = 0.42mm
; support material extrusion width = 0.42mm
; first layer extrusion width = 0.50mm

; EXECUTABLE_BLOCK_START
EXCLUDE_OBJECT_DEFINE NAME=belt.stl_id_0_copy_0 CENTER=196.989,193.204 POLYGON=[[183.489,193.204],[183.492,192.921],[183.501,192.638],[183.516,192.356],[183.537,192.074],[183.563,191.792],[183.596,191.512],[183.634,191.231],[183.678,190.952],[183.729,190.674],[183.784,190.397],[183.846,190.121],[183.914,189.846],[183.987,189.573],[184.066,189.302],[184.15,189.032],[184.24,188.764],[184.336,188.498],[184.437,188.234],[184.544,187.972],[184.657,187.713],[184.774,187.456],[184.897,187.201],[185.026,186.949],[185.159,186.7],[185.298,186.454],[185.442,186.21],[185.591,185.97],[185.745,185.733],[185.904,185.499],[186.068,185.268],[186.236,185.041],[186.41,184.818],[186.588,184.598],[186.77,184.382],[186.957,184.17],[187.148,183.962],[187.344,183.758],[187.544,183.558],[187.748,183.362],[187.956,183.171],[188.168,182.984],[188.384,182.802],[188.604,182.624],[188.827,182.45],[189.054,182.282],[189.285,182.118],[189.519,181.959],[189.756,181.805],[189.996,181.656],[190.239,181.512],[190.486,181.373],[190.735,181.24],[190.987,181.111],[191.241,180.988],[191.498,180.871],[191.758,180.758],[192.02,180.652],[192.284,180.55],[192.55,180.454],[192.818,180.364],[193.088,180.28],[193.359,180.201],[193.632,180.128],[193.907,180.06],[194.183,179.999],[194.46,179.943],[194.738,179.893],[195.017,179.848],[195.297,179.81],[195.578,179.777],[195.86,179.751],[196.142,179.73],[196.424,179.715],[196.707,179.707],[196.989,179.704],[197.272,179.707],[197.555,179.715],[197.837,179.73],[198.119,179.751],[198.401,179.777],[198.681,179.81],[198.962,179.848],[199.241,179.893],[199.519,179.943],[199.796,179.999],[200.072,180.06],[200.347,180.128],[200.62,180.201],[200.891,180.28],[201.161,180.364],[201.429,180.454],[201.695,180.55],[201.959,180.652],[202.221,180.758],[202.48,180.871],[202.737,180.988],[202.992,181.111],[203.244,181.24],[203.493,181.373],[203.739,181.512],[203.983,181.656],[204.223,181.805],[204.46,181.959],[204.694,182.118],[204.925,182.282],[205.152,182.45],[205.375,182.624],[205.595,182.802],[205.811,182.984],[206.023,183.171],[206.231,183.362],[206.435,183.558],[206.635,183.758],[206.831,183.962],[207.022,184.17],[207.209,184.382],[207.391,184.598],[207.569,184.818],[207.743,185.041],[207.911,185.268],[208.075,185.499],[208.234,185.733],[208.388,185.97],[208.537,186.21],[208.681,186.454],[208.82,186.7],[208.953,186.949],[209.082,187.201],[209.205,187.456],[209.322,187.713],[209.435,187.972],[209.541,188.234],[209.643,188.498],[209.739,188.764],[209.829,189.032],[209.913,189.302],[209.992,189.573],[210.065,189.846],[210.133,190.121],[210.194,190.397],[210.25,190.674],[210.3,190.952],[210.345,191.231],[210.383,191.512],[210.415,191.792],[210.442,192.074],[210.463,192.356],[210.478,192.638],[210.486,192.921],[210.489,193.204],[210.486,193.486],[210.478,193.769],[210.463,194.051],[210.442,194.333],[210.415,194.615],[210.383,194.896],[210.345,195.176],[210.3,195.455],[210.25,195.733],[210.194,196.01],[210.133,196.286],[210.065,196.561],[209.992,196.834],[209.913,197.105],[209.829,197.375],[209.739,197.643],[209.643,197.909],[209.541,198.173],[209.435,198.435],[209.322,198.694],[209.205,198.952],[209.082,199.206],[208.953,199.458],[208.82,199.707],[208.681,199.954],[208.537,200.197],[208.388,200.437],[208.234,200.674],[208.075,200.908],[207.911,201.139],[207.743,201.366],[207.569,201.589],[207.391,201.809],[207.209,202.025],[207.022,202.237],[206.831,202.445],[206.635,202.649],[206.435,202.849],[206.231,203.045],[206.023,203.236],[205.811,203.423],[205.595,203.605],[205.375,203.783],[205.152,203.957],[204.925,204.125],[204.694,204.289],[204.46,204.448],[204.223,204.602],[203.983,204.751],[203.739,204.895],[203.493,205.034],[203.244,205.167],[202.992,205.296],[202.737,205.419],[202.48,205.536],[202.221,205.649],[201.959,205.756],[201.695,205.857],[201.429,205.953],[201.161,206.043],[200.891,206.127],[200.62,206.206],[200.347,206.279],[200.072,206.347],[199.796,206.409],[199.519,206.464],[199.241,206.514],[198.962,206.559],[198.681,206.597],[198.401,206.63],[198.119,206.656],[197.837,206.677],[197.555,206.692],[197.272,206.701],[196.989,206.704],[196.707,206.701],[196.424,206.692],[196.142,206.677],[195.86,206.656],[195.578,206.63],[195.297,206.597],[195.017,206.559],[194.738,206.514],[194.46,206.464],[194.183,206.409],[193.907,206.347],[193.632,206.279],[193.359,206.206],[193.088,206.127],[192.818,206.043],[192.55,205.953],[192.284,205.857],[192.02,205.756],[191.758,205.649],[191.498,205.536],[191.241,205.419],[190.987,205.296],[190.735,205.167],[190.486,205.034],[190.239,204.895],[189.996,204.751],[189.756,204.602],[189.519,204.448],[189.285,204.289],[189.054,204.125],[188.827,203.957],[188.604,203.783],[188.384,203.605],[188.168,203.423],[187.956,203.236],[187.748,203.045],[187.544,202.849],[187.344,202.649],[187.148,202.445],[186.957,202.237],[186.77,202.025],[186.588,201.809],[186.41,201.589],[186.236,201.366],[186.068,201.139],[185.904,200.908],[185.745,200.674],[185.591,200.437],[185.442,200.197],[185.298,199.954],[185.159,199.707],[185.026,199.458],[184.897,199.206],[184.774,198.952],[184.657,198.694],[184.544,198.435],[184.437,198.173],[184.336,197.909],[184.24,197.643],[184.15,197.375],[184.066,197.105],[183.987,196.834],[183.914,196.561],[183.846,196.286],[183.784,196.01],[183.729,195.733],[183.678,195.455],[183.634,195.176],[183.596,194.896],[183.563,194.615],[183.537,194.333],[183.516,194.051],[183.501,193.769],[183.492,193.486],[183.489,193.204]]
EXCLUDE_OBJECT_DEFINE NAME=belt.stl_id_1_copy_0 CENTER=183.011,156.796 POLYGON=[[169.511,156.796],[169.514,156.514],[169.522,156.231],[169.537,155.949],[169.558,155.667],[169.585,155.385],[169.617,155.104],[169.655,154.824],[169.7,154.545],[169.75,154.267],[169.806,153.99],[169.867,153.714],[169.935,153.439],[170.008,153.166],[170.087,152.895],[170.171,152.625],[170.261,152.357],[170.357,152.091],[170.459,151.827],[170.565,151.565],[170.678,151.306],[170.795,151.048],[170.918,150.794],[171.047,150.542],[171.18,150.293],[171.319,150.046],[171.463,149.803],[171.612,149.563],[171.766,149.326],[171.925,149.092],[172.089,148.861],[172.257,148.634],[172.431,148.411],[172.609,148.191],[172.791,147.975],[172.978,147.763],[173.169,147.555],[173.365,147.351],[173.565,147.151],[173.769,146.955],[173.977,146.764],[174.189,146.577],[174.405,146.395],[174.625,146.217],[174.848,146.043],[175.075,145.875],[175.306,145.711],[175.54,145.552],[175.777,145.398],[176.017,145.249],[176.261,145.105],[176.507,144.966],[176.756,144.833],[177.008,144.704],[177.263,144.581],[177.52,144.464],[177.779,144.351],[178.041,144.244],[178.305,144.143],[178.571,144.047],[178.839,143.957],[179.109,143.873],[179.38,143.794],[179.653,143.721],[179.928,143.653],[180.204,143.591],[180.481,143.536],[180.759,143.486],[181.038,143.441],[181.319,143.403],[181.599,143.37],[181.881,143.344],[182.163,143.323],[182.445,143.308],[182.728,143.299],[183.011,143.296],[183.293,143.299],[183.576,143.308],[183.858,143.323],[184.14,143.344],[184.422,143.37],[184.703,143.403],[184.983,143.441],[185.262,143.486],[185.54,143.536],[185.817,143.591],[186.093,143.653],[186.368,143.721],[186.641,143.794],[186.912,143.873],[187.182,143.957],[187.45,144.047],[187.716,144.143],[187.98,144.244],[188.242,144.351],[188.502,144.464],[188.759,144.581],[189.013,144.704],[189.265,144.833],[189.514,144.966],[189.761,145.105],[190.004,145.249],[190.244,145.398],[190.481,145.552],[190.715,145.711],[190.946,145.875],[191.173,146.043],[191.396,146.217],[191.616,146.395],[191.832,146.577],[192.044,146.764],[192.252,146.955],[192.456,147.151],[192.656,147.351],[192.852,147.555],[193.043,147.763],[193.23,147.975],[193.412,148.191],[193.59,148.411],[193.764,148.634],[193.932,148.861],[194.096,149.092],[194.255,149.326],[194.409,149.563],[194.558,149.803],[194.702,150.046],[194.841,150.293],[194.974,150.542],[195.103,150.794],[195.226,151.048],[195.343,151.306],[195.456,151.565],[195.563,151.827],[195.664,152.091],[195.76,152.357],[195.85,152.625],[195.934,152.895],[196.013,153.166],[196.086,153.439],[196.154,153.714],[196.216,153.99],[196.271,154.267],[196.322,154.545],[196.366,154.824],[196.404,155.104],[196.437,155.385],[196.463,155.667],[196.484,155.949],[196.499,156.231],[196.508,156.514],[196.511,156.796],[196.508,157.079],[196.499,157.362],[196.484,157.644],[196.463,157.926],[196.437,158.208],[196.404,158.488],[196.366,158.769],[196.322,159.048],[196.271,159.326],[196.216,159.603],[196.154,159.879],[196.086,160.154],[196.013,160.427],[195.934,160.698],[195.85,160.968],[195.76,161.236],[195.664,161.502],[195.563,161.766],[195.456,162.028],[195.343,162.287],[195.226,162.544],[195.103,162.799],[194.974,163.051],[194.841,163.3],[194.702,163.546],[194.558,163.79],[194.409,164.03],[194.255,164.267],[194.096,164.501],[193.932,164.732],[193.764,164.959],[193.59,165.182],[193.412,165.402],[193.23,165.618],[193.043,165.83],[192.852,166.038],[192.656,166.242],[192.456,166.442],[192.252,166.638],[192.044,166.829],[191.832,167.016],[191.616,167.198],[191.396,167.376],[191.173,167.55],[190.946,167.718],[190.715,167.882],[190.481,168.041],[190.244,168.195],[190.004,168.344],[189.761,168.488],[189.514,168.627],[189.265,168.76],[189.013,168.889],[188.759,169.012],[188.502,169.129],[188.242,169.242],[187.98,169.348],[187.716,169.45],[187.45,169.546],[187.182,169.636],[186.912,169.72],[186.641,169.799],[186.368,169.872],[186.093,169.94],[185.817,170.001],[185.54,170.057],[185.262,170.107],[184.983,170.152],[184.703,170.19],[184.422,170.223],[184.14,170.249],[183.858,170.27],[183.576,170.285],[183.293,170.293],[183.011,170.296],[182.728,170.293],[182.445,170.285],[182.163,170.27],[181.881,170.249],[181.599,170.223],[181.319,170.19],[181.038,170.152],[180.759,170.107],[180.481,170.057],[180.204,170.001],[179.928,169.94],[179.653,169.872],[179.38,169.799],[179.109,169.72],[178.839,169.636],[178.571,169.546],[178.305,169.45],[178.041,169.348],[177.779,169.242],[177.52,169.129],[177.263,169.012],[177.008,168.889],[176.756,168.76],[176.507,168.627],[176.261,168.488],[176.017,168.344],[175.777,168.195],[175.54,168.041],[175.306,167.882],[175.075,167.718],[174.848,167.55],[174.625,167.376],[174.405,167.198],[174.189,167.016],[173.977,166.829],[173.769,166.638],[173.565,166.442],[173.365,166.242],[173.169,166.038],[172.978,165.83],[172.791,165.618],[172.609,165.402],[172.431,165.182],[172.257,164.959],[172.089,164.732],[171.925,164.501],[171.766,164.267],[171.612,164.03],[171.463,163.79],[171.319,163.546],[171.18,163.3],[171.047,163.051],[170.918,162.799],[170.795,162.544],[170.678,162.287],[170.565,162.028],[170.459,161.766],[170.357,161.502],[170.261,161.236],[170.171,160.968],[170.087,160.698],[170.008,160.427],[169.935,160.154],[169.867,159.879],[169.806,159.603],[169.75,159.326],[169.7,159.048],[169.655,158.769],[169.617,158.488],[169.585,158.208],[169.558,157.926],[169.537,157.644],[169.522,157.362],[169.514,157.079],[169.511,156.796]]
M73 P0 R2
;TYPE:Custom
;START
M140 S35         ; set bed final temp
M190 S35         ; wait for bed final temp






G90
G21
M83 ; use relative distances for extrusion
; TESTING
T1



OFFSET_T1
M117 SET FILAMENT SENSOR OFF 
SET_FILAMENT_SENSOR SENSOR=encoder_t1 ENABLE=0
;_FORCE_RESUME_FAN_SPEED
; filament start gcode
M109 S240 T1 ; set nozzle temperature and wait for it to be reached
M106 S0
;LAYER_CHANGE
;Z:0.2
;HEIGHT:0.2
;BEFORE_LAYER_CHANGE
;0.2
G92 E0

OFFSET_T1
M117 SET FILAMENT SENSOR OFF 
SET_FILAMENT_SENSOR SENSOR=encoder_t1 ENABLE=0


G1 E-.4 F1800
;AFTER_LAYER_CHANGE
;0.2
;AFTER_LAYER_CHANGE
;0.2

OFFSET_T1
M117 SET FILAMENT SENSOR OFF 
SET_FILAMENT_SENSOR SENSOR=encoder_t1 ENABLE=0

;_SET_FAN_SPEED_CHANGING_LAYER
SET_VELOCITY_LIMIT ACCEL=500 ACCEL_TO_DECEL=250
; printing object belt.stl id:0 copy 0
EXCLUDE_OBJECT_START NAME=belt.stl_id_0_copy_0
G1 Z.6 F45000
G1 X184.772 Y198.331
M73 P1 R2
G1 Z.6
M73 P1 R2
G1 Z.2
G1 E.4 F1800
;Change extrusion role G-code

OFFSET_T1
M117 SET FILAMENT SENSOR OFF 
SET_FILAMENT_SENSOR SENSOR=encoder_t1 ENABLE=0


;TYPE:Outer wall
;WIDTH:0.5
G1 F600
G1 X184.821 Y198.445 E.00471
G1 X184.788 Y198.368 E.00319
G1 E-.29917 F1800
;WIPE_START
G1 F3000
G1 X184.821 Y198.445 E-.05042
G1 X184.788 Y198.368 E-.05042
;WIPE_END
G1 Z.6 F45000
G1 X184.293 Y196.993 Z.6
G1 Z.2
G1 E.4 F1800
G1 F600
G1 X184.225 Y196.759 E.00927
G1 X184.282 Y196.955 E.00774
G1 E-.28 F1800
;WIPE_START
G1 F3000
G1 X184.225 Y196.759 E-.06
G1 X184.282 Y196.955 E-.06
;WIPE_END
G1 Z.6 F45000
G1 X183.918 Y195.371 Z.6
G1 Z.2
G1 E.4 F1800
G1 F600
G1 X183.881 Y195.131 E.00923
G1 X183.912 Y195.332 E.00771
G1 E-.28 F1800
;WIPE_START
G1 F3000
G1 X183.881 Y195.131 E-.06
G1 X183.912 Y195.332 E-.06
;WIPE_END
G1 Z.6 F45000
G1 X183.787 Y192.087 Z.6
G1 Z.2
G1 E.4 F1800
G1 F600
G1 X183.769 Y192.327 E.00913
G1 X183.784 Y192.127 E.00761
G1 E-.28 F1800
;WIPE_START
G1 F3000
G1 X183.769 Y192.327 E-.06
G1 X183.784 Y192.127 E-.06
;WIPE_END
G1 Z.6 F45000
M73 P2 R2
G1 X184.307 Y189.366 Z.6
M73 P2 R2
G1 Z.2
G1 E.4 F1800
G1 F600
G1 X184.239 Y189.6 E.00925
G1 X184.296 Y189.405 E.00773
G1 E-.28 F1800
;WIPE_START
G1 F3000
G1 X184.239 Y189.6 E-.06
G1 X184.296 Y189.405 E-.06
;WIPE_END
G1 Z.6 F45000
G1 X185.399 Y186.783 Z.6
G1 Z.2
G1 E.4 F1800
G1 F600
G1 X185.519 Y186.572 E.00921
G1 X185.419 Y186.748 E.00769
G1 E-.28 F1800
;WIPE_START
G1 F3000
G1 X185.519 Y186.572 E-.06
G1 X185.419 Y186.748 E-.06
;WIPE_END
G1 Z.6 F45000
G1 X186.463 Y185.157 Z.6
G1 Z.2
G1 E.4 F1800
G1 F600
G1 X186.61 Y184.967 E.00914
G1 X186.487 Y185.126 E.00762
G1 E-.28 F1800
;WIPE_START
G1 F3000
G1 X186.61 Y184.967 E-.06
G1 X186.487 Y185.126 E-.06
;WIPE_END
G1 Z.6 F45000
G1 X188.753 Y182.825 Z.6
G1 Z.2
G1 E.4 F1800
M73 P3 R2
G1 F600
M73 P3 R2
G1 X188.942 Y182.677 E.00911
G1 X188.785 Y182.8 E.00759
G1 E-.28 F1800
;WIPE_START
G1 F3000
G1 X188.942 Y182.677 E-.06
G1 X188.785 Y182.8 E-.06
;WIPE_END
G1 Z.6 F45000
G1 X190.119 Y181.874 Z.6
G1 Z.2
G1 E.4 F1800
G1 F600
G1 X190.328 Y181.75 E.00924
G1 X190.153 Y181.854 E.00772
G1 E-.28 F1800
;WIPE_START
G1 F3000
G1 X190.328 Y181.75 E-.06
G1 X190.153 Y181.854 E-.06
;WIPE_END
G1 Z.6 F45000
G1 X193.385 Y180.454 Z.6
G1 Z.2
G1 E.4 F1800
G1 F600
G1 X193.161 Y180.519 E.00886
G1 X193.347 Y180.465 E.00734
G1 E-.28 F1800
;WIPE_START
G1 F3000
G1 X193.161 Y180.519 E-.06
G1 X193.347 Y180.465 E-.06
;WIPE_END
G1 Z.6 F45000
G1 X195.562 Y180.031 Z.6
G1 Z.2
G1 E.4 F1800
G1 F600
G1 X195.321 Y180.059 E.00922
G1 X195.522 Y180.036 E.0077
G1 E-.28 F1800
;WIPE_START
G1 F3000
G1 X195.321 Y180.059 E-.06
G1 X195.522 Y180.036 E-.06
;WIPE_END
G1 Z.6 F45000
G1 X197.223 Y179.956 Z.6
G1 Z.2
G1 E.4 F1800
M73 P4 R2
G1 F600
M73 P4 R2
G1 X196.991 Y179.954 E.00882
G1 X197.183 Y179.956 E.0073
G1 E-.28 F1800
;WIPE_START
G1 F3000
G1 X196.991 Y179.954 E-.06
G1 X197.183 Y179.956 E-.06
;WIPE_END
G1 Z.6 F45000
G1 X198.925 Y180.096 Z.6
G1 Z.2
G1 E.4 F1800
G1 F600
G1 X199.04 Y180.114 E.00441
G1 X198.964 Y180.102 E.00289
G1 E-.30869 F1800
;WIPE_START
G1 F3000
G1 X199.04 Y180.114 E-.04566
G1 X198.964 Y180.102 E-.04566
;WIPE_END
G1 Z.6 F45000
G1 X201.043 Y180.589 Z.6
G1 Z.2
G1 E.4 F1800
G1 F600
G1 X200.828 Y180.522 E.00856
G1 X201.005 Y180.577 E.00704
G1 E-.28 F1800
;WIPE_START
G1 F3000
