; generated by SuperSlicer 2.5.59.8 on 2025-01-07 at 20:21:56 UTC


;
;

;
;
; TODO: check the size of the extruder and the y-bar clearance. Optimize & test supports.

; external perimeters extrusion width = 0.84mm
; perimeters extrusion width = 0.84mm
; infill extrusion width = 0.84mm
; solid infill extrusion width = 0.84mm
; top infill extrusion width = 0.84mm
; first layer extrusion width = 0.84mm

; external perimeters extrusion width = 0.84mm
; perimeters extrusion width = 0.84mm
; infill extrusion width = 0.84mm
; solid infill extrusion width = 0.84mm
; top infill extrusion width = 0.84mm
; first layer extrusion width = 0.84mm

; object:{"name":"deck_bar","id":"deck_bar.stl id:0 copy 0","object_center":[219.567910,276.437162,0.000000],"boundingbox_center":[219.567910,276.437162,2.000000],"boundingbox_size":[356.491951,354.855190,4.000000]}
; object:{"name":"deck_bar","id":"deck_bar.stl id:0 copy 1","object_center":[272.009899,257.173270,0.000000],"boundingbox_center":[272.009899,257.173270,2.000000],"boundingbox_size":[356.491951,354.855190,4.000000]}
; object:{"name":"deck_cross_bar","id":"deck_cross_bar.stl id:1 copy 0","object_center":[318.081168,184.860087,0.000000],"boundingbox_center":[318.081168,184.860087,2.000000],"boundingbox_size":[266.242804,271.133553,4.000000]}
; object:{"name":"deck_cross_bar","id":"deck_cross_bar.stl id:1 copy 1","object_center":[322.432962,229.733942,0.000000],"boundingbox_center":[322.432962,229.733942,2.000000],"boundingbox_size":[266.242804,271.133553,4.000000]}
; Total objects to print: 4
M486 T4
; plater:{"center":[248.438150,251.579034,0.000000],"boundingbox_center":[248.438150,251.579034,2.000000],"boundingbox_size":[414.232429,404.571446,4.000000]}

M107
M140 S55 ; set bed temperature
G10 P0 R205 ; sets the standby temperature
;TYPE:Custom
; M190 S0
; M109 S0 ; uncomment to remove set&wait temp gcode added automatically after this start gcode
print_start EXTRUDER=215 BED=55 CHAMBER=15
M109 S215
M107
G21 ; set units to millimeters
G90 ; use absolute coordinates
M83 ; use relative distances for extrusion
T0
M190 S55 ; set bed temperature and wait for it to be reached
;LAYER_CHANGE
;Z:0.3
;HEIGHT:0.3
;BEFORE_LAYER_CHANGE
;0.3


G1 Z0.3 F18000
;AFTER_LAYER_CHANGE
;0.3
G92 E0
G1 E-0.75 F3000
G1 Z0.7 F18000
M204 P1000 T1000
G1 X55.885 Y94.659
G1 Z0.3
G1 E0.75 F1800
;TYPE:Skirt
;WIDTH:0.78
M107
G1 X54.15 Y95.773 E0.18406
G1 X38.068 Y111.936 E2.03504
G1 X37.131 Y113.272 E0.14569
G1 X36.677 Y115.166 E0.17379
G1 X37.013 Y117.083 E0.17379
G1 X38.086 Y118.709 E0.17379
G1 X378.214 Y457.118 E42.82503
G1 X379.436 Y458 E0.13453
G1 X381.317 Y458.504 E0.17379
G1 X383.243 Y458.219 E0.17379
G1 X435.685 Y438.955 E4.98658
G1 X437.428 Y437.837 E0.18485
G1 X453.509 Y421.674 E2.03504
G1 X454.323 Y420.582 E0.12156
G1 X454.885 Y418.718 E0.17379
G1 X460.183 Y358.718 E5.37621
G1 X460.18 Y357.834 E0.07886
G1 X455.828 Y312.96 E4.02405
G1 X455.532 Y311.707 E0.11493
G1 X454.48 Y310.069 E0.17379
G1 X195.516 Y46.081 E33.00687
G1 X194.244 Y45.154 E0.14045
G1 X192.363 Y44.653 E0.17379
G1 X190.437 Y44.943 E0.17379
G1 X55.969 Y94.628 E12.79518
M107
G1 X56.217 Y95.299 F18000
M107
G1 F1800
G1 X56.133 Y95.33 E0.00803
G1 X54.657 Y96.278 E0.15656
G1 X38.576 Y112.441 E2.03504
G1 X37.979 Y113.204 E0.08653
G1 X37.41 Y114.906 E0.16013
G1 X37.628 Y116.687 E0.16013
G1 X38.59 Y118.201 E0.16013
G1 X378.718 Y456.611 E42.82503
G1 X379.511 Y457.225 E0.08948
G1 X381.217 Y457.78 E0.16013
G1 X382.996 Y457.547 E0.16013
G1 X435.438 Y438.283 E4.98658
G1 X436.921 Y437.332 E0.15723
G1 X453.002 Y421.17 E2.03504
G1 X453.625 Y420.363 E0.09091
G1 X454.172 Y418.655 E0.16013
G1 X459.471 Y358.655 E5.37621
G1 X455.116 Y313.029 E4.09085
G1 X454.913 Y312.096 E0.08526
G1 X453.969 Y310.57 E0.16013
G1 X195.005 Y46.582 E33.00687
G1 X194.171 Y45.929 E0.09455
G1 X192.464 Y45.378 E0.16013
G1 X190.685 Y45.614 E0.16013
G1 X56.302 Y95.268 E12.78715
M107
G1 X56.55 Y95.939 F18000
M107
G1 F1800
G1 X56.381 Y96.001 E0.01607
G1 X55.164 Y96.783 E0.12905
G1 X39.083 Y112.945 E2.03504
G1 X38.166 Y114.677 E0.17489
G1 X38.254 Y116.302 E0.1452
G1 X39.095 Y117.694 E0.1452
G1 X379.223 Y456.104 E42.82503
G1 X381.132 Y457.05 E0.19014
G1 X382.749 Y456.875 E0.1452
G1 X435.191 Y437.611 E4.98658
G1 X436.414 Y436.828 E0.12961
G1 X452.495 Y420.665 E2.03504
G1 X453.459 Y418.592 E0.20407
G1 X458.758 Y358.592 E5.37621
G1 X454.403 Y313.099 E4.07911
G1 X453.458 Y311.071 E0.19965
G1 X194.494 Y47.083 E33.00687
G1 X192.55 Y46.108 E0.19412
G1 X190.933 Y46.285 E0.1452
G1 X56.634 Y95.908 E12.77912
M107
G1 E-0.75 F3000
M204 P1500 T1000
G1 Z0.7 F18000
; printing object deck_bar.stl id:0 copy 0
M486 S0
; acceleration to travel
M204 P1500 T1500
G1 X50.997 Y106.751
; decel to extrusion
M204 P1500 T1000
G1 X47.24 Y113.98
; end travel
M204 P1000 T1500
G1 Z0.3
G1 E0.75 F1800
;TYPE:External perimeter
;WIDTH:0.84
M107
G1 X47.427 Y114.318 E0.03741
G1 X47.697 Y114.636 E0.04033
G1 X47.999 Y114.873 E0.03712
G1 X48.337 Y115.048 E0.03683
G1 X48.704 Y115.158 E0.03711
G1 X49.12 Y115.196 E0.04033
G1 X49.501 Y115.154 E0.03712
G1 X49.865 Y115.043 E0.03683
G1 X50.205 Y114.864 E0.03712
G1 X50.528 Y114.601 E0.04034
G1 X50.773 Y114.302 E0.03741
G1 X50.97 Y113.931 E0.04062
G1 X51.086 Y113.528 E0.04063
G1 X51.117 Y113.145 E0.03712
G1 X51.076 Y112.764 E0.03712
G1 X50.95 Y112.366 E0.04033
G1 X50.762 Y112.028 E0.03741
G1 X50.49 Y111.708 E0.04062
G1 X50.157 Y111.452 E0.04062
G1 X49.813 Y111.283 E0.03712
G1 X49.446 Y111.181 E0.03682
G1 X49.067 Y111.151 E0.03683
G1 X48.688 Y111.192 E0.03682
G1 X48.321 Y111.304 E0.03712
G1 X47.955 Y111.502 E0.04033
G1 X47.66 Y111.748 E0.03711
G1 X47.416 Y112.044 E0.03712
G1 X47.219 Y112.415 E0.04062
G1 X47.103 Y112.819 E0.04062
G1 X47.072 Y113.201 E0.03712
G1 X47.114 Y113.582 E0.03712
G1 X47.213 Y113.894 E0.03163
M107
;WIPE_START
M204 P1500 T1500
G1 X46.897 Y114.473 F18000
;WIPE_END
G1 E-0.75 F3000
G1 Z0.7 F18000
; acceleration to travel
G1 X59.846 Y127.629
; decel to extrusion
M204 P1500 T1000
G1 X68.479 Y136.4
; end travel
M204 P1000 T1500
G1 Z0.3
G1 E0.75 F1800
;TYPE:Internal perimeter
M107
G1 X68.843 Y136.687 E0.04489
G1 X69.312 Y136.93 E0.05102
G1 X69.824 Y137.083 E0.0517
G1 X70.393 Y137.135 E0.05531
G1 X70.932 Y137.076 E0.05239
G1 X71.477 Y136.903 E0.05531
G1 X71.944 Y136.644 E0.0517
G1 X72.355 Y136.302 E0.0517
G1 X72.713 Y135.857 E0.05532
G1 X72.962 Y135.376 E0.05238
G1 X73.12 Y134.827 E0.05531
G1 X73.163 Y134.294 E0.05171
G1 X73.106 Y133.77 E0.05101
G1 X72.952 Y133.265 E0.05101
G1 X72.703 Y132.793 E0.05169
G1 X72.337 Y132.344 E0.056
G1 X71.886 Y131.981 E0.05601
G1 X71.405 Y131.732 E0.05239
G1 X70.856 Y131.574 E0.05531
G1 X70.323 Y131.531 E0.0517
G1 X69.799 Y131.588 E0.05101
G1 X69.294 Y131.742 E0.05101
G1 X68.822 Y131.991 E0.0517
G1 X68.379 Y132.353 E0.05531
G1 X68.035 Y132.771 E0.05239
G1 X67.763 Y133.282 E0.056
G1 X67.603 Y133.839 E0.056
G1 X67.56 Y134.378 E0.05239
G1 X67.627 Y134.946 E0.0553
G1 X67.796 Y135.461 E0.05239
G1 X68.079 Y135.958 E0.0553
G1 X68.412 Y136.341 E0.04912
M107
M204 P1000 T1000
G1 X68.966 Y135.797 F18000
;TYPE:External perimeter
M107
G1 F1800
G1 X69.266 Y136.032 E0.03683
G1 X69.604 Y136.208 E0.03683
G1 X69.971 Y136.317 E0.03711
G1 X70.386 Y136.355 E0.04033
G1 X70.771 Y136.314 E0.03741
G1 X71.168 Y136.188 E0.04033
G1 X71.504 Y136.002 E0.03712
G1 X71.799 Y135.756 E0.03712
G1 X72.06 Y135.431 E0.04034
G1 X72.238 Y135.088 E0.03741
G1 X72.353 Y134.687 E0.04033
G1 X72.384 Y134.305 E0.03712
G1 X72.343 Y133.926 E0.03682
G1 X72.232 Y133.562 E0.03682
G1 X72.053 Y133.223 E0.03711
G1 X71.787 Y132.897 E0.04062
G1 X71.46 Y132.634 E0.04063
G1 X71.117 Y132.456 E0.03741
G1 X70.716 Y132.341 E0.04033
G1 X70.334 Y132.31 E0.03712
G1 X69.955 Y132.351 E0.03682
G1 X69.591 Y132.462 E0.03683
G1 X69.252 Y132.641 E0.03712
G1 X68.929 Y132.905 E0.04033
G1 X68.683 Y133.204 E0.03741
G1 X68.486 Y133.574 E0.04062
G1 X68.37 Y133.978 E0.04063
G1 X68.339 Y134.363 E0.03741
G1 X68.388 Y134.777 E0.04033
G1 X68.509 Y135.145 E0.03741
G1 X68.715 Y135.507 E0.04033
G1 X68.907 Y135.729 E0.0284
M107
;WIPE_START
M204 P1500 T1000
G1 X68.844 Y136.384 F18000
;WIPE_END
G1 E-0.75 F3000
G1 Z0.7 F18000
; acceleration to travel
M204 P1500 T1500
G1 X80.038 Y144.774
; decel to extrusion
M204 P1500 T1000
G1 X87.501 Y150.366
; end travel
M204 P1000 T1500
G1 Z0.3
G1 E0.75 F1800
;TYPE:Internal perimeter
M107
G1 X87.079 Y150.148 E0.04596
G1 X86.529 Y149.99 E0.05531
G1 X85.99 Y149.946 E0.05239
G1 X85.422 Y150.014 E0.0553
G1 X84.914 Y150.181 E0.0517
G1 X84.453 Y150.436 E0.05101
G1 X84.042 Y150.778 E0.05171
G1 X83.684 Y151.224 E0.05532
G1 X83.435 Y151.705 E0.05238
G1 X83.277 Y152.254 E0.05531
G1 X83.234 Y152.787 E0.05171
G1 X83.292 Y153.318 E0.0517
G1 X83.464 Y153.863 E0.0553
G1 X83.723 Y154.331 E0.0517
G1 X84.061 Y154.736 E0.05101
G1 X84.474 Y155.075 E0.0517
G1 X84.985 Y155.347 E0.05601
G1 X85.541 Y155.507 E0.056
G1 X86.074 Y155.55 E0.0517
G1 X86.605 Y155.492 E0.0517
G1 X87.15 Y155.319 E0.05531
G1 X87.624 Y155.057 E0.05239
G1 X88.059 Y154.686 E0.05532
G1 X88.39 Y154.266 E0.0517
G1 X88.633 Y153.798 E0.05101
G1 X88.786 Y153.286 E0.0517
G1 X88.837 Y152.717 E0.0553
G1 X88.78 Y152.186 E0.0517
G1 X88.626 Y151.681 E0.05101
G1 X88.377 Y151.208 E0.0517
G1 X88.011 Y150.76 E0.056
G1 X87.578 Y150.412 E0.05372
M107
M204 P1000 T1000
G1 X87.134 Y151.05 F18000
;TYPE:External perimeter
M107
G1 F1800
G1 X86.791 Y150.872 E0.03741
G1 X86.39 Y150.757 E0.04033
G1 X86.004 Y150.726 E0.03741
G1 X85.59 Y150.775 E0.04032
G1 X85.226 Y150.895 E0.03712
G1 X84.893 Y151.079 E0.03682
G1 X84.598 Y151.325 E0.03712
G1 X84.337 Y151.65 E0.04034
G1 X84.159 Y151.993 E0.03741
G1 X84.044 Y152.394 E0.04033
G1 X84.013 Y152.776 E0.03712
G1 X84.054 Y153.158 E0.03712
G1 X84.18 Y153.555 E0.04033
G1 X84.366 Y153.891 E0.03712
G1 X84.61 Y154.183 E0.03682
G1 X84.906 Y154.427 E0.03712
G1 X85.277 Y154.624 E0.04063
G1 X85.681 Y154.74 E0.04062
G1 X86.063 Y154.771 E0.03712
G1 X86.445 Y154.729 E0.03712
G1 X86.842 Y154.603 E0.04033
G1 X87.18 Y154.416 E0.03741
G1 X87.498 Y154.146 E0.04034
G1 X87.735 Y153.844 E0.03712
G1 X87.91 Y153.506 E0.03682
G1 X88.02 Y153.139 E0.03712
G1 X88.058 Y152.724 E0.04033
G1 X88.017 Y152.342 E0.03712
G1 X87.905 Y151.978 E0.03683
G1 X87.726 Y151.639 E0.03712
G1 X87.461 Y151.313 E0.04062
G1 X87.204 Y151.106 E0.03192
M107
;WIPE_START
M204 P1500 T1000
G1 X87.147 Y150.45 F18000
;WIPE_END
G1 E-0.75 F3000
G1 Z0.7 F18000
; acceleration to travel
M204 P1500 T1500
G1 X91.373 Y146.034
; decel to extrusion
M204 P1500 T1000
G1 X94.191 Y143.089
; end travel
M204 P1000 T1500
G1 Z0.3
G1 E0.75 F1800
;TYPE:Internal perimeter
M107
G1 X94.132 Y143.059 E0.00642
G1 X93.583 Y142.901 E0.05531
G1 X93.05 Y142.858 E0.05171
G1 X92.519 Y142.916 E0.05169
G1 X91.974 Y143.089 E0.05531
G1 X91.506 Y143.347 E0.0517
G1 X91.095 Y143.69 E0.05171
G1 X90.737 Y144.135 E0.05532
G1 X90.488 Y144.616 E0.05238
G1 X90.33 Y145.165 E0.0553
G1 X90.287 Y145.698 E0.05171
G1 X90.344 Y146.222 E0.05101
G1 X90.5 Y146.733 E0.0517
G1 X90.772 Y147.236 E0.05531
G1 X91.119 Y147.653 E0.05239
G1 X91.564 Y148.011 E0.05531
G1 X92.045 Y148.26 E0.05239
G1 X92.594 Y148.418 E0.05531
G1 X93.127 Y148.461 E0.0517
G1 X93.658 Y148.403 E0.0517
G1 X94.203 Y148.23 E0.05531
G1 X94.677 Y147.968 E0.05238
G1 X95.113 Y147.597 E0.05532
G1 X95.443 Y147.177 E0.0517
G1 X95.686 Y146.709 E0.05101
G1 X95.839 Y146.197 E0.0517
G1 X95.891 Y145.621 E0.05599
G1 X95.823 Y145.046 E0.056
G1 X95.656 Y144.538 E0.0517
G1 X95.4 Y144.077 E0.051
G1 X95.058 Y143.666 E0.0517
G1 X94.613 Y143.308 E0.05532
G1 X94.271 Y143.131 E0.03726
M107
M204 P1000 T1000
G1 X93.844 Y143.783 F18000
;TYPE:External perimeter
M107
G1 F1800
G1 X93.443 Y143.668 E0.04033
G1 X93.061 Y143.637 E0.03713
G1 X92.679 Y143.678 E0.03711
G1 X92.282 Y143.804 E0.04033
G1 X91.946 Y143.99 E0.03711
G1 X91.651 Y144.236 E0.03713
G1 X91.39 Y144.561 E0.04034
G1 X91.212 Y144.904 E0.03741
G1 X91.097 Y145.305 E0.04033
G1 X91.066 Y145.687 E0.03712
G1 X91.107 Y146.066 E0.03683
G1 X91.219 Y146.433 E0.03712
G1 X91.418 Y146.8 E0.04033
G1 X91.665 Y147.097 E0.03741
G1 X91.99 Y147.358 E0.04033
G1 X92.333 Y147.536 E0.03741
G1 X92.734 Y147.651 E0.04033
G1 X93.116 Y147.682 E0.03712
G1 X93.498 Y147.64 E0.03712
G1 X93.895 Y147.514 E0.04034
G1 X94.233 Y147.327 E0.0374
G1 X94.551 Y147.057 E0.04034
G1 X94.788 Y146.755 E0.03712
G1 X94.964 Y146.417 E0.03683
G1 X95.073 Y146.05 E0.03712
G1 X95.111 Y145.632 E0.04062
G1 X95.062 Y145.215 E0.04063
G1 X94.942 Y144.85 E0.03712
G1 X94.757 Y144.517 E0.03682
G1 X94.512 Y144.222 E0.03712
G1 X94.187 Y143.961 E0.04034
G1 X93.924 Y143.824 E0.0287
M107
;WIPE_START
M204 P1500 T1000
G1 X93.738 Y143.192 F18000
;WIPE_END
G1 E-0.75 F3000
G1 Z0.7 F18000
; acceleration to travel
M204 P1500 T1500
G1 X130.688 Y184.149
; decel to extrusion
M204 P1500 T1000
G1 X155.321 Y211.453
; end travel
M204 P1000 T1500
G1 Z0.3
G1 E0.75 F1800
;TYPE:Internal perimeter
M107
G1 X155.371 Y211.492 E0.00614
G1 X155.845 Y211.738 E0.0517
G1 X156.395 Y211.896 E0.05531
G1 X156.928 Y211.939 E0.05171
G1 X157.452 Y211.882 E0.05101
G1 X157.963 Y211.726 E0.0517
G1 X158.466 Y211.454 E0.05531
G1 X158.877 Y211.112 E0.05171
G1 X159.216 Y210.699 E0.05169
G1 X159.484 Y210.194 E0.05531
G1 X159.639 Y209.676 E0.05239
G1 X159.691 Y209.106 E0.05531
G1 X159.634 Y208.575 E0.0517
G1 X159.479 Y208.071 E0.05101
G1 X159.23 Y207.598 E0.05171
G1 X158.869 Y207.155 E0.0553
G1 X158.451 Y206.811 E0.05239
G1 X157.939 Y206.539 E0.056
G1 X157.383 Y206.379 E0.056
G1 X156.85 Y206.336 E0.0517
G1 X156.319 Y206.394 E0.0517
G1 X155.774 Y206.567 E0.05531
G1 X155.307 Y206.826 E0.0517
G1 X154.896 Y207.168 E0.0517
G1 X154.538 Y207.613 E0.05532
G1 X154.292 Y208.088 E0.0517
G1 X154.139 Y208.6 E0.05169
G1 X154.086 Y209.176 E0.056
G1 X154.155 Y209.751 E0.05599
G1 X154.324 Y210.266 E0.0524
G1 X154.606 Y210.763 E0.05531
G1 X154.957 Y211.166 E0.0517
G1 X155.25 Y211.397 E0.03617
M107
M204 P1000 T1000
G1 X155.793 Y210.838 F18000
;TYPE:External perimeter
M107
G1 F1800
G1 X156.134 Y211.014 E0.03711
G1 X156.534 Y211.129 E0.04033
G1 X156.917 Y211.16 E0.03712
G1 X157.295 Y211.119 E0.03682
G1 X157.662 Y211.007 E0.03712
G1 X158.029 Y210.809 E0.04033
G1 X158.324 Y210.563 E0.03712
G1 X158.567 Y210.267 E0.03711
G1 X158.763 Y209.899 E0.04034
G1 X158.874 Y209.528 E0.03741
G1 X158.912 Y209.113 E0.04034
G1 X158.87 Y208.731 E0.03711
G1 X158.759 Y208.367 E0.03683
G1 X158.58 Y208.028 E0.03712
G1 X158.317 Y207.705 E0.04032
G1 X158.018 Y207.459 E0.03741
G1 X157.647 Y207.262 E0.04063
G1 X157.244 Y207.146 E0.04062
G1 X156.861 Y207.115 E0.03712
G1 X156.48 Y207.157 E0.03712
G1 X156.082 Y207.283 E0.04033
G1 X155.747 Y207.469 E0.03712
G1 X155.452 Y207.714 E0.03712
G1 X155.191 Y208.039 E0.04034
G1 X155.014 Y208.38 E0.03712
G1 X154.904 Y208.747 E0.03711
G1 X154.866 Y209.166 E0.04063
G1 X154.916 Y209.583 E0.04062
G1 X155.036 Y209.95 E0.03742
G1 X155.242 Y210.313 E0.04033
G1 X155.494 Y210.602 E0.03711
G1 X155.722 Y210.782 E0.02812
M107
;WIPE_START
M204 P1500 T1000
G1 X155.783 Y211.437 F18000
;WIPE_END
G1 E-0.75 F3000
G1 Z0.7 F18000
; acceleration to travel
M204 P1500 T1500
G1 X150.85 Y215.288
; decel to extrusion
M204 P1500 T1000
G1 X147.562 Y217.855
; end travel
M204 P1000 T1500
G1 Z0.3
G1 E0.75 F1800
;TYPE:Internal perimeter
M107
G1 X147.861 Y218.214 E0.04527
G1 X148.274 Y218.554 E0.0517
G1 X148.785 Y218.825 E0.056
G1 X149.342 Y218.985 E0.056
G1 X149.882 Y219.029 E0.05239
G1 X150.449 Y218.961 E0.05531
G1 X150.957 Y218.794 E0.0517
G1 X151.418 Y218.539 E0.05101
G1 X151.824 Y218.201 E0.05102
G1 X152.163 Y217.788 E0.05169
G1 X152.431 Y217.283 E0.05532
G1 X152.586 Y216.764 E0.05239
G1 X152.638 Y216.195 E0.0553
G1 X152.58 Y215.664 E0.0517
G1 X152.426 Y215.159 E0.05101
G1 X152.177 Y214.687 E0.0517
G1 X151.816 Y214.244 E0.05531
G1 X151.397 Y213.9 E0.05239
G1 X150.886 Y213.628 E0.05601
G1 X150.33 Y213.468 E0.05599
G1 X149.797 Y213.425 E0.0517
G1 X149.266 Y213.483 E0.0517
G1 X148.721 Y213.656 E0.05531
G1 X148.254 Y213.915 E0.0517
G1 X147.843 Y214.257 E0.05171
G1 X147.484 Y214.702 E0.05531
G1 X147.238 Y215.177 E0.0517
G1 X147.086 Y215.689 E0.05169
G1 X147.034 Y216.258 E0.05531
G1 X147.091 Y216.789 E0.0517
G1 X147.248 Y217.301 E0.0517
G1 X147.508 Y217.783 E0.05303
M107
