; HEADER_BLOCK_START
; generated by OrcaSlicer 2.2.0 on 2024-12-20 at 10:50:28
; total layer number: 4
; filament_density: 1.24,1.24,1.24,1.24,1.24
; filament_diameter: 1.75,1.75,1.75,1.75,1.75
; max_z_height: 0.80
; HEADER_BLOCK_END

; THUMBNAIL_BLOCK_START

;
; THUMBNAIL_BLOCK_END

; THUMBNAIL_BLOCK_START

;
; THUMBNAIL_BLOCK_END

; external perimeters extrusion width = 0.40mm
; perimeters extrusion width = 0.44mm
; infill extrusion width = 0.44mm
; solid infill extrusion width = 0.48mm
; top infill extrusion width = 0.38mm
; first layer extrusion width = 0.48mm

; external perimeters extrusion width = 0.40mm
; perimeters extrusion width = 0.44mm
; infill extrusion width = 0.44mm
; solid infill extrusion width = 0.48mm
; top infill extrusion width = 0.38mm
; first layer extrusion width = 0.48mm

; EXECUTABLE_BLOCK_START
EXCLUDE_OBJECT_DEFINE NAME=comp.stl_id_0_copy_0 CENTER=189.478,117.987 POLYGON=[[156.378,84.8868],[222.578,84.8868],[222.578,103.287],[174.778,151.087],[156.378,151.087],[156.378,84.8868]]
M73 P0 R5
;TYPE:Custom
;START
M140 S35         ; set bed final temp
M190 S35         ; wait for bed final temp






G90
G21
M83 ; use relative distances for extrusion
; TESTING
T1



OFFSET_T1 X=1 Y=-0.5 Z=1.115
M117 SET FILAMENT SENSOR OFF 
SET_FILAMENT_SENSOR SENSOR=encoder_t1 ENABLE=0
;_FORCE_RESUME_FAN_SPEED
; filament start gcode
M109 S200 T1 ; set nozzle temperature and wait for it to be reached
G1 Z.2 F21000
M106 S0
;LAYER_CHANGE
;Z:0.2
;HEIGHT:0.2
;BEFORE_LAYER_CHANGE
;0.2
G92 E0

OFFSET_T1 X=1 Y=-0.5 Z=1.115
M117 SET FILAMENT SENSOR OFF 
SET_FILAMENT_SENSOR SENSOR=encoder_t1 ENABLE=0

M117 LAYER 0.2
;AFTER_LAYER_CHANGE
;0.2
;AFTER_LAYER_CHANGE
;0.2

OFFSET_T1 X=1 Y=-0.5 Z=1.115
M117 SET FILAMENT SENSOR OFF 
SET_FILAMENT_SENSOR SENSOR=encoder_t1 ENABLE=0

;_SET_FAN_SPEED_CHANGING_LAYER
SET_VELOCITY_LIMIT ACCEL=500 ACCEL_TO_DECEL=250
G1 E-.4 F1800
G1 Z.6 F21000
G1 X160.56 Y168.088
G1 Z.6
G1 Z.2
G1 E.4 F1800
;HEIGHT:0.2
;TYPE:Prime tower
;WIDTH:0.5
G1  X219.560 Y168.088  E2.2424 F3000
G1  Y175.088  E0.2660
G1  X160.560  E2.2424
M73 P1 R5
G1  Y168.088  E0.2660
M73 P1 R5
G1  X219.560 
G1  Y175.088 
G1  X218.560 
;--------------------
; CP EMPTY GRID START
; layer #1
G1  Y174.588  E0.0190
G1  X161.060  E2.1854
M73 P2 R5
G1  Y174.088  E0.0190
M73 P2 R5
G1  X219.060  E2.2044
G1  Y173.588  E0.0190
G1  X161.060  E2.2044
G1  Y173.088  E0.0190
G1  X219.060  E2.2044
M73 P3 R5
G1  Y172.588  E0.0190
M73 P3 R5
G1  X161.060  E2.2044
G1  Y172.088  E0.0190
G1  X219.060  E2.2044
G1  Y171.588  E0.0190
G1  X161.060  E2.2044
M73 P4 R5
G1  Y171.088  E0.0190
M73 P4 R5
G1  X219.060  E2.2044
G1  Y170.588  E0.0190
G1  X161.060  E2.2044
M73 P5 R5
G1  Y170.088  E0.0190
M73 P5 R5
G1  X219.060  E2.2044
G1  Y169.588  E0.0190
G1  X161.060  E2.2044
G1  Y169.088  E0.0190
G1  X219.060  E2.2044
M73 P6 R5
G1  Y168.588  E0.0190
M73 P6 R5
G1  X161.060  E2.2044
G1  Y168.088  E0.0190
; CP EMPTY GRID END
;------------------






G1  X160.060 Y167.588  
G1  X220.060  E2.2804
G1  Y175.588  E0.3041
G1  X160.060  E2.2804
M73 P7 R5
G1  Y167.588  E0.3041
M73 P7 R5
G1  X159.603 Y167.131  
G1  X220.517  E2.3151
G1  Y176.045  E0.3388
G1  X159.603  E2.3151
M73 P8 R5
G1  Y167.131  E0.3388
M73 P8 R5
G1  X159.146 Y166.674  
G1  X220.974  E2.3499
G1  Y176.502  E0.3735
G1  X159.146  E2.3499
M73 P9 R5
G1  Y166.674  E0.3735
M73 P9 R5
G1  X158.689 Y166.217  
G1  X221.431  E2.3846
G1  Y176.959  E0.4083
G1  X158.689  E2.3846
M73 P10 R5
G1  Y166.217  E0.4083
M73 P10 R5
G1  X158.232 Y165.760  
G1  X221.888  E2.4194
G1  Y177.416  E0.4430
G1  X158.232  E2.4194
M73 P11 R5
G1  Y165.760  E0.4430
M73 P11 R5
G1  X157.775 Y165.303  
G1  X222.345  E2.4541
G1  Y177.873  E0.4778
G1  X157.775  E2.4541
M73 P12 R5
G1  Y165.303  E0.4778
M73 P12 R5
G1  X157.318 Y164.846  
G1  X222.802  E2.4888
G1  Y178.330  E0.5125
G1  X157.318  E2.4888
M73 P13 R4
G1  Y164.846  E0.5125
M73 P13 R4
G1  X156.860 Y164.388  
G1  X223.260  E2.5236
G1  Y178.788  E0.5473
G1  X156.860  E2.5236
M73 P14 R4
G1  Y164.388  E0.5473
M73 P14 R4

; printing object comp.stl id:0 copy 0
G1 E-.28 F1800
;WIPE_START
G1 F3600
G1 X156.86 Y165.388 E-.12
;WIPE_END
EXCLUDE_OBJECT_START NAME=comp.stl_id_0_copy_0
G1 Z.6 F21000
G1 X174.625 Y102.189 Z.6
G1 Z.2
G1 E.4 F1800
;Change extrusion role G-code

OFFSET_T1 X=1 Y=-0.5 Z=1.115
M117 SET FILAMENT SENSOR OFF 
SET_FILAMENT_SENSOR SENSOR=encoder_t1 ENABLE=0


;TYPE:Inner wall
;WIDTH:0.479999
;HEIGHT:0.2
G1 F3000
G1 X174.489 Y102.206 E.00498
G1 X174.172 Y102.342 E.01254
G1 X173.88 Y102.613 E.01447
G1 X173.722 Y102.913 E.01232
G1 X173.664 Y103.265 E.01298
G1 X173.664 Y149.973 E1.6975
G1 X157.492 Y149.973 E.58773
G1 X157.492 Y86.001 E2.32494
M73 P15 R4
G1 X221.464 Y86.001 E2.32494
M73 P15 R4
G1 X221.464 Y102.173 E.58773
G1 X174.756 Y102.173 E1.6975
M73 P16 R4
G1 X174.665 Y102.184 E.00336
M73 P16 R4
G1 X174.723 Y102.61 F21000
G1 F3000
G1 X174.634 Y102.61 E.00323
G1 X174.327 Y102.77 E.01258
G1 X174.155 Y103.005 E.0106
G1 X174.101 Y103.265 E.00966
G1 X174.101 Y150.41 E1.71338
G1 X157.055 Y150.41 E.6195
G1 X157.055 Y85.564 E2.35671
G1 X221.901 Y85.564 E2.35671
M73 P17 R4
G1 X221.901 Y102.61 E.6195
M73 P17 R4
G1 X174.763 Y102.61 E1.71313
G1 X174.756 Y103.047 F21000
;Change extrusion role G-code

OFFSET_T1 X=1 Y=-0.5 Z=1.115
M117 SET FILAMENT SENSOR OFF 
SET_FILAMENT_SENSOR SENSOR=encoder_t1 ENABLE=0


;TYPE:Outer wall
G1 F3000
G1 X174.602 Y103.111 E.00608
G1 X174.538 Y103.265 E.00608
G1 X174.538 Y150.847 E1.72927
M73 P18 R4
G1 X156.618 Y150.847 E.65127
M73 P18 R4
G1 X156.618 Y85.127 E2.38848
G1 X222.338 Y85.127 E2.38848
G1 X222.338 Y103.047 E.65127
M73 P19 R4
G1 X174.796 Y103.047 E1.72781
M73 P19 R4
G1 E-.28 F1800
;WIPE_START
G1 F3000
G1 X174.602 Y103.111 E-.02457
G1 X174.538 Y103.265 E-.02007
G1 X174.538 Y103.893 E-.07535
;WIPE_END
G1 Z.6 F21000
G1 X220.448 Y86.132 Z.6
G1 Z.2
G1 E.4 F1800
;Change extrusion role G-code

OFFSET_T1 X=1 Y=-0.5 Z=1.115
M117 SET FILAMENT SENSOR OFF 
SET_FILAMENT_SENSOR SENSOR=encoder_t1 ENABLE=0


;TYPE:Bottom surface
;WIDTH:0.480592
G1 F6300
G1 X221.136 Y86.82 E.03542
G1 X221.136 Y87.439 E.02253
G1 X220.025 Y86.329 E.05715
G1 X219.406 Y86.329 E.02253
G1 X221.136 Y88.058 E.089
G1 X221.136 Y88.677 E.02253
G1 X218.787 Y86.329 E.12086
G1 X218.169 Y86.329 E.02253
G1 X221.136 Y89.296 E.15272
G1 X221.136 Y89.915 E.02253
G1 X217.55 Y86.329 E.18457
G1 X216.931 Y86.329 E.02253
G1 X221.136 Y90.534 E.21643
G1 X221.136 Y91.153 E.02253
G1 X216.312 Y86.329 E.24828
M73 P20 R4
G1 X215.693 Y86.329 E.02253
M73 P20 R4
G1 X221.136 Y91.772 E.28014
G1 X221.136 Y92.391 E.02253
G1 X215.074 Y86.329 E.312
G1 X214.455 Y86.329 E.02253
G1 X221.136 Y93.01 E.34385
G1 X221.136 Y93.629 E.02253
G1 X213.836 Y86.329 E.37571
G1 X213.217 Y86.329 E.02253
G1 X221.136 Y94.248 E.40756
G1 X221.136 Y94.867 E.02253
G1 X212.598 Y86.329 E.43942
G1 X211.979 Y86.329 E.02253
G1 X221.136 Y95.486 E.47128
G1 X221.136 Y96.105 E.02253
G1 X211.36 Y86.329 E.50313
G1 X210.741 Y86.329 E.02253
G1 X221.136 Y96.724 E.53499
G1 X221.136 Y97.343 E.02253
G1 X210.122 Y86.329 E.56685
G1 X209.503 Y86.329 E.02253
G1 X221.136 Y97.962 E.5987
M73 P21 R4
G1 X221.136 Y98.58 E.02253
M73 P21 R4
G1 X208.884 Y86.329 E.63056
G1 X208.265 Y86.329 E.02253
G1 X221.136 Y99.199 E.66241
G1 X221.136 Y99.818 E.02253
G1 X207.646 Y86.329 E.69427
G1 X207.027 Y86.329 E.02253
G1 X221.136 Y100.437 E.72613
G1 X221.136 Y101.056 E.02253
G1 X206.408 Y86.329 E.75798
G1 X205.789 Y86.329 E.02253
G1 X221.136 Y101.675 E.78984
G1 X221.136 Y101.845 E.00617
G1 X220.686 Y101.845 E.01636
G1 X205.17 Y86.329 E.79856
G1 X204.551 Y86.329 E.02253
G1 X220.067 Y101.845 E.79856
G1 X219.448 Y101.845 E.02253
G1 X203.932 Y86.329 E.79856
M73 P22 R4
G1 X203.313 Y86.329 E.02253
M73 P22 R4
G1 X218.83 Y101.845 E.79856
G1 X218.211 Y101.845 E.02253
G1 X202.694 Y86.329 E.79856
G1 X202.076 Y86.329 E.02253
G1 X217.592 Y101.845 E.79856
G1 X216.973 Y101.845 E.02253
G1 X201.457 Y86.329 E.79856
G1 X200.838 Y86.329 E.02253
G1 X216.354 Y101.845 E.79856
G1 X215.735 Y101.845 E.02253
G1 X200.219 Y86.329 E.79856
G1 X199.6 Y86.329 E.02253
G1 X215.116 Y101.845 E.79856
G1 X214.497 Y101.845 E.02253
G1 X198.981 Y86.329 E.79856
M73 P23 R4
G1 X198.362 Y86.329 E.02253
M73 P23 R4
G1 X213.878 Y101.845 E.79856
G1 X213.259 Y101.845 E.02253
G1 X197.743 Y86.329 E.79856
G1 X197.124 Y86.329 E.02253
G1 X212.64 Y101.845 E.79856
G1 X212.021 Y101.845 E.02253
G1 X196.505 Y86.329 E.79856
G1 X195.886 Y86.329 E.02253
G1 X211.402 Y101.845 E.79856
G1 X210.783 Y101.845 E.02253
G1 X195.267 Y86.329 E.79856
G1 X194.648 Y86.329 E.02253
G1 X210.164 Y101.845 E.79856
G1 X209.545 Y101.845 E.02253
G1 X194.029 Y86.329 E.79856
M73 P24 R4
G1 X193.41 Y86.329 E.02253
M73 P24 R4
G1 X208.926 Y101.845 E.79856
G1 X208.307 Y101.845 E.02253
G1 X192.791 Y86.329 E.79856
G1 X192.172 Y86.329 E.02253
G1 X207.688 Y101.845 E.79856
G1 X207.069 Y101.845 E.02253
G1 X191.553 Y86.329 E.79856
G1 X190.934 Y86.329 E.02253
G1 X206.45 Y101.845 E.79856
G1 X205.831 Y101.845 E.02253
G1 X190.315 Y86.329 E.79856
G1 X189.696 Y86.329 E.02253
G1 X205.212 Y101.845 E.79856
G1 X204.593 Y101.845 E.02253
G1 X189.077 Y86.329 E.79856
M73 P25 R4
G1 X188.458 Y86.329 E.02253
M73 P25 R4
G1 X203.974 Y101.845 E.79856
G1 X203.355 Y101.845 E.02253
G1 X187.839 Y86.329 E.79856
G1 X187.22 Y86.329 E.02253
G1 X202.737 Y101.845 E.79856
G1 X202.118 Y101.845 E.02253
G1 X186.601 Y86.329 E.79856
G1 X185.983 Y86.329 E.02253
G1 X201.499 Y101.845 E.79856
G1 X200.88 Y101.845 E.02253
G1 X185.364 Y86.329 E.79856
G1 X184.745 Y86.329 E.02253
G1 X200.261 Y101.845 E.79856
G1 X199.642 Y101.845 E.02253
G1 X184.126 Y86.329 E.79856
M73 P26 R4
G1 X183.507 Y86.329 E.02253
M73 P26 R4
G1 X199.023 Y101.845 E.79856
G1 X198.404 Y101.845 E.02253
G1 X182.888 Y86.329 E.79856
G1 X182.269 Y86.329 E.02253
G1 X197.785 Y101.845 E.79856
G1 X197.166 Y101.845 E.02253
G1 X181.65 Y86.329 E.79856
G1 X181.031 Y86.329 E.02253
G1 X196.547 Y101.845 E.79856
G1 X195.928 Y101.845 E.02253
G1 X180.412 Y86.329 E.79856
G1 X179.793 Y86.329 E.02253
G1 X195.309 Y101.845 E.79856
G1 X194.69 Y101.845 E.02253
G1 X179.174 Y86.329 E.79856
M73 P27 R4
G1 X178.555 Y86.329 E.02253
M73 P27 R4
G1 X194.071 Y101.845 E.79856
G1 X193.452 Y101.845 E.02253
G1 X177.936 Y86.329 E.79856
G1 X177.317 Y86.329 E.02253
G1 X192.833 Y101.845 E.79856
G1 X192.214 Y101.845 E.02253
G1 X176.698 Y86.329 E.79856
G1 X176.079 Y86.329 E.02253
G1 X191.595 Y101.845 E.79856
G1 X190.976 Y101.845 E.02253
G1 X175.46 Y86.329 E.79856
G1 X174.841 Y86.329 E.02253
G1 X190.357 Y101.845 E.79856
G1 X189.738 Y101.845 E.02253
G1 X174.222 Y86.329 E.79856
M73 P28 R4
G1 X173.603 Y86.329 E.02253
M73 P28 R4
G1 X189.119 Y101.845 E.79856
G1 X188.5 Y101.845 E.02253
G1 X172.984 Y86.329 E.79856
G1 X172.365 Y86.329 E.02253
G1 X187.881 Y101.845 E.79856
G1 X187.262 Y101.845 E.02253
G1 X171.746 Y86.329 E.79856
G1 X171.127 Y86.329 E.02253
G1 X186.644 Y101.845 E.79856
G1 X186.025 Y101.845 E.02253
G1 X170.508 Y86.329 E.79856
G1 X169.89 Y86.329 E.02253
G1 X185.406 Y101.845 E.79856
G1 X184.787 Y101.845 E.02253
G1 X169.271 Y86.329 E.79856
M73 P29 R4
G1 X168.652 Y86.329 E.02253
M73 P29 R4
G1 X184.168 Y101.845 E.79856
G1 X183.549 Y101.845 E.02253
G1 X168.033 Y86.329 E.79856
G1 X167.414 Y86.329 E.02253
G1 X182.93 Y101.845 E.79856
G1 X182.311 Y101.845 E.02253
G1 X166.795 Y86.329 E.79856
G1 X166.176 Y86.329 E.02253
G1 X181.692 Y101.845 E.79856
G1 X181.073 Y101.845 E.02253
G1 X165.557 Y86.329 E.79856
G1 X164.938 Y86.329 E.02253
G1 X180.454 Y101.845 E.79856
G1 X179.835 Y101.845 E.02253
G1 X164.319 Y86.329 E.79856
M73 P30 R4
G1 X163.7 Y86.329 E.02253
M73 P30 R4
G1 X179.216 Y101.845 E.79856
G1 X178.597 Y101.845 E.02253
G1 X163.081 Y86.329 E.79856
G1 X162.462 Y86.329 E.02253
G1 X177.978 Y101.845 E.79856
M73 P30 R3
G1 X177.359 Y101.845 E.02253
M73 P30 R3
G1 X161.843 Y86.329 E.79856
G1 X161.224 Y86.329 E.02253
G1 X176.74 Y101.845 E.79856
G1 X176.121 Y101.845 E.02253
G1 X160.605 Y86.329 E.79856
G1 X159.986 Y86.329 E.02253
G1 X175.502 Y101.845 E.79856
G1 X174.883 Y101.845 E.02253
G1 X159.367 Y86.329 E.79856
M73 P31 R3
G1 X158.748 Y86.329 E.02253
M73 P31 R3
G1 X174.331 Y101.912 E.80202
G1 X174.091 Y102.01 E.00943
G1 X173.919 Y102.119 E.00742
G1 X158.129 Y86.329 E.81265
G1 X157.82 Y86.329 E.01126
G1 X157.82 Y86.638 E.01126
G1 X173.615 Y102.433 E.81292
G1 X173.5 Y102.6 E.00737
G1 X173.407 Y102.844 E.0095
G1 X157.82 Y87.257 E.8022
G1 X157.82 Y87.876 E.02253
G1 X173.336 Y103.392 E.79856
G1 X173.336 Y104.011 E.02253
G1 X157.82 Y88.495 E.79856
G1 X157.82 Y89.114 E.02253
G1 X173.336 Y104.63 E.79856
G1 X173.336 Y105.249 E.02253
G1 X157.82 Y89.733 E.79856
M73 P32 R3
G1 X157.82 Y90.352 E.02253
M73 P32 R3
G1 X173.336 Y105.868 E.79856
G1 X173.336 Y106.487 E.02253
G1 X157.82 Y90.971 E.79856
G1 X157.82 Y91.59 E.02253
G1 X173.336 Y107.106 E.79856
G1 X173.336 Y107.725 E.02253
G1 X157.82 Y92.209 E.79856
G1 X157.82 Y92.828 E.02253
G1 X173.336 Y108.344 E.79856
G1 X173.336 Y108.963 E.02253
G1 X157.82 Y93.447 E.79856
G1 X157.82 Y94.066 E.02253
G1 X173.336 Y109.582 E.79856
G1 X173.336 Y110.201 E.02253
G1 X157.82 Y94.685 E.79856
M73 P33 R3
G1 X157.82 Y95.304 E.02253
M73 P33 R3
G1 X173.336 Y110.82 E.79856
G1 X173.336 Y111.439 E.02253
G1 X157.82 Y95.923 E.79856
G1 X157.82 Y96.542 E.02253
G1 X173.336 Y112.058 E.79856
G1 X173.336 Y112.677 E.02253
G1 X157.82 Y97.161 E.79856
G1 X157.82 Y97.78 E.02253
G1 X173.336 Y113.296 E.79856
G1 X173.336 Y113.915 E.02253
G1 X157.82 Y98.399 E.79856
G1 X157.82 Y99.017 E.02253
G1 X173.336 Y114.534 E.79856
G1 X173.336 Y115.153 E.02253
G1 X157.82 Y99.636 E.79856
M73 P34 R3
G1 X157.82 Y100.255 E.02253
M73 P34 R3
G1 X173.336 Y115.771 E.79856
G1 X173.336 Y116.39 E.02253
G1 X157.82 Y100.874 E.79856
G1 X157.82 Y101.493 E.02253
G1 X173.336 Y117.009 E.79856
G1 X173.336 Y117.628 E.02253
G1 X157.82 Y102.112 E.79856
G1 X157.82 Y102.731 E.02253
G1 X173.336 Y118.247 E.79856
G1 X173.336 Y118.866 E.02253
G1 X157.82 Y103.35 E.79856
G1 X157.82 Y103.969 E.02253
G1 X173.336 Y119.485 E.79856
G1 X173.336 Y120.104 E.02253
G1 X157.82 Y104.588 E.79856
M73 P35 R3
G1 X157.82 Y105.207 E.02253
M73 P35 R3
G1 X173.336 Y120.723 E.79856
G1 X173.336 Y121.342 E.02253
G1 X157.82 Y105.826 E.79856
G1 X157.82 Y106.445 E.02253
G1 X173.336 Y121.961 E.79856
G1 X173.336 Y122.58 E.02253
G1 X157.82 Y107.064 E.79856
G1 X157.82 Y107.683 E.02253
G1 X173.336 Y123.199 E.79856
G1 X173.336 Y123.818 E.02253
G1 X157.82 Y108.302 E.79856
G1 X157.82 Y108.921 E.02253
G1 X173.336 Y124.437 E.79856
G1 X173.336 Y125.056 E.02253
G1 X157.82 Y109.54 E.79856
M73 P36 R3
G1 X157.82 Y110.159 E.02253
M73 P36 R3
G1 X173.336 Y125.675 E.79856
G1 X173.336 Y126.294 E.02253
G1 X157.82 Y110.778 E.79856
G1 X157.82 Y111.397 E.02253
G1 X173.336 Y126.913 E.79856
G1 X173.336 Y127.532 E.02253
G1 X157.82 Y112.016 E.79856
G1 X157.82 Y112.635 E.02253
G1 X173.336 Y128.151 E.79856
G1 X173.336 Y128.77 E.02253
G1 X157.82 Y113.254 E.79856
G1 X157.82 Y113.873 E.02253
G1 X173.336 Y129.389 E.79856
G1 X173.336 Y130.008 E.02253
G1 X157.82 Y114.492 E.79856
M73 P37 R3
G1 X157.82 Y115.11 E.02253
M73 P37 R3
G1 X173.336 Y130.627 E.79856
G1 X173.336 Y131.246 E.02253
G1 X157.82 Y115.729 E.79856
G1 X157.82 Y116.348 E.02253
G1 X173.336 Y131.864 E.79856
G1 X173.336 Y132.483 E.02253
G1 X157.82 Y116.967 E.79856
G1 X157.82 Y117.586 E.02253
G1 X173.336 Y133.102 E.79856
G1 X173.336 Y133.721 E.02253
G1 X157.82 Y118.205 E.79856
G1 X157.82 Y118.824 E.02253
G1 X173.336 Y134.34 E.79856
G1 X173.336 Y134.959 E.02253
G1 X157.82 Y119.443 E.79856
M73 P38 R3
G1 X157.82 Y120.062 E.02253
M73 P38 R3
G1 X173.336 Y135.578 E.79856
G1 X173.336 Y136.197 E.02253
G1 X157.82 Y120.681 E.79856
G1 X157.82 Y121.3 E.02253
G1 X173.336 Y136.816 E.79856
G1 X173.336 Y137.435 E.02253
G1 X157.82 Y121.919 E.79856
G1 X157.82 Y122.538 E.02253
G1 X173.336 Y138.054 E.79856
G1 X173.336 Y138.673 E.02253
G1 X157.82 Y123.157 E.79856
G1 X157.82 Y123.776 E.02253
G1 X173.336 Y139.292 E.79856
G1 X173.336 Y139.911 E.02253
G1 X157.82 Y124.395 E.79856
M73 P39 R3
G1 X157.82 Y125.014 E.02253
M73 P39 R3
G1 X173.336 Y140.53 E.79856
G1 X173.336 Y141.149 E.02253
G1 X157.82 Y125.633 E.79856
G1 X157.82 Y126.252 E.02253
G1 X173.336 Y141.768 E.79856
