; HEADER_BLOCK_START
; generated by OrcaSlicer 2.2.0 on 2024-12-17 at 10:33:54
; total layer number: 4
; filament_density: 1.24,1.24,1.24,1.24,1.24
; filament_diameter: 1.75,1.75,1.75,1.75,1.75
; max_z_height: 0.80
; HEADER_BLOCK_END

; THUMBNAIL_BLOCK_START

;
; THUMBNAIL_BLOCK_END

; THUMBNAIL_BLOCK_START

;
; THUMBNAIL_BLOCK_END

; external perimeters extrusion width = 0.40mm
; perimeters extrusion width = 0.44mm
; infill extrusion width = 0.44mm
; solid infill extrusion width = 0.48mm
; top infill extrusion width = 0.38mm
; first layer extrusion width = 0.48mm

; external perimeters extrusion width = 0.40mm
; perimeters extrusion width = 0.44mm
; infill extrusion width = 0.44mm
; solid infill extrusion width = 0.48mm
; top infill extrusion width = 0.38mm
; first layer extrusion width = 0.48mm

; EXECUTABLE_BLOCK_START
EXCLUDE_OBJECT_DEFINE NAME=comp.stl_id_0_copy_0 CENTER=193.589,110.774 POLYGON=[[160.489,77.6736],[226.689,77.6736],[226.689,96.0736],[178.889,143.874],[160.489,143.874],[160.489,77.6736]]
M73 P0 R5
;TYPE:Custom
;START
M140 S35         ; set bed final temp
M190 S35         ; wait for bed final temp






G90
G21
M83 ; use relative distances for extrusion
; TESTING
T1



OFFSET_T1 X=1 Y=-0.5
M117 SET FILAMENT SENSOR OFF 
SET_FILAMENT_SENSOR SENSOR=encoder_t1 ENABLE=0
;_FORCE_RESUME_FAN_SPEED
; filament start gcode
M109 S200 T1 ; set nozzle temperature and wait for it to be reached
G1 Z.2 F21000
M106 S0
;LAYER_CHANGE
;Z:0.2
;HEIGHT:0.2
;BEFORE_LAYER_CHANGE
;0.2
G92 E0

OFFSET_T1 X=1 Y=-0.5
M117 SET FILAMENT SENSOR OFF 
SET_FILAMENT_SENSOR SENSOR=encoder_t1 ENABLE=0

M117 LAYER 0.2
;AFTER_LAYER_CHANGE
;0.2
;AFTER_LAYER_CHANGE
;0.2

OFFSET_T1 X=1 Y=-0.5
M117 SET FILAMENT SENSOR OFF 
SET_FILAMENT_SENSOR SENSOR=encoder_t1 ENABLE=0

;_SET_FAN_SPEED_CHANGING_LAYER
SET_VELOCITY_LIMIT ACCEL=500 ACCEL_TO_DECEL=250
G1 E-.4 F1800
G1 Z.6 F21000
G1 X218.269 Y168.522
G1 Z.6
G1 Z.2
G1 E.4 F1800
;HEIGHT:0.2
;TYPE:Prime tower
;WIDTH:0.5
G1  X218.269 Y174.772  E0.2375 F3000
G1  X159.269  E2.2424
G1  Y168.522  E0.2375
G1  X218.269  E2.2424
M73 P1 R5
G1  Y174.772 
M73 P1 R5
G1  X217.269 
;--------------------
; CP EMPTY GRID START
; layer #1
G1  Y174.272  E0.0190
G1  X159.769  E2.1854
G1  Y173.747  E0.0200
G1  X217.769  E2.2044
M73 P2 R5
G1  Y173.222  E0.0200
M73 P2 R5
G1  X159.769  E2.2044
G1  Y172.697  E0.0200
G1  X217.769  E2.2044
G1  Y172.172  E0.0200
G1  X159.769  E2.2044
M73 P3 R5
G1  Y171.647  E0.0200
M73 P3 R5
G1  X217.769  E2.2044
G1  Y171.122  E0.0200
G1  X159.769  E2.2044
G1  Y170.597  E0.0200
G1  X217.769  E2.2044
M73 P4 R5
G1  Y170.072  E0.0200
M73 P4 R5
G1  X159.769  E2.2044
G1  Y169.547  E0.0200
G1  X217.769  E2.2044
M73 P5 R5
G1  Y169.022  E0.0200
M73 P5 R5
G1  X159.769  E2.2044
G1  Y168.522  E0.0190
; CP EMPTY GRID END
;------------------






G1  X158.769 Y168.022  
G1  X218.769  E2.2804
G1  Y175.272  E0.2755
G1  X158.769  E2.2804
M73 P6 R5
G1  Y168.022  E0.2755
M73 P6 R5
G1  X158.312 Y167.565  
G1  X219.226  E2.3151
G1  Y175.729  E0.3103
G1  X158.312  E2.3151
M73 P7 R5
G1  Y167.565  E0.3103
M73 P7 R5
G1  X157.855 Y167.108  
G1  X219.683  E2.3499
G1  Y176.186  E0.3450
G1  X157.855  E2.3499
G1  Y167.108  E0.3450
M73 P8 R5
G1  X157.398 Y166.651  
M73 P8 R5
G1  X220.140  E2.3846
G1  Y176.643  E0.3798
G1  X157.398  E2.3846
G1  Y166.651  E0.3798
G1  X156.941 Y166.194  
G1  X220.597  E2.4194
M73 P9 R5
G1  Y177.100  E0.4145
M73 P9 R5
G1  X156.941  E2.4194
G1  Y166.194  E0.4145
G1  X156.484 Y165.737  
G1  X221.054  E2.4541
M73 P10 R5
G1  Y177.557  E0.4493
M73 P10 R5
G1  X156.484  E2.4541
G1  Y165.737  E0.4493
G1  X156.027 Y165.280  
G1  X221.511  E2.4888
M73 P11 R5
G1  Y178.014  E0.4840
M73 P11 R5
G1  X156.027  E2.4888
G1  Y165.280  E0.4840
G1  X155.569 Y164.822  
G1  X221.969  E2.5236
M73 P12 R5
G1  Y178.472  E0.5188
M73 P12 R5
G1  X155.569  E2.5236
G1  Y164.822  E0.5188

; printing object comp.stl id:0 copy 0
G1 E-.28 F1800
;WIPE_START
G1 F3600
G1 X155.569 Y165.822 E-.12
;WIPE_END
EXCLUDE_OBJECT_START NAME=comp.stl_id_0_copy_0
G1 Z.6 F21000
G1 X178.736 Y94.976 Z.6
M73 P13 R5
G1 Z.2
M73 P13 R5
G1 E.4 F1800
;Change extrusion role G-code

OFFSET_T1 X=1 Y=-0.5
M117 SET FILAMENT SENSOR OFF 
SET_FILAMENT_SENSOR SENSOR=encoder_t1 ENABLE=0


;TYPE:Inner wall
;WIDTH:0.479999
;HEIGHT:0.2
G1 F3000
G1 X178.6 Y94.993 E.00498
G1 X178.283 Y95.129 E.01254
G1 X177.991 Y95.4 E.01447
G1 X177.833 Y95.7 E.01232
G1 X177.774 Y96.052 E.01298
G1 X177.774 Y142.759 E1.6975
G1 X161.603 Y142.759 E.58773
G1 X161.603 Y78.788 E2.32494
G1 X225.574 Y78.788 E2.32494
M73 P14 R4
G1 X225.574 Y94.959 E.58773
M73 P14 R4
G1 X178.867 Y94.959 E1.6975
G1 X178.775 Y94.971 E.00336
G1 X178.834 Y95.397 F21000
G1 F3000
G1 X178.745 Y95.397 E.00323
G1 X178.438 Y95.556 E.01258
G1 X178.265 Y95.792 E.0106
G1 X178.211 Y96.052 E.00966
G1 X178.211 Y143.197 E1.71338
M73 P15 R4
G1 X161.166 Y143.197 E.6195
M73 P15 R4
G1 X161.166 Y78.351 E2.35671
G1 X226.011 Y78.351 E2.35671
G1 X226.011 Y95.397 E.6195
M73 P16 R4
G1 X178.874 Y95.397 E1.71313
M73 P16 R4
G1 X178.867 Y95.834 F21000
;Change extrusion role G-code

OFFSET_T1 X=1 Y=-0.5
M117 SET FILAMENT SENSOR OFF 
SET_FILAMENT_SENSOR SENSOR=encoder_t1 ENABLE=0


;TYPE:Outer wall
G1 F3000
G1 X178.713 Y95.898 E.00608
G1 X178.649 Y96.052 E.00608
G1 X178.649 Y143.634 E1.72927
G1 X160.729 Y143.634 E.65127
G1 X160.729 Y77.914 E2.38848
M73 P17 R4
G1 X226.449 Y77.914 E2.38848
M73 P17 R4
G1 X226.449 Y95.834 E.65127
G1 X178.907 Y95.834 E1.72781
G1 E-.28 F1800
;WIPE_START
M73 P18 R4
G1 F3000
M73 P18 R4
G1 X178.713 Y95.898 E-.02457
G1 X178.649 Y96.052 E-.02007
G1 X178.649 Y96.68 E-.07535
;WIPE_END
G1 Z.6 F21000
G1 X224.558 Y78.919 Z.6
G1 Z.2
G1 E.4 F1800
;Change extrusion role G-code

OFFSET_T1 X=1 Y=-0.5
M117 SET FILAMENT SENSOR OFF 
SET_FILAMENT_SENSOR SENSOR=encoder_t1 ENABLE=0


;TYPE:Bottom surface
;WIDTH:0.480592
G1 F6300
G1 X225.247 Y79.607 E.03542
G1 X225.247 Y80.226 E.02253
G1 X224.136 Y79.116 E.05715
G1 X223.517 Y79.116 E.02253
G1 X225.247 Y80.845 E.089
G1 X225.247 Y81.464 E.02253
G1 X222.898 Y79.116 E.12086
G1 X222.279 Y79.116 E.02253
G1 X225.247 Y82.083 E.15272
G1 X225.247 Y82.702 E.02253
G1 X221.66 Y79.116 E.18457
G1 X221.041 Y79.116 E.02253
G1 X225.247 Y83.321 E.21643
G1 X225.247 Y83.94 E.02253
G1 X220.422 Y79.116 E.24828
G1 X219.803 Y79.116 E.02253
G1 X225.247 Y84.559 E.28014
G1 X225.247 Y85.178 E.02253
G1 X219.185 Y79.116 E.312
G1 X218.566 Y79.116 E.02253
G1 X225.247 Y85.797 E.34385
G1 X225.247 Y86.416 E.02253
G1 X217.947 Y79.116 E.37571
G1 X217.328 Y79.116 E.02253
G1 X225.247 Y87.035 E.40756
M73 P19 R4
G1 X225.247 Y87.653 E.02253
M73 P19 R4
G1 X216.709 Y79.116 E.43942
G1 X216.09 Y79.116 E.02253
G1 X225.247 Y88.272 E.47128
G1 X225.247 Y88.891 E.02253
G1 X215.471 Y79.116 E.50313
G1 X214.852 Y79.116 E.02253
G1 X225.247 Y89.51 E.53499
G1 X225.247 Y90.129 E.02253
G1 X214.233 Y79.116 E.56685
G1 X213.614 Y79.116 E.02253
G1 X225.247 Y90.748 E.5987
G1 X225.247 Y91.367 E.02253
G1 X212.995 Y79.116 E.63056
G1 X212.376 Y79.116 E.02253
G1 X225.247 Y91.986 E.66241
G1 X225.247 Y92.605 E.02253
G1 X211.757 Y79.116 E.69427
G1 X211.138 Y79.116 E.02253
G1 X225.247 Y93.224 E.72613
M73 P20 R4
G1 X225.247 Y93.843 E.02253
M73 P20 R4
G1 X210.519 Y79.116 E.75798
G1 X209.9 Y79.116 E.02253
G1 X225.247 Y94.462 E.78984
G1 X225.247 Y94.632 E.00617
G1 X224.797 Y94.632 E.01636
G1 X209.281 Y79.116 E.79856
G1 X208.662 Y79.116 E.02253
G1 X224.178 Y94.632 E.79856
G1 X223.559 Y94.632 E.02253
G1 X208.043 Y79.116 E.79856
G1 X207.424 Y79.116 E.02253
G1 X222.94 Y94.632 E.79856
G1 X222.321 Y94.632 E.02253
G1 X206.805 Y79.116 E.79856
G1 X206.186 Y79.116 E.02253
G1 X221.702 Y94.632 E.79856
M73 P21 R4
G1 X221.083 Y94.632 E.02253
M73 P21 R4
G1 X205.567 Y79.116 E.79856
G1 X204.948 Y79.116 E.02253
G1 X220.464 Y94.632 E.79856
G1 X219.845 Y94.632 E.02253
G1 X204.329 Y79.116 E.79856
G1 X203.71 Y79.116 E.02253
G1 X219.227 Y94.632 E.79856
G1 X218.608 Y94.632 E.02253
G1 X203.092 Y79.116 E.79856
G1 X202.473 Y79.116 E.02253
G1 X217.989 Y94.632 E.79856
G1 X217.37 Y94.632 E.02253
G1 X201.854 Y79.116 E.79856
G1 X201.235 Y79.116 E.02253
G1 X216.751 Y94.632 E.79856
M73 P22 R4
G1 X216.132 Y94.632 E.02253
M73 P22 R4
G1 X200.616 Y79.116 E.79856
G1 X199.997 Y79.116 E.02253
G1 X215.513 Y94.632 E.79856
G1 X214.894 Y94.632 E.02253
G1 X199.378 Y79.116 E.79856
G1 X198.759 Y79.116 E.02253
G1 X214.275 Y94.632 E.79856
G1 X213.656 Y94.632 E.02253
G1 X198.14 Y79.116 E.79856
G1 X197.521 Y79.116 E.02253
G1 X213.037 Y94.632 E.79856
G1 X212.418 Y94.632 E.02253
G1 X196.902 Y79.116 E.79856
G1 X196.283 Y79.116 E.02253
G1 X211.799 Y94.632 E.79856
M73 P23 R4
G1 X211.18 Y94.632 E.02253
M73 P23 R4
G1 X195.664 Y79.116 E.79856
G1 X195.045 Y79.116 E.02253
G1 X210.561 Y94.632 E.79856
G1 X209.942 Y94.632 E.02253
G1 X194.426 Y79.116 E.79856
G1 X193.807 Y79.116 E.02253
G1 X209.323 Y94.632 E.79856
G1 X208.704 Y94.632 E.02253
G1 X193.188 Y79.116 E.79856
G1 X192.569 Y79.116 E.02253
G1 X208.085 Y94.632 E.79856
G1 X207.466 Y94.632 E.02253
G1 X191.95 Y79.116 E.79856
G1 X191.331 Y79.116 E.02253
G1 X206.847 Y94.632 E.79856
M73 P24 R4
G1 X206.228 Y94.632 E.02253
M73 P24 R4
G1 X190.712 Y79.116 E.79856
G1 X190.093 Y79.116 E.02253
G1 X205.609 Y94.632 E.79856
G1 X204.99 Y94.632 E.02253
G1 X189.474 Y79.116 E.79856
G1 X188.855 Y79.116 E.02253
G1 X204.371 Y94.632 E.79856
G1 X203.752 Y94.632 E.02253
G1 X188.236 Y79.116 E.79856
G1 X187.617 Y79.116 E.02253
G1 X203.134 Y94.632 E.79856
G1 X202.515 Y94.632 E.02253
G1 X186.999 Y79.116 E.79856
G1 X186.38 Y79.116 E.02253
G1 X201.896 Y94.632 E.79856
M73 P25 R4
G1 X201.277 Y94.632 E.02253
M73 P25 R4
G1 X185.761 Y79.116 E.79856
G1 X185.142 Y79.116 E.02253
G1 X200.658 Y94.632 E.79856
G1 X200.039 Y94.632 E.02253
G1 X184.523 Y79.116 E.79856
G1 X183.904 Y79.116 E.02253
G1 X199.42 Y94.632 E.79856
G1 X198.801 Y94.632 E.02253
G1 X183.285 Y79.116 E.79856
G1 X182.666 Y79.116 E.02253
G1 X198.182 Y94.632 E.79856
G1 X197.563 Y94.632 E.02253
G1 X182.047 Y79.116 E.79856
G1 X181.428 Y79.116 E.02253
G1 X196.944 Y94.632 E.79856
M73 P26 R4
G1 X196.325 Y94.632 E.02253
M73 P26 R4
G1 X180.809 Y79.116 E.79856
G1 X180.19 Y79.116 E.02253
G1 X195.706 Y94.632 E.79856
G1 X195.087 Y94.632 E.02253
G1 X179.571 Y79.116 E.79856
G1 X178.952 Y79.116 E.02253
G1 X194.468 Y94.632 E.79856
G1 X193.849 Y94.632 E.02253
G1 X178.333 Y79.116 E.79856
G1 X177.714 Y79.116 E.02253
G1 X193.23 Y94.632 E.79856
G1 X192.611 Y94.632 E.02253
G1 X177.095 Y79.116 E.79856
G1 X176.476 Y79.116 E.02253
G1 X191.992 Y94.632 E.79856
G1 X191.373 Y94.632 E.02253
M73 P27 R4
G1 X175.857 Y79.116 E.79856
M73 P27 R4
G1 X175.238 Y79.116 E.02253
G1 X190.754 Y94.632 E.79856
G1 X190.135 Y94.632 E.02253
G1 X174.619 Y79.116 E.79856
G1 X174 Y79.116 E.02253
G1 X189.516 Y94.632 E.79856
G1 X188.897 Y94.632 E.02253
G1 X173.381 Y79.116 E.79856
G1 X172.762 Y79.116 E.02253
G1 X188.278 Y94.632 E.79856
G1 X187.659 Y94.632 E.02253
G1 X172.143 Y79.116 E.79856
G1 X171.524 Y79.116 E.02253
G1 X187.041 Y94.632 E.79856
G1 X186.422 Y94.632 E.02253
G1 X170.905 Y79.116 E.79856
M73 P28 R4
G1 X170.287 Y79.116 E.02253
M73 P28 R4
G1 X185.803 Y94.632 E.79856
G1 X185.184 Y94.632 E.02253
G1 X169.668 Y79.116 E.79856
G1 X169.049 Y79.116 E.02253
G1 X184.565 Y94.632 E.79856
G1 X183.946 Y94.632 E.02253
G1 X168.43 Y79.116 E.79856
G1 X167.811 Y79.116 E.02253
G1 X183.327 Y94.632 E.79856
G1 X182.708 Y94.632 E.02253
G1 X167.192 Y79.116 E.79856
G1 X166.573 Y79.116 E.02253
G1 X182.089 Y94.632 E.79856
G1 X181.47 Y94.632 E.02253
G1 X165.954 Y79.116 E.79856
M73 P29 R4
G1 X165.335 Y79.116 E.02253
M73 P29 R4
G1 X180.851 Y94.632 E.79856
G1 X180.232 Y94.632 E.02253
G1 X164.716 Y79.116 E.79856
G1 X164.097 Y79.116 E.02253
G1 X179.613 Y94.632 E.79856
G1 X178.994 Y94.632 E.02253
G1 X163.478 Y79.116 E.79856
G1 X162.859 Y79.116 E.02253
G1 X178.442 Y94.699 E.80202
G1 X178.202 Y94.797 E.00943
G1 X178.03 Y94.905 E.00742
G1 X162.24 Y79.116 E.81265
G1 X161.931 Y79.116 E.01126
G1 X161.931 Y79.425 E.01126
G1 X177.725 Y95.22 E.81292
G1 X177.611 Y95.387 E.00737
G1 X177.517 Y95.631 E.0095
G1 X161.931 Y80.044 E.8022
M73 P30 R4
G1 X161.931 Y80.663 E.02253
M73 P30 R4
G1 X177.447 Y96.179 E.79856
G1 X177.447 Y96.798 E.02253
G1 X161.931 Y81.282 E.79856
G1 X161.931 Y81.901 E.02253
G1 X177.447 Y97.417 E.79856
G1 X177.447 Y98.036 E.02253
G1 X161.931 Y82.52 E.79856
G1 X161.931 Y83.139 E.02253
G1 X177.447 Y98.655 E.79856
G1 X177.447 Y99.274 E.02253
G1 X161.931 Y83.758 E.79856
G1 X161.931 Y84.377 E.02253
G1 X177.447 Y99.893 E.79856
G1 X177.447 Y100.512 E.02253
G1 X161.931 Y84.996 E.79856
M73 P31 R4
G1 X161.931 Y85.615 E.02253
M73 P31 R4
G1 X177.447 Y101.131 E.79856
G1 X177.447 Y101.75 E.02253
G1 X161.931 Y86.234 E.79856
M73 P31 R3
G1 X161.931 Y86.853 E.02253
M73 P31 R3
G1 X177.447 Y102.369 E.79856
G1 X177.447 Y102.988 E.02253
G1 X161.931 Y87.472 E.79856
G1 X161.931 Y88.09 E.02253
G1 X177.447 Y103.607 E.79856
G1 X177.447 Y104.226 E.02253
G1 X161.931 Y88.709 E.79856
G1 X161.931 Y89.328 E.02253
G1 X177.447 Y104.844 E.79856
G1 X177.447 Y105.463 E.02253
G1 X161.931 Y89.947 E.79856
M73 P32 R3
G1 X161.931 Y90.566 E.02253
M73 P32 R3
G1 X177.447 Y106.082 E.79856
G1 X177.447 Y106.701 E.02253
G1 X161.931 Y91.185 E.79856
G1 X161.931 Y91.804 E.02253
G1 X177.447 Y107.32 E.79856
G1 X177.447 Y107.939 E.02253
G1 X161.931 Y92.423 E.79856
G1 X161.931 Y93.042 E.02253
G1 X177.447 Y108.558 E.79856
G1 X177.447 Y109.177 E.02253
G1 X161.931 Y93.661 E.79856
G1 X161.931 Y94.28 E.02253
G1 X177.447 Y109.796 E.79856
G1 X177.447 Y110.415 E.02253
G1 X161.931 Y94.899 E.79856
M73 P33 R3
G1 X161.931 Y95.518 E.02253
M73 P33 R3
G1 X177.447 Y111.034 E.79856
G1 X177.447 Y111.653 E.02253
G1 X161.931 Y96.137 E.79856
G1 X161.931 Y96.756 E.02253
G1 X177.447 Y112.272 E.79856
G1 X177.447 Y112.891 E.02253
G1 X161.931 Y97.375 E.79856
G1 X161.931 Y97.994 E.02253
G1 X177.447 Y113.51 E.79856
G1 X177.447 Y114.129 E.02253
G1 X161.931 Y98.613 E.79856
G1 X161.931 Y99.232 E.02253
G1 X177.447 Y114.748 E.79856
G1 X177.447 Y115.367 E.02253
G1 X161.931 Y99.851 E.79856
M73 P34 R3
G1 X161.931 Y100.47 E.02253
M73 P34 R3
G1 X177.447 Y115.986 E.79856
G1 X177.447 Y116.605 E.02253
G1 X161.931 Y101.089 E.79856
G1 X161.931 Y101.708 E.02253
G1 X177.447 Y117.224 E.79856
G1 X177.447 Y117.843 E.02253
G1 X161.931 Y102.327 E.79856
G1 X161.931 Y102.946 E.02253
G1 X177.447 Y118.462 E.79856
G1 X177.447 Y119.081 E.02253
G1 X161.931 Y103.565 E.79856
G1 X161.931 Y104.183 E.02253
G1 X177.447 Y119.7 E.79856
G1 X177.447 Y120.319 E.02253
G1 X161.931 Y104.802 E.79856
M73 P35 R3
G1 X161.931 Y105.421 E.02253
M73 P35 R3
G1 X177.447 Y120.937 E.79856
G1 X177.447 Y121.556 E.02253
G1 X161.931 Y106.04 E.79856
G1 X161.931 Y106.659 E.02253
G1 X177.447 Y122.175 E.79856
G1 X177.447 Y122.794 E.02253
G1 X161.931 Y107.278 E.79856
G1 X161.931 Y107.897 E.02253
G1 X177.447 Y123.413 E.79856
G1 X177.447 Y124.032 E.02253
G1 X161.931 Y108.516 E.79856
G1 X161.931 Y109.135 E.02253
G1 X177.447 Y124.651 E.79856
G1 X177.447 Y125.27 E.02253
G1 X161.931 Y109.754 E.79856
M73 P36 R3
G1 X161.931 Y110.373 E.02253
M73 P36 R3
G1 X177.447 Y125.889 E.79856
G1 X177.447 Y126.508 E.02253
G1 X161.931 Y110.992 E.79856
G1 X161.931 Y111.611 E.02253
G1 X177.447 Y127.127 E.79856
G1 X177.447 Y127.746 E.02253
G1 X161.931 Y112.23 E.79856
G1 X161.931 Y112.849 E.02253
G1 X177.447 Y128.365 E.79856
G1 X177.447 Y128.984 E.02253
G1 X161.931 Y113.468 E.79856
G1 X161.931 Y114.087 E.02253
G1 X177.447 Y129.603 E.79856
G1 X177.447 Y130.222 E.02253
G1 X161.931 Y114.706 E.79856
G1 X161.931 Y115.325 E.02253
M73 P37 R3
G1 X177.447 Y130.841 E.79856
M73 P37 R3
G1 X177.447 Y131.46 E.02253
G1 X161.931 Y115.944 E.79856
G1 X161.931 Y116.563 E.02253
G1 X177.447 Y132.079 E.79856
G1 X177.447 Y132.698 E.02253
G1 X161.931 Y117.182 E.79856
G1 X161.931 Y117.801 E.02253
G1 X177.447 Y133.317 E.79856
G1 X177.447 Y133.936 E.02253
G1 X161.931 Y118.42 E.79856
G1 X161.931 Y119.039 E.02253
G1 X177.447 Y134.555 E.79856
G1 X177.447 Y135.174 E.02253
G1 X161.931 Y119.658 E.79856
G1 X161.931 Y120.276 E.02253
G1 X177.447 Y135.793 E.79856
M73 P38 R3
G1 X177.447 Y136.412 E.02253
M73 P38 R3
G1 X161.931 Y120.895 E.79856
G1 X161.931 Y121.514 E.02253
G1 X177.447 Y137.03 E.79856
